kutzer/Scor6AxisToolbox/Scor6AxisToolbox Example SCRIPTS/ScorBotBoxData_sCurve/BSEPR_Position_70Hz.csv
Time_(s), Base_Joint_Position_(rad), Shoulder_Joint_Position_(rad), Elbow_Joint_Position_(rad), Wrist_Pitch_Joint_Position_(rad), Wrist_Roll_Joint_Position_(rad)
0.000, 0.00000, 2.09925, -1.65843, -1.54994, 0.00000
0.014, -0.00000, 2.09925, -1.65843, -1.54994, -0.00000
0.029, -0.00000, 2.09924, -1.65842, -1.54994, -0.00002
0.043, -0.00000, 2.09921, -1.65840, -1.54993, -0.00006
0.057, -0.00001, 2.09917, -1.65836, -1.54992, -0.00013
0.071, -0.00002, 2.09910, -1.65829, -1.54990, -0.00023
0.086, -0.00003, 2.09900, -1.65820, -1.54988, -0.00038
0.100, -0.00004, 2.09886, -1.65808, -1.54985, -0.00058
0.114, -0.00006, 2.09869, -1.65792, -1.54981, -0.00085
0.129, -0.00008, 2.09846, -1.65771, -1.54976, -0.00118
0.143, -0.00011, 2.09817, -1.65745, -1.54970, -0.00160
0.157, -0.00014, 2.09783, -1.65714, -1.54963, -0.00210
0.171, -0.00018, 2.09742, -1.65677, -1.54954, -0.00269
0.186, -0.00023, 2.09694, -1.65633, -1.54944, -0.00339
0.200, -0.00029, 2.09638, -1.65583, -1.54933, -0.00420
0.214, -0.00035, 2.09574, -1.65524, -1.54919, -0.00513
0.229, -0.00042, 2.09500, -1.65458, -1.54905, -0.00619
0.243, -0.00050, 2.09418, -1.65383, -1.54888, -0.00738
0.257, -0.00059, 2.09325, -1.65299, -1.54869, -0.00872
0.271, -0.00068, 2.09221, -1.65205, -1.54849, -0.01021
0.286, -0.00079, 2.09106, -1.65100, -1.54826, -0.01186
0.300, -0.00091, 2.08980, -1.64986, -1.54800, -0.01368
0.314, -0.00105, 2.08840, -1.64859, -1.54773, -0.01567
0.329, -0.00119, 2.08688, -1.64721, -1.54743, -0.01785
0.343, -0.00135, 2.08522, -1.64571, -1.54710, -0.02023
0.357, -0.00152, 2.08342, -1.64408, -1.54675, -0.02280
0.371, -0.00170, 2.08148, -1.64231, -1.54636, -0.02559
0.386, -0.00190, 2.07939, -1.64042, -1.54595, -0.02860
0.400, -0.00211, 2.07716, -1.63838, -1.54551, -0.03183
0.414, -0.00234, 2.07479, -1.63622, -1.54503, -0.03529
0.429, -0.00258, 2.07228, -1.63392, -1.54453, -0.03900
0.443, -0.00284, 2.06962, -1.63149, -1.54399, -0.04296
0.457, -0.00312, 2.06682, -1.62892, -1.54341, -0.04718
0.471, -0.00341, 2.06388, -1.62622, -1.54280, -0.05167
0.486, -0.00372, 2.06079, -1.62338, -1.54215, -0.05643
0.500, -0.00405, 2.05756, -1.62042, -1.54147, -0.06146
0.514, -0.00439, 2.05420, -1.61731, -1.54074, -0.06677
0.529, -0.00475, 2.05069, -1.61408, -1.53997, -0.07235
0.543, -0.00513, 2.04706, -1.61072, -1.53917, -0.07821
0.557, -0.00552, 2.04330, -1.60723, -1.53832, -0.08434
0.571, -0.00593, 2.03943, -1.60363, -1.53743, -0.09075
0.586, -0.00635, 2.03544, -1.59992, -1.53649, -0.09743
0.600, -0.00679, 2.03135, -1.59610, -1.53550, -0.10438
0.614, -0.00725, 2.02716, -1.59218, -1.53447, -0.11161
0.629, -0.00773, 2.02287, -1.58817, -1.53340, -0.11911
0.643, -0.00822, 2.01850, -1.58406, -1.53227, -0.12686
0.657, -0.00873, 2.01404, -1.57987, -1.53109, -0.13487
0.671, -0.00925, 2.00951, -1.57560, -1.52986, -0.14312
0.686, -0.00979, 2.00490, -1.57125, -1.52858, -0.15160
0.700, -0.01035, 2.00024, -1.56684, -1.52725, -0.16031
0.714, -0.01093, 1.99551, -1.56236, -1.52586, -0.16924
0.729, -0.01152, 1.99072, -1.55782, -1.52442, -0.17838
0.743, -0.01212, 1.98590, -1.55323, -1.52292, -0.18772
0.757, -0.01275, 1.98102, -1.54859, -1.52136, -0.19725
0.771, -0.01339, 1.97612, -1.54391, -1.51975, -0.20697
0.786, -0.01405, 1.97118, -1.53919, -1.51807, -0.21686
0.800, -0.01472, 1.96622, -1.53444, -1.51633, -0.22692
0.814, -0.01541, 1.96124, -1.52966, -1.51454, -0.23715
0.829, -0.01612, 1.95625, -1.52485, -1.51267, -0.24752
0.843, -0.01684, 1.95125, -1.52003, -1.51075, -0.25804
0.857, -0.01758, 1.94625, -1.51520, -1.50876, -0.26870
0.871, -0.01833, 1.94125, -1.51037, -1.50670, -0.27948
0.886, -0.01911, 1.93625, -1.50553, -1.50457, -0.29039
0.900, -0.01990, 1.93125, -1.50069, -1.50238, -0.30140
0.914, -0.02070, 1.92625, -1.49586, -1.50012, -0.31252
0.929, -0.02152, 1.92125, -1.49102, -1.49778, -0.32373
0.943, -0.02236, 1.91625, -1.48618, -1.49538, -0.33503
0.957, -0.02322, 1.91125, -1.48135, -1.49290, -0.34640
0.971, -0.02409, 1.90625, -1.47651, -1.49035, -0.35785
0.986, -0.02498, 1.90125, -1.47167, -1.48774, -0.36936
1.000, -0.02588, 1.89625, -1.46684, -1.48505, -0.38092
1.014, -0.02681, 1.89125, -1.46200, -1.48229, -0.39253
1.029, -0.02774, 1.88625, -1.45716, -1.47945, -0.40417
1.043, -0.02870, 1.88125, -1.45232, -1.47655, -0.41585
1.057, -0.02967, 1.87625, -1.44749, -1.47358, -0.42754
1.071, -0.03066, 1.87125, -1.44265, -1.47053, -0.43925
1.086, -0.03166, 1.86625, -1.43781, -1.46741, -0.45096
1.100, -0.03268, 1.86125, -1.43298, -1.46423, -0.46267
1.114, -0.03372, 1.85625, -1.42814, -1.46097, -0.47438
1.129, -0.03477, 1.85125, -1.42330, -1.45764, -0.48609
1.143, -0.03584, 1.84625, -1.41846, -1.45424, -0.49780
1.157, -0.03693, 1.84125, -1.41363, -1.45076, -0.50951
1.171, -0.03804, 1.83625, -1.40879, -1.44722, -0.52122
1.186, -0.03916, 1.83125, -1.40395, -1.44361, -0.53293
1.200, -0.04029, 1.82625, -1.39912, -1.43992, -0.54464
1.214, -0.04144, 1.82125, -1.39428, -1.43617, -0.55636
1.229, -0.04261, 1.81625, -1.38944, -1.43234, -0.56807
1.243, -0.04380, 1.81125, -1.38461, -1.42845, -0.57978
1.257, -0.04500, 1.80625, -1.37977, -1.42449, -0.59149
1.271, -0.04622, 1.80125, -1.37493, -1.42047, -0.60320
1.286, -0.04746, 1.79625, -1.37009, -1.41638, -0.61491
1.300, -0.04871, 1.79125, -1.36526, -1.41223, -0.62662
1.314, -0.04998, 1.78625, -1.36042, -1.40801, -0.63833
1.329, -0.05127, 1.78125, -1.35558, -1.40374, -0.65004
1.343, -0.05257, 1.77625, -1.35075, -1.39940, -0.66175
1.357, -0.05389, 1.77125, -1.34591, -1.39501, -0.67346
1.371, -0.05522, 1.76625, -1.34107, -1.39056, -0.68517
1.386, -0.05657, 1.76125, -1.33623, -1.38605, -0.69688
1.400, -0.05794, 1.75625, -1.33140, -1.38148, -0.70860
1.414, -0.05933, 1.75125, -1.32656, -1.37687, -0.72031
1.429, -0.06073, 1.74625, -1.32172, -1.37219, -0.73202
1.443, -0.06214, 1.74125, -1.31689, -1.36747, -0.74373
1.457, -0.06358, 1.73625, -1.31205, -1.36269, -0.75544
1.471, -0.06503, 1.73125, -1.30721, -1.35787, -0.76715
1.486, -0.06650, 1.72625, -1.30238, -1.35299, -0.77886
1.500, -0.06798, 1.72125, -1.29754, -1.34807, -0.79057
1.514, -0.06948, 1.71625, -1.29270, -1.34310, -0.80228
1.529, -0.07100, 1.71125, -1.28786, -1.33808, -0.81399
1.543, -0.07253, 1.70625, -1.28303, -1.33302, -0.82570
1.557, -0.07408, 1.70125, -1.27819, -1.32791, -0.83741
1.571, -0.07565, 1.69625, -1.27335, -1.32276, -0.84912
1.586, -0.07723, 1.69125, -1.26852, -1.31757, -0.86084
1.600, -0.07883, 1.68625, -1.26368, -1.31234, -0.87255
1.614, -0.08045, 1.68125, -1.25884, -1.30707, -0.88426
1.629, -0.08208, 1.67625, -1.25400, -1.30177, -0.89597
1.643, -0.08373, 1.67125, -1.24917, -1.29642, -0.90768
1.657, -0.08539, 1.66625, -1.24433, -1.29104, -0.91939
1.671, -0.08708, 1.66125, -1.23949, -1.28562, -0.93110
1.686, -0.08878, 1.65625, -1.23466, -1.28017, -0.94281
1.700, -0.09049, 1.65125, -1.22982, -1.27469, -0.95452
1.714, -0.09222, 1.64625, -1.22498, -1.26918, -0.96623
1.729, -0.09396, 1.64125, -1.22014, -1.26363, -0.97794
1.743, -0.09572, 1.63625, -1.21531, -1.25805, -0.98965
1.757, -0.09749, 1.63125, -1.21047, -1.25245, -1.00137
1.771, -0.09927, 1.62625, -1.20563, -1.24682, -1.01308
1.786, -0.10106, 1.62125, -1.20080, -1.24116, -1.02479
1.800, -0.10287, 1.61625, -1.19596, -1.23548, -1.03650
1.814, -0.10469, 1.61125, -1.19112, -1.22977, -1.04821
1.829, -0.10652, 1.60625, -1.18629, -1.22404, -1.05992
1.843, -0.10836, 1.60125, -1.18145, -1.21829, -1.07163
1.857, -0.11020, 1.59625, -1.17661, -1.21252, -1.08334
1.871, -0.11206, 1.59125, -1.17177, -1.20672, -1.09505
1.886, -0.11393, 1.58625, -1.16694, -1.20091, -1.10676
1.900, -0.11580, 1.58125, -1.16210, -1.19508, -1.11847
1.914, -0.11768, 1.57625, -1.15726, -1.18924, -1.13018
1.929, -0.11957, 1.57125, -1.15243, -1.18337, -1.14189
1.943, -0.12146, 1.56625, -1.14759, -1.17750, -1.15361
1.957, -0.12336, 1.56125, -1.14275, -1.17161, -1.16532
1.971, -0.12527, 1.55625, -1.13791, -1.16571, -1.17703
1.986, -0.12718, 1.55125, -1.13308, -1.15979, -1.18874
2.000, -0.12909, 1.54625, -1.12824, -1.15387, -1.20045
2.014, -0.13101, 1.54125, -1.12340, -1.14794, -1.21216
2.029, -0.13293, 1.53625, -1.11857, -1.14200, -1.22387
2.043, -0.13485, 1.53125, -1.11373, -1.13605, -1.23558
2.057, -0.13678, 1.52625, -1.10889, -1.13010, -1.24729
2.071, -0.13871, 1.52125, -1.10406, -1.12414, -1.25900
2.086, -0.14064, 1.51625, -1.09922, -1.11818, -1.27071
2.100, -0.14256, 1.51125, -1.09438, -1.11222, -1.28242
2.114, -0.14449, 1.50625, -1.08954, -1.10626, -1.29414
2.129, -0.14642, 1.50125, -1.08471, -1.10029, -1.30585
2.143, -0.14835, 1.49625, -1.07987, -1.09433, -1.31756
2.157, -0.15028, 1.49125, -1.07503, -1.08836, -1.32927
2.171, -0.15221, 1.48625, -1.07020, -1.08240, -1.34098
2.186, -0.15414, 1.48125, -1.06536, -1.07643, -1.35269
2.200, -0.15607, 1.47625, -1.06052, -1.07047, -1.36440
2.214, -0.15800, 1.47125, -1.05568, -1.06450, -1.37611
2.229, -0.15993, 1.46625, -1.05085, -1.05854, -1.38782
2.243, -0.16185, 1.46125, -1.04601, -1.05258, -1.39953
2.257, -0.16378, 1.45625, -1.04117, -1.04661, -1.41124
2.271, -0.16571, 1.45125, -1.03634, -1.04065, -1.42295
2.286, -0.16764, 1.44625, -1.03150, -1.03468, -1.43466
2.300, -0.16957, 1.44125, -1.02666, -1.02872, -1.44638
2.314, -0.17150, 1.43625, -1.02183, -1.02275, -1.45809
2.329, -0.17343, 1.43125, -1.01699, -1.01679, -1.46980
2.343, -0.17536, 1.42625, -1.01215, -1.01082, -1.48151
2.357, -0.17729, 1.42125, -1.00731, -1.00486, -1.49322
2.371, -0.17922, 1.41625, -1.00248, -0.99889, -1.50493
2.386, -0.18114, 1.41125, -0.99764, -0.99293, -1.51664
2.400, -0.18307, 1.40625, -0.99280, -0.98697, -1.52835
2.414, -0.18500, 1.40125, -0.98797, -0.98100, -1.54006
2.429, -0.18693, 1.39625, -0.98313, -0.97504, -1.55177
2.443, -0.18886, 1.39125, -0.97829, -0.96907, -1.56348
2.457, -0.19079, 1.38625, -0.97345, -0.96311, -1.57519
2.471, -0.19272, 1.38125, -0.96862, -0.95714, -1.58690
2.486, -0.19465, 1.37625, -0.96378, -0.95118, -1.59862
2.500, -0.19658, 1.37125, -0.95894, -0.94521, -1.61033
2.514, -0.19851, 1.36625, -0.95411, -0.93925, -1.62204
2.529, -0.20043, 1.36125, -0.94927, -0.93329, -1.63375
2.543, -0.20236, 1.35625, -0.94443, -0.92732, -1.64546
2.557, -0.20429, 1.35125, -0.93959, -0.92136, -1.65717
2.571, -0.20622, 1.34625, -0.93476, -0.91539, -1.66888
2.586, -0.20815, 1.34125, -0.92992, -0.90943, -1.68059
2.600, -0.21008, 1.33625, -0.92508, -0.90346, -1.69230
2.614, -0.21201, 1.33125, -0.92025, -0.89750, -1.70401
2.629, -0.21394, 1.32625, -0.91541, -0.89153, -1.71572
2.643, -0.21587, 1.32125, -0.91057, -0.88557, -1.72743
2.657, -0.21780, 1.31625, -0.90574, -0.87960, -1.73915
2.671, -0.21972, 1.31125, -0.90090, -0.87364, -1.75086
2.686, -0.22165, 1.30625, -0.89606, -0.86768, -1.76257
2.700, -0.22358, 1.30125, -0.89122, -0.86171, -1.77428
2.714, -0.22551, 1.29625, -0.88639, -0.85575, -1.78599
2.729, -0.22744, 1.29125, -0.88155, -0.84978, -1.79770
2.743, -0.22937, 1.28625, -0.87671, -0.84382, -1.80941
2.757, -0.23130, 1.28125, -0.87188, -0.83785, -1.82112
2.771, -0.23323, 1.27625, -0.86704, -0.83189, -1.83283
2.786, -0.23516, 1.27125, -0.86220, -0.82592, -1.84454
2.800, -0.23709, 1.26625, -0.85736, -0.81996, -1.85625
2.814, -0.23901, 1.26125, -0.85253, -0.81400, -1.86796
2.829, -0.24094, 1.25625, -0.84769, -0.80804, -1.87967
2.843, -0.24287, 1.25125, -0.84285, -0.80208, -1.89139
2.857, -0.24480, 1.24625, -0.83802, -0.79613, -1.90310
2.871, -0.24672, 1.24125, -0.83318, -0.79019, -1.91481
2.886, -0.24864, 1.23625, -0.82834, -0.78425, -1.92652
2.900, -0.25056, 1.23125, -0.82351, -0.77832, -1.93823
2.914, -0.25248, 1.22625, -0.81867, -0.77240, -1.94994
2.929, -0.25439, 1.22125, -0.81383, -0.76650, -1.96165
2.943, -0.25630, 1.21625, -0.80899, -0.76060, -1.97336
2.957, -0.25820, 1.21125, -0.80416, -0.75471, -1.98507
2.971, -0.26010, 1.20625, -0.79932, -0.74884, -1.99678
2.986, -0.26199, 1.20125, -0.79448, -0.74299, -2.00849
3.000, -0.26387, 1.19625, -0.78965, -0.73715, -2.02020
3.014, -0.26575, 1.19125, -0.78481, -0.73132, -2.03192
3.029, -0.26762, 1.18625, -0.77997, -0.72552, -2.04363
3.043, -0.26948, 1.18125, -0.77513, -0.71973, -2.05534
3.057, -0.27133, 1.17625, -0.77030, -0.71397, -2.06705
3.071, -0.27317, 1.17125, -0.76546, -0.70822, -2.07876
3.086, -0.27501, 1.16625, -0.76062, -0.70250, -2.09047
3.100, -0.27683, 1.16125, -0.75579, -0.69680, -2.10218
3.114, -0.27864, 1.15625, -0.75095, -0.69113, -2.11389
3.129, -0.28044, 1.15125, -0.74611, -0.68548, -2.12560
3.143, -0.28223, 1.14625, -0.74128, -0.67986, -2.13731
3.157, -0.28401, 1.14125, -0.73644, -0.67426, -2.14902
3.171, -0.28577, 1.13625, -0.73160, -0.66870, -2.16073
3.186, -0.28752, 1.13125, -0.72676, -0.66316, -2.17244
3.200, -0.28925, 1.12625, -0.72193, -0.65766, -2.18416
3.214, -0.29097, 1.12125, -0.71709, -0.65219, -2.19587
3.229, -0.29268, 1.11625, -0.71225, -0.64675, -2.20758
3.243, -0.29437, 1.11125, -0.70742, -0.64135, -2.21929
3.257, -0.29604, 1.10625, -0.70258, -0.63598, -2.23100
3.271, -0.29770, 1.10125, -0.69774, -0.63065, -2.24271
3.286, -0.29934, 1.09625, -0.69290, -0.62535, -2.25442
3.300, -0.30096, 1.09125, -0.68807, -0.62010, -2.26613
3.314, -0.30257, 1.08625, -0.68323, -0.61488, -2.27784
3.329, -0.30416, 1.08125, -0.67839, -0.60971, -2.28955
3.343, -0.30573, 1.07625, -0.67356, -0.60458, -2.30126
3.357, -0.30729, 1.07125, -0.66872, -0.59949, -2.31297
3.371, -0.30883, 1.06625, -0.66388, -0.59444, -2.32468
3.386, -0.31035, 1.06125, -0.65905, -0.58944, -2.33640
3.400, -0.31186, 1.05625, -0.65421, -0.58449, -2.34811
3.414, -0.31335, 1.05125, -0.64937, -0.57958, -2.35982
3.429, -0.31483, 1.04625, -0.64453, -0.57472, -2.37153
3.443, -0.31629, 1.04125, -0.63970, -0.56991, -2.38324
3.457, -0.31773, 1.03625, -0.63486, -0.56516, -2.39495
3.471, -0.31915, 1.03125, -0.63002, -0.56045, -2.40666
3.486, -0.32056, 1.02625, -0.62519, -0.55580, -2.41837
3.500, -0.32195, 1.02125, -0.62035, -0.55120, -2.43008
3.514, -0.32333, 1.01625, -0.61551, -0.54665, -2.44179
3.529, -0.32469, 1.01125, -0.61067, -0.54217, -2.45350
3.543, -0.32603, 1.00625, -0.60584, -0.53774, -2.46521
3.557, -0.32736, 1.00125, -0.60100, -0.53336, -2.47693
3.571, -0.32867, 0.99625, -0.59616, -0.52905, -2.48864
3.586, -0.32996, 0.99125, -0.59133, -0.52480, -2.50035
3.600, -0.33124, 0.98625, -0.58649, -0.52061, -2.51206
3.614, -0.33249, 0.98125, -0.58165, -0.51648, -2.52377
3.629, -0.33374, 0.97625, -0.57681, -0.51241, -2.53548
3.643, -0.33496, 0.97125, -0.57198, -0.50841, -2.54719
3.657, -0.33617, 0.96625, -0.56714, -0.50448, -2.55890
3.671, -0.33737, 0.96125, -0.56230, -0.50061, -2.57061
3.686, -0.33855, 0.95625, -0.55747, -0.49681, -2.58232
3.700, -0.33971, 0.95125, -0.55263, -0.49308, -2.59403
3.714, -0.34085, 0.94625, -0.54779, -0.48942, -2.60574
3.729, -0.34198, 0.94125, -0.54296, -0.48583, -2.61745
3.743, -0.34309, 0.93625, -0.53812, -0.48231, -2.62917
3.757, -0.34418, 0.93125, -0.53328, -0.47887, -2.64088
3.771, -0.34526, 0.92625, -0.52844, -0.47549, -2.65259
3.786, -0.34632, 0.92125, -0.52361, -0.47219, -2.66430
3.800, -0.34737, 0.91625, -0.51877, -0.46896, -2.67601
3.814, -0.34839, 0.91125, -0.51393, -0.46579, -2.68772
3.829, -0.34941, 0.90625, -0.50910, -0.46270, -2.69943
3.843, -0.35040, 0.90125, -0.50426, -0.45968, -2.71114
3.857, -0.35138, 0.89625, -0.49942, -0.45673, -2.72284
3.871, -0.35234, 0.89125, -0.49458, -0.45386, -2.73452
3.886, -0.35329, 0.88625, -0.48975, -0.45105, -2.74617
3.900, -0.35422, 0.88125, -0.48491, -0.44832, -2.75779
3.914, -0.35513, 0.87625, -0.48007, -0.44565, -2.76936
3.929, -0.35602, 0.87125, -0.47524, -0.44306, -2.78088
3.943, -0.35690, 0.86625, -0.47040, -0.44054, -2.79234
3.957, -0.35777, 0.86125, -0.46556, -0.43809, -2.80374
3.971, -0.35861, 0.85625, -0.46073, -0.43571, -2.81506
3.986, -0.35944, 0.85125, -0.45589, -0.43340, -2.82629
4.000, -0.36026, 0.84625, -0.45105, -0.43116, -2.83743
4.014, -0.36105, 0.84125, -0.44621, -0.42900, -2.84847
4.029, -0.36183, 0.83625, -0.44138, -0.42689, -2.85941
4.043, -0.36260, 0.83125, -0.43654, -0.42486, -2.87022
4.057, -0.36334, 0.82625, -0.43171, -0.42289, -2.88091
4.071, -0.36407, 0.82125, -0.42688, -0.42099, -2.89146
4.086, -0.36479, 0.81625, -0.42207, -0.41915, -2.90187
4.100, -0.36549, 0.81127, -0.41728, -0.41738, -2.91214
4.114, -0.36617, 0.80629, -0.41251, -0.41566, -2.92224
4.129, -0.36683, 0.80134, -0.40777, -0.41401, -2.93218
4.143, -0.36748, 0.79641, -0.40307, -0.41241, -2.94194
4.157, -0.36811, 0.79152, -0.39840, -0.41088, -2.95152
4.171, -0.36872, 0.78666, -0.39378, -0.40940, -2.96091
4.186, -0.36932, 0.78185, -0.38922, -0.40798, -2.97010
4.200, -0.36990, 0.77709, -0.38471, -0.40661, -2.97908
4.214, -0.37047, 0.77238, -0.38026, -0.40529, -2.98784
4.229, -0.37102, 0.76774, -0.37587, -0.40403, -2.99638
4.243, -0.37155, 0.76316, -0.37156, -0.40282, -3.00469
4.257, -0.37207, 0.75865, -0.36732, -0.40166, -3.01276
4.271, -0.37256, 0.75423, -0.36317, -0.40056, -3.02058
4.286, -0.37305, 0.74988, -0.35911, -0.39950, -3.02814
4.300, -0.37351, 0.74563, -0.35514, -0.39848, -3.03543
4.314, -0.37396, 0.74148, -0.35126, -0.39752, -3.04246
4.329, -0.37440, 0.73742, -0.34749, -0.39660, -3.04920
4.343, -0.37481, 0.73348, -0.34383, -0.39572, -3.05568
4.357, -0.37521, 0.72965, -0.34028, -0.39488, -3.06188
4.371, -0.37559, 0.72594, -0.33686, -0.39409, -3.06780
4.386, -0.37596, 0.72235, -0.33355, -0.39334, -3.07346
4.400, -0.37631, 0.71890, -0.33038, -0.39263, -3.07883
4.414, -0.37665, 0.71558, -0.32734, -0.39196, -3.08394
4.429, -0.37696, 0.71241, -0.32443, -0.39132, -3.08876
4.443, -0.37726, 0.70937, -0.32166, -0.39073, -3.09332
4.457, -0.37755, 0.70648, -0.31902, -0.39016, -3.09760
4.471, -0.37781, 0.70374, -0.31652, -0.38963, -3.10163
4.486, -0.37807, 0.70113, -0.31414, -0.38914, -3.10540
4.500, -0.37830, 0.69867, -0.31191, -0.38868, -3.10892
4.514, -0.37852, 0.69635, -0.30980, -0.38825, -3.11221
4.529, -0.37872, 0.69418, -0.30783, -0.38785, -3.11527
4.543, -0.37891, 0.69215, -0.30599, -0.38747, -3.11811
4.557, -0.37909, 0.69026, -0.30429, -0.38713, -3.12074
4.571, -0.37925, 0.68851, -0.30272, -0.38681, -3.12316
4.586, -0.37940, 0.68690, -0.30127, -0.38652, -3.12539
4.600, -0.37954, 0.68543, -0.29995, -0.38625, -3.12743
4.614, -0.37966, 0.68409, -0.29874, -0.38601, -3.12930
4.629, -0.37978, 0.68286, -0.29764, -0.38579, -3.13099
4.643, -0.37988, 0.68176, -0.29665, -0.38559, -3.13252
4.657, -0.37997, 0.68076, -0.29575, -0.38541, -3.13389
4.671, -0.38006, 0.67987, -0.29496, -0.38525, -3.13512
4.686, -0.38013, 0.67908, -0.29425, -0.38511, -3.13621
4.700, -0.38020, 0.67838, -0.29362, -0.38498, -3.13717
4.714, -0.38026, 0.67777, -0.29307, -0.38487, -3.13801
4.729, -0.38031, 0.67724, -0.29260, -0.38478, -3.13873
4.743, -0.38035, 0.67679, -0.29219, -0.38470, -3.13935
4.757, -0.38039, 0.67640, -0.29185, -0.38463, -3.13988
4.771, -0.38042, 0.67608, -0.29156, -0.38457, -3.14031
4.786, -0.38044, 0.67582, -0.29133, -0.38453, -3.14067
4.800, -0.38046, 0.67561, -0.29114, -0.38449, -3.14095
4.814, -0.38048, 0.67545, -0.29100, -0.38446, -3.14117
4.829, -0.38049, 0.67533, -0.29089, -0.38444, -3.14133
4.843, -0.38050, 0.67524, -0.29081, -0.38443, -3.14144
4.857, -0.38050, 0.67518, -0.29076, -0.38442, -3.14152
4.871, -0.38051, 0.67515, -0.29073, -0.38441, -3.14156
4.886, -0.38051, 0.67513, -0.29072, -0.38441, -3.14158
4.900, -0.38051, 0.67512, -0.29071, -0.38441, -3.14159
4.914, -0.38051, 0.67512, -0.29071, -0.38441, -3.14159
4.929, -0.38051, 0.67512, -0.29071, -0.38441, -3.14159
4.943, -0.38051, 0.67512, -0.29071, -0.38441, -3.14159
4.957, -0.38051, 0.67512, -0.29071, -0.38441, -3.14159
4.971, -0.38051, 0.67512, -0.29071, -0.38441, -3.14159
4.986, -0.38051, 0.67512, -0.29071, -0.38441, -3.14159
5.000, -0.38051, 0.67512, -0.29071, -0.38441, -3.14159
5.014, -0.38051, 0.67512, -0.29071, -0.38441, -3.14159
5.029, -0.38051, 0.67512, -0.29071, -0.38441, -3.14159
5.043, -0.38051, 0.67512, -0.29071, -0.38441, -3.14159
5.057, -0.38051, 0.67512, -0.29071, -0.38441, -3.14159
5.071, -0.38051, 0.67512, -0.29071, -0.38441, -3.14159
5.086, -0.38051, 0.67512, -0.29071, -0.38441, -3.14159
5.100, -0.38051, 0.67512, -0.29071, -0.38441, -3.14159
5.114, -0.38051, 0.67512, -0.29071, -0.38441, -3.14159
5.129, -0.38051, 0.67512, -0.29071, -0.38441, -3.14159
5.143, -0.38051, 0.67512, -0.29071, -0.38441, -3.14159
5.157, -0.38051, 0.67512, -0.29071, -0.38441, -3.14159
5.171, -0.38051, 0.67512, -0.29071, -0.38441, -3.14159
5.186, -0.38051, 0.67512, -0.29071, -0.38441, -3.14159
5.200, -0.38051, 0.67512, -0.29071, -0.38441, -3.14159
5.214, -0.38051, 0.67512, -0.29071, -0.38441, -3.14159
5.229, -0.38051, 0.67512, -0.29071, -0.38441, -3.14159
5.243, -0.38051, 0.67512, -0.29071, -0.38441, -3.14159
5.257, -0.38051, 0.67512, -0.29071, -0.38441, -3.14159
5.271, -0.38051, 0.67512, -0.29071, -0.38441, -3.14159
5.286, -0.38051, 0.67512, -0.29071, -0.38441, -3.14159
5.300, -0.38051, 0.67512, -0.29071, -0.38441, -3.14159
5.314, -0.38051, 0.67512, -0.29071, -0.38441, -3.14159
5.329, -0.38051, 0.67512, -0.29071, -0.38441, -3.14159
5.343, -0.38051, 0.67512, -0.29071, -0.38441, -3.14159
5.357, -0.38051, 0.67512, -0.29071, -0.38441, -3.14159
5.371, -0.38051, 0.67512, -0.29071, -0.38441, -3.14159
5.386, -0.38051, 0.67512, -0.29071, -0.38441, -3.14159
5.400, -0.38051, 0.67512, -0.29071, -0.38441, -3.14159
5.414, -0.38051, 0.67512, -0.29071, -0.38441, -3.14159
5.429, -0.38051, 0.67512, -0.29071, -0.38441, -3.14159
5.443, -0.38051, 0.67512, -0.29071, -0.38441, -3.14159
5.457, -0.38051, 0.67512, -0.29071, -0.38441, -3.14159
5.471, -0.38051, 0.67512, -0.29071, -0.38441, -3.14159
5.486, -0.38051, 0.67512, -0.29071, -0.38441, -3.14159
5.500, -0.38051, 0.67512, -0.29071, -0.38441, -3.14159
5.514, -0.38051, 0.67512, -0.29071, -0.38441, -3.14159
5.529, -0.38051, 0.67512, -0.29071, -0.38441, -3.14159
5.543, -0.38051, 0.67512, -0.29071, -0.38441, -3.14159
5.557, -0.38051, 0.67512, -0.29071, -0.38441, -3.14159
5.571, -0.38051, 0.67512, -0.29071, -0.38441, -3.14160
5.586, -0.38051, 0.67512, -0.29071, -0.38441, -3.14160
5.600, -0.38051, 0.67512, -0.29071, -0.38441, -3.14160
5.614, -0.38051, 0.67512, -0.29071, -0.38441, -3.14160
5.629, -0.38051, 0.67512, -0.29071, -0.38441, -3.14160
5.643, -0.38051, 0.67512, -0.29071, -0.38441, -3.14160
5.657, -0.38051, 0.67512, -0.29071, -0.38441, -3.14160
5.671, -0.38051, 0.67512, -0.29071, -0.38441, -3.14160
5.686, -0.38051, 0.67512, -0.29071, -0.38441, -3.14160
5.700, -0.38051, 0.67512, -0.29071, -0.38441, -3.14160
5.714, -0.38051, 0.67512, -0.29071, -0.38441, -3.14160
5.729, -0.38051, 0.67512, -0.29071, -0.38441, -3.14160
5.743, -0.38051, 0.67512, -0.29071, -0.38441, -3.14159
5.757, -0.38051, 0.67512, -0.29071, -0.38441, -3.14159
5.771, -0.38051, 0.67512, -0.29071, -0.38441, -3.14159
5.786, -0.38051, 0.67512, -0.29071, -0.38441, -3.14159
5.800, -0.38051, 0.67512, -0.29071, -0.38441, -3.14159
5.814, -0.38051, 0.67512, -0.29071, -0.38441, -3.14159
5.829, -0.38051, 0.67512, -0.29071, -0.38441, -3.14159
5.843, -0.38051, 0.67512, -0.29071, -0.38441, -3.14159
5.857, -0.38051, 0.67512, -0.29071, -0.38441, -3.14159
5.871, -0.38051, 0.67512, -0.29071, -0.38441, -3.14159
5.886, -0.38051, 0.67512, -0.29071, -0.38441, -3.14159
5.900, -0.38051, 0.67512, -0.29071, -0.38441, -3.14159
5.914, -0.38051, 0.67512, -0.29071, -0.38441, -3.14159
5.929, -0.38051, 0.67512, -0.29071, -0.38441, -3.14158
5.943, -0.38049, 0.67512, -0.29071, -0.38441, -3.14157
5.957, -0.38046, 0.67512, -0.29071, -0.38441, -3.14154
5.971, -0.38041, 0.67512, -0.29071, -0.38441, -3.14149
5.986, -0.38034, 0.67512, -0.29071, -0.38441, -3.14141
6.000, -0.38023, 0.67512, -0.29071, -0.38441, -3.14130
6.014, -0.38008, 0.67512, -0.29071, -0.38441, -3.14116
6.029, -0.37988, 0.67512, -0.29071, -0.38441, -3.14098
6.043, -0.37964, 0.67512, -0.29071, -0.38441, -3.14075
6.057, -0.37934, 0.67512, -0.29071, -0.38441, -3.14046
6.071, -0.37897, 0.67512, -0.29071, -0.38441, -3.14012
6.086, -0.37854, 0.67512, -0.29071, -0.38441, -3.13972
6.100, -0.37804, 0.67512, -0.29071, -0.38441, -3.13925
6.114, -0.37746, 0.67512, -0.29071, -0.38441, -3.13871
6.129, -0.37679, 0.67512, -0.29071, -0.38441, -3.13809
6.143, -0.37604, 0.67512, -0.29071, -0.38441, -3.13739
6.157, -0.37522, 0.67512, -0.29071, -0.38441, -3.13660
6.171, -0.37431, 0.67512, -0.29071, -0.38441, -3.13572
6.186, -0.37331, 0.67512, -0.29071, -0.38441, -3.13473
6.200, -0.37224, 0.67512, -0.29071, -0.38441, -3.13365
6.214, -0.37108, 0.67512, -0.29071, -0.38441, -3.13245
6.229, -0.36985, 0.67512, -0.29071, -0.38441, -3.13114
6.243, -0.36853, 0.67512, -0.29071, -0.38441, -3.12971
6.257, -0.36713, 0.67512, -0.29071, -0.38441, -3.12816
6.271, -0.36565, 0.67512, -0.29071, -0.38441, -3.12648
6.286, -0.36408, 0.67512, -0.29071, -0.38441, -3.12466
6.300, -0.36244, 0.67512, -0.29071, -0.38441, -3.12270
6.314, -0.36071, 0.67512, -0.29071, -0.38441, -3.12060
6.329, -0.35891, 0.67512, -0.29071, -0.38441, -3.11834
6.343, -0.35702, 0.67512, -0.29071, -0.38441, -3.11593
6.357, -0.35504, 0.67512, -0.29071, -0.38441, -3.11336
6.371, -0.35299, 0.67512, -0.29071, -0.38441, -3.11063
6.386, -0.35086, 0.67512, -0.29071, -0.38441, -3.10772
6.400, -0.34864, 0.67512, -0.29071, -0.38441, -3.10463
6.414, -0.34634, 0.67512, -0.29071, -0.38441, -3.10136
6.429, -0.34396, 0.67512, -0.29071, -0.38441, -3.09791
6.443, -0.34150, 0.67512, -0.29071, -0.38441, -3.09426
6.457, -0.33896, 0.67512, -0.29071, -0.38441, -3.09042
6.471, -0.33633, 0.67512, -0.29071, -0.38441, -3.08637
6.486, -0.33363, 0.67512, -0.29071, -0.38441, -3.08212
6.500, -0.33084, 0.67512, -0.29071, -0.38441, -3.07767
6.514, -0.32797, 0.67512, -0.29071, -0.38441, -3.07302
6.529, -0.32502, 0.67512, -0.29071, -0.38441, -3.06816
6.543, -0.32199, 0.67512, -0.29071, -0.38441, -3.06310
6.557, -0.31887, 0.67512, -0.29071, -0.38441, -3.05784
6.571, -0.31568, 0.67512, -0.29071, -0.38441, -3.05238
6.586, -0.31240, 0.67512, -0.29071, -0.38441, -3.04672
6.600, -0.30904, 0.67512, -0.29071, -0.38441, -3.04085
6.614, -0.30560, 0.67512, -0.29071, -0.38441, -3.03478
6.629, -0.30208, 0.67512, -0.29071, -0.38441, -3.02851
6.643, -0.29847, 0.67512, -0.29071, -0.38441, -3.02204
6.657, -0.29479, 0.67512, -0.29071, -0.38441, -3.01538
6.671, -0.29102, 0.67512, -0.29071, -0.38441, -3.00854
6.686, -0.28718, 0.67512, -0.29071, -0.38441, -3.00152
6.700, -0.28327, 0.67512, -0.29071, -0.38441, -2.99432
6.714, -0.27930, 0.67512, -0.29071, -0.38441, -2.98695
6.729, -0.27527, 0.67512, -0.29071, -0.38441, -2.97942
6.743, -0.27118, 0.67512, -0.29071, -0.38441, -2.97172
6.757, -0.26706, 0.67512, -0.29071, -0.38441, -2.96388
6.771, -0.26289, 0.67512, -0.29071, -0.38441, -2.95588
6.786, -0.25869, 0.67512, -0.29071, -0.38441, -2.94774
6.800, -0.25445, 0.67512, -0.29071, -0.38441, -2.93946
6.814, -0.25020, 0.67512, -0.29071, -0.38441, -2.93105
6.829, -0.24593, 0.67512, -0.29071, -0.38441, -2.92251
6.843, -0.24165, 0.67512, -0.29071, -0.38441, -2.91384
6.857, -0.23737, 0.67512, -0.29071, -0.38441, -2.90506
6.871, -0.23308, 0.67512, -0.29071, -0.38441, -2.89617
6.886, -0.22880, 0.67512, -0.29071, -0.38441, -2.88717
6.900, -0.22451, 0.67512, -0.29071, -0.38441, -2.87806
6.914, -0.22022, 0.67512, -0.29071, -0.38441, -2.86886
6.929, -0.21594, 0.67512, -0.29071, -0.38441, -2.85957
6.943, -0.21165, 0.67512, -0.29071, -0.38441, -2.85019
6.957, -0.20737, 0.67512, -0.29071, -0.38441, -2.84073
6.971, -0.20308, 0.67512, -0.29071, -0.38441, -2.83119
6.986, -0.19880, 0.67512, -0.29071, -0.38441, -2.82158
7.000, -0.19451, 0.67512, -0.29071, -0.38441, -2.81191
7.014, -0.19022, 0.67512, -0.29071, -0.38441, -2.80217
7.029, -0.18594, 0.67512, -0.29071, -0.38441, -2.79238
7.043, -0.18165, 0.67512, -0.29071, -0.38441, -2.78254
7.057, -0.17737, 0.67512, -0.29071, -0.38441, -2.77265
7.071, -0.17308, 0.67512, -0.29071, -0.38441, -2.76273
7.086, -0.16880, 0.67512, -0.29071, -0.38441, -2.75277
7.100, -0.16451, 0.67512, -0.29071, -0.38441, -2.74278
7.114, -0.16022, 0.67512, -0.29071, -0.38441, -2.73277
7.129, -0.15594, 0.67512, -0.29071, -0.38441, -2.72274
7.143, -0.15165, 0.67512, -0.29071, -0.38441, -2.71269
7.157, -0.14737, 0.67512, -0.29071, -0.38441, -2.70264
7.171, -0.14308, 0.67512, -0.29071, -0.38441, -2.69258
7.186, -0.13880, 0.67512, -0.29071, -0.38441, -2.68252
7.200, -0.13451, 0.67512, -0.29071, -0.38441, -2.67246
7.214, -0.13022, 0.67512, -0.29071, -0.38441, -2.66241
7.229, -0.12594, 0.67512, -0.29071, -0.38441, -2.65235
7.243, -0.12165, 0.67512, -0.29071, -0.38441, -2.64229
7.257, -0.11737, 0.67512, -0.29071, -0.38441, -2.63223
7.271, -0.11308, 0.67512, -0.29071, -0.38441, -2.62218
7.286, -0.10880, 0.67512, -0.29071, -0.38441, -2.61212
7.300, -0.10451, 0.67512, -0.29071, -0.38441, -2.60206
7.314, -0.10022, 0.67512, -0.29071, -0.38441, -2.59200
7.329, -0.09594, 0.67512, -0.29071, -0.38441, -2.58195
7.343, -0.09165, 0.67512, -0.29071, -0.38441, -2.57189
7.357, -0.08737, 0.67512, -0.29071, -0.38441, -2.56183
7.371, -0.08308, 0.67512, -0.29071, -0.38441, -2.55177
7.386, -0.07880, 0.67512, -0.29071, -0.38441, -2.54172
7.400, -0.07451, 0.67512, -0.29071, -0.38441, -2.53166
7.414, -0.07022, 0.67512, -0.29071, -0.38441, -2.52160
7.429, -0.06594, 0.67512, -0.29071, -0.38441, -2.51154
7.443, -0.06165, 0.67512, -0.29071, -0.38441, -2.50149
7.457, -0.05737, 0.67512, -0.29071, -0.38441, -2.49143
7.471, -0.05308, 0.67512, -0.29071, -0.38441, -2.48137
7.486, -0.04880, 0.67512, -0.29071, -0.38441, -2.47131
7.500, -0.04451, 0.67512, -0.29071, -0.38441, -2.46126
7.514, -0.04022, 0.67512, -0.29071, -0.38441, -2.45120
7.529, -0.03594, 0.67512, -0.29071, -0.38441, -2.44114
7.543, -0.03165, 0.67512, -0.29071, -0.38441, -2.43108
7.557, -0.02737, 0.67512, -0.29071, -0.38441, -2.42103
7.571, -0.02308, 0.67512, -0.29071, -0.38441, -2.41097
7.586, -0.01880, 0.67512, -0.29071, -0.38441, -2.40091
7.600, -0.01451, 0.67512, -0.29071, -0.38441, -2.39085
7.614, -0.01022, 0.67512, -0.29071, -0.38441, -2.38080
7.629, -0.00594, 0.67512, -0.29071, -0.38441, -2.37074
7.643, -0.00165, 0.67512, -0.29071, -0.38441, -2.36068
7.657, 0.00263, 0.67512, -0.29071, -0.38441, -2.35062
7.671, 0.00692, 0.67512, -0.29071, -0.38441, -2.34057
7.686, 0.01120, 0.67512, -0.29071, -0.38441, -2.33051
7.700, 0.01549, 0.67512, -0.29071, -0.38441, -2.32045
7.714, 0.01978, 0.67512, -0.29071, -0.38441, -2.31039
7.729, 0.02406, 0.67512, -0.29071, -0.38441, -2.30034
7.743, 0.02835, 0.67512, -0.29071, -0.38441, -2.29028
7.757, 0.03263, 0.67512, -0.29071, -0.38441, -2.28022
7.771, 0.03692, 0.67512, -0.29071, -0.38441, -2.27016
7.786, 0.04120, 0.67512, -0.29071, -0.38441, -2.26011
7.800, 0.04549, 0.67512, -0.29071, -0.38441, -2.25005
7.814, 0.04978, 0.67512, -0.29071, -0.38441, -2.23999
7.829, 0.05406, 0.67512, -0.29071, -0.38441, -2.22993
7.843, 0.05835, 0.67512, -0.29071, -0.38441, -2.21988
7.857, 0.06263, 0.67512, -0.29071, -0.38441, -2.20982
7.871, 0.06692, 0.67512, -0.29071, -0.38441, -2.19976
7.886, 0.07120, 0.67512, -0.29071, -0.38441, -2.18970
7.900, 0.07549, 0.67512, -0.29071, -0.38441, -2.17965
7.914, 0.07978, 0.67512, -0.29071, -0.38441, -2.16959
7.929, 0.08406, 0.67512, -0.29071, -0.38441, -2.15953
7.943, 0.08835, 0.67512, -0.29071, -0.38441, -2.14947
7.957, 0.09263, 0.67512, -0.29071, -0.38441, -2.13942
7.971, 0.09692, 0.67512, -0.29071, -0.38441, -2.12936
7.986, 0.10120, 0.67512, -0.29071, -0.38441, -2.11930
8.000, 0.10549, 0.67512, -0.29071, -0.38441, -2.10924
8.014, 0.10978, 0.67512, -0.29071, -0.38441, -2.09919
8.029, 0.11406, 0.67512, -0.29071, -0.38441, -2.08913
8.043, 0.11835, 0.67512, -0.29071, -0.38441, -2.07907
8.057, 0.12263, 0.67512, -0.29071, -0.38441, -2.06901
8.071, 0.12692, 0.67512, -0.29071, -0.38441, -2.05896
8.086, 0.13120, 0.67512, -0.29071, -0.38441, -2.04890
8.100, 0.13549, 0.67512, -0.29071, -0.38441, -2.03884
8.114, 0.13978, 0.67512, -0.29071, -0.38441, -2.02878
8.129, 0.14406, 0.67512, -0.29071, -0.38441, -2.01873
8.143, 0.14835, 0.67512, -0.29071, -0.38441, -2.00867
8.157, 0.15263, 0.67512, -0.29071, -0.38441, -1.99862
8.171, 0.15692, 0.67512, -0.29071, -0.38441, -1.98857
8.186, 0.16120, 0.67512, -0.29071, -0.38441, -1.97854
8.200, 0.16549, 0.67512, -0.29071, -0.38441, -1.96853
8.214, 0.16978, 0.67512, -0.29071, -0.38441, -1.95854
8.229, 0.17406, 0.67512, -0.29071, -0.38441, -1.94859
8.243, 0.17835, 0.67512, -0.29071, -0.38441, -1.93867
8.257, 0.18263, 0.67512, -0.29071, -0.38441, -1.92879
8.271, 0.18692, 0.67512, -0.29071, -0.38441, -1.91895
8.286, 0.19120, 0.67512, -0.29071, -0.38441, -1.90917
8.300, 0.19549, 0.67512, -0.29071, -0.38441, -1.89944
8.314, 0.19978, 0.67512, -0.29071, -0.38441, -1.88977
8.329, 0.20406, 0.67512, -0.29071, -0.38441, -1.88017
8.343, 0.20835, 0.67512, -0.29071, -0.38441, -1.87064
8.357, 0.21263, 0.67512, -0.29071, -0.38441, -1.86119
8.371, 0.21692, 0.67512, -0.29071, -0.38441, -1.85182
8.386, 0.22120, 0.67512, -0.29071, -0.38441, -1.84253
8.400, 0.22549, 0.67512, -0.29071, -0.38441, -1.83334
8.414, 0.22978, 0.67512, -0.29071, -0.38441, -1.82425
8.429, 0.23406, 0.67512, -0.29071, -0.38441, -1.81526
8.443, 0.23835, 0.67512, -0.29071, -0.38441, -1.80638
8.457, 0.24263, 0.67512, -0.29071, -0.38441, -1.79761
8.471, 0.24691, 0.67512, -0.29071, -0.38441, -1.78896
8.486, 0.25118, 0.67512, -0.29071, -0.38441, -1.78043
8.500, 0.25542, 0.67512, -0.29071, -0.38441, -1.77203
8.514, 0.25965, 0.67512, -0.29071, -0.38441, -1.76377
8.529, 0.26384, 0.67512, -0.29071, -0.38441, -1.75564
8.543, 0.26800, 0.67512, -0.29071, -0.38441, -1.74766
8.557, 0.27212, 0.67512, -0.29071, -0.38441, -1.73983
8.571, 0.27619, 0.67512, -0.29071, -0.38441, -1.73215
8.586, 0.28021, 0.67512, -0.29071, -0.38441, -1.72464
8.600, 0.28417, 0.67512, -0.29071, -0.38441, -1.71729
8.614, 0.28806, 0.67512, -0.29071, -0.38441, -1.71011
8.629, 0.29189, 0.67512, -0.29071, -0.38441, -1.70310
8.643, 0.29564, 0.67512, -0.29071, -0.38441, -1.69628
8.657, 0.29930, 0.67512, -0.29071, -0.38441, -1.68964
8.671, 0.30289, 0.67512, -0.29071, -0.38441, -1.68320
8.686, 0.30639, 0.67512, -0.29071, -0.38441, -1.67695
8.700, 0.30982, 0.67512, -0.29071, -0.38441, -1.67090
8.714, 0.31316, 0.67512, -0.29071, -0.38441, -1.66505
8.729, 0.31641, 0.67512, -0.29071, -0.38441, -1.65941
8.743, 0.31959, 0.67512, -0.29071, -0.38441, -1.65397
8.757, 0.32269, 0.67512, -0.29071, -0.38441, -1.64873
8.771, 0.32570, 0.67512, -0.29071, -0.38441, -1.64369
8.786, 0.32863, 0.67512, -0.29071, -0.38441, -1.63886
8.800, 0.33148, 0.67512, -0.29071, -0.38441, -1.63423
8.814, 0.33425, 0.67512, -0.29071, -0.38441, -1.62980
8.829, 0.33694, 0.67512, -0.29071, -0.38441, -1.62557
8.843, 0.33955, 0.67512, -0.29071, -0.38441, -1.62155
8.857, 0.34207, 0.67512, -0.29071, -0.38441, -1.61773
8.871, 0.34451, 0.67512, -0.29071, -0.38441, -1.61410
8.886, 0.34687, 0.67512, -0.29071, -0.38441, -1.61067
8.900, 0.34915, 0.67512, -0.29071, -0.38441, -1.60742
8.914, 0.35135, 0.67512, -0.29071, -0.38441, -1.60435
8.929, 0.35347, 0.67512, -0.29071, -0.38441, -1.60146
8.943, 0.35550, 0.67512, -0.29071, -0.38441, -1.59874
8.957, 0.35745, 0.67512, -0.29071, -0.38441, -1.59619
8.971, 0.35933, 0.67512, -0.29071, -0.38441, -1.59380
8.986, 0.36112, 0.67512, -0.29071, -0.38441, -1.59156
9.000, 0.36282, 0.67512, -0.29071, -0.38441, -1.58947
9.014, 0.36445, 0.67512, -0.29071, -0.38441, -1.58753
9.029, 0.36599, 0.67512, -0.29071, -0.38441, -1.58572
9.043, 0.36746, 0.67512, -0.29071, -0.38441, -1.58406
9.057, 0.36884, 0.67512, -0.29071, -0.38441, -1.58252
9.071, 0.37014, 0.67512, -0.29071, -0.38441, -1.58110
9.086, 0.37136, 0.67512, -0.29071, -0.38441, -1.57980
9.100, 0.37249, 0.67512, -0.29071, -0.38441, -1.57862
9.114, 0.37355, 0.67512, -0.29071, -0.38441, -1.57755
9.129, 0.37452, 0.67512, -0.29071, -0.38441, -1.57657
9.143, 0.37541, 0.67512, -0.29071, -0.38441, -1.57570
9.157, 0.37622, 0.67512, -0.29071, -0.38441, -1.57492
9.171, 0.37695, 0.67512, -0.29071, -0.38441, -1.57423
9.186, 0.37760, 0.67512, -0.29071, -0.38441, -1.57362
9.200, 0.37816, 0.67512, -0.29071, -0.38441, -1.57308
9.214, 0.37865, 0.67512, -0.29071, -0.38441, -1.57262
9.229, 0.37906, 0.67512, -0.29071, -0.38441, -1.57223
9.243, 0.37941, 0.67512, -0.29071, -0.38441, -1.57189
9.257, 0.37970, 0.67512, -0.29071, -0.38441, -1.57162
9.271, 0.37993, 0.67512, -0.29071, -0.38441, -1.57139
9.286, 0.38011, 0.67512, -0.29071, -0.38441, -1.57121
9.300, 0.38025, 0.67512, -0.29071, -0.38441, -1.57107
9.314, 0.38036, 0.67512, -0.29071, -0.38441, -1.57097
9.329, 0.38043, 0.67512, -0.29071, -0.38441, -1.57090
9.343, 0.38047, 0.67512, -0.29071, -0.38441, -1.57085
9.357, 0.38050, 0.67512, -0.29071, -0.38441, -1.57082
9.371, 0.38051, 0.67512, -0.29071, -0.38441, -1.57080
9.386, 0.38051, 0.67512, -0.29071, -0.38441, -1.57080
9.400, 0.38051, 0.67512, -0.29071, -0.38441, -1.57080
9.414, 0.38051, 0.67512, -0.29071, -0.38441, -1.57080
9.429, 0.38051, 0.67512, -0.29071, -0.38441, -1.57080
9.443, 0.38051, 0.67512, -0.29071, -0.38441, -1.57080
9.457, 0.38051, 0.67512, -0.29071, -0.38441, -1.57080
9.471, 0.38051, 0.67512, -0.29071, -0.38441, -1.57080
9.486, 0.38051, 0.67512, -0.29071, -0.38441, -1.57080
9.500, 0.38051, 0.67512, -0.29071, -0.38441, -1.57080
9.514, 0.38051, 0.67512, -0.29071, -0.38441, -1.57080
9.529, 0.38051, 0.67512, -0.29071, -0.38441, -1.57080
9.543, 0.38051, 0.67512, -0.29071, -0.38441, -1.57080
9.557, 0.38051, 0.67512, -0.29071, -0.38441, -1.57080
9.571, 0.38051, 0.67512, -0.29071, -0.38441, -1.57080
9.586, 0.38051, 0.67512, -0.29071, -0.38441, -1.57080
9.600, 0.38051, 0.67512, -0.29071, -0.38441, -1.57080
9.614, 0.38051, 0.67512, -0.29071, -0.38441, -1.57080
9.629, 0.38051, 0.67512, -0.29071, -0.38441, -1.57080
9.643, 0.38051, 0.67512, -0.29071, -0.38441, -1.57080
9.657, 0.38051, 0.67512, -0.29071, -0.38441, -1.57080
9.671, 0.38051, 0.67512, -0.29071, -0.38441, -1.57080
9.686, 0.38051, 0.67512, -0.29071, -0.38441, -1.57080
9.700, 0.38051, 0.67512, -0.29071, -0.38441, -1.57080
9.714, 0.38051, 0.67512, -0.29071, -0.38441, -1.57080
9.729, 0.38051, 0.67512, -0.29071, -0.38441, -1.57080
9.743, 0.38051, 0.67512, -0.29071, -0.38441, -1.57080
9.757, 0.38051, 0.67512, -0.29071, -0.38441, -1.57080
9.771, 0.38051, 0.67512, -0.29071, -0.38441, -1.57080
9.786, 0.38051, 0.67512, -0.29071, -0.38441, -1.57080
9.800, 0.38051, 0.67512, -0.29071, -0.38441, -1.57080
9.814, 0.38051, 0.67512, -0.29071, -0.38441, -1.57080
9.829, 0.38051, 0.67512, -0.29071, -0.38441, -1.57080
9.843, 0.38051, 0.67512, -0.29071, -0.38442, -1.57080
9.857, 0.38051, 0.67512, -0.29071, -0.38442, -1.57080
9.871, 0.38051, 0.67512, -0.29071, -0.38442, -1.57080
9.886, 0.38051, 0.67512, -0.29071, -0.38442, -1.57080
9.900, 0.38051, 0.67512, -0.29071, -0.38442, -1.57080
9.914, 0.38051, 0.67512, -0.29071, -0.38442, -1.57080
9.929, 0.38051, 0.67512, -0.29071, -0.38442, -1.57080
9.943, 0.38051, 0.67512, -0.29071, -0.38442, -1.57080
9.957, 0.38051, 0.67512, -0.29071, -0.38442, -1.57081
9.971, 0.38051, 0.67512, -0.29071, -0.38442, -1.57081
9.986, 0.38051, 0.67512, -0.29071, -0.38442, -1.57081
10.000, 0.38051, 0.67512, -0.29071, -0.38442, -1.57081
10.014, 0.38051, 0.67512, -0.29071, -0.38442, -1.57081
10.029, 0.38051, 0.67512, -0.29071, -0.38442, -1.57081
10.043, 0.38051, 0.67512, -0.29071, -0.38442, -1.57081
10.057, 0.38051, 0.67512, -0.29071, -0.38442, -1.57081
10.071, 0.38051, 0.67512, -0.29071, -0.38442, -1.57081
10.086, 0.38051, 0.67512, -0.29071, -0.38442, -1.57081
10.100, 0.38051, 0.67512, -0.29071, -0.38442, -1.57081
10.114, 0.38051, 0.67512, -0.29071, -0.38442, -1.57081
10.129, 0.38051, 0.67512, -0.29071, -0.38442, -1.57081
10.143, 0.38051, 0.67512, -0.29071, -0.38442, -1.57081
10.157, 0.38051, 0.67512, -0.29071, -0.38442, -1.57081
10.171, 0.38051, 0.67512, -0.29071, -0.38442, -1.57081
10.186, 0.38051, 0.67512, -0.29071, -0.38442, -1.57081
10.200, 0.38051, 0.67512, -0.29071, -0.38442, -1.57081
10.214, 0.38051, 0.67512, -0.29071, -0.38442, -1.57081
10.229, 0.38051, 0.67512, -0.29071, -0.38442, -1.57081
10.243, 0.38051, 0.67512, -0.29071, -0.38441, -1.57081
10.257, 0.38051, 0.67512, -0.29071, -0.38441, -1.57081
10.271, 0.38051, 0.67512, -0.29071, -0.38441, -1.57080
10.286, 0.38051, 0.67512, -0.29071, -0.38441, -1.57080
10.300, 0.38051, 0.67512, -0.29071, -0.38441, -1.57080
10.314, 0.38051, 0.67512, -0.29071, -0.38441, -1.57080
10.329, 0.38051, 0.67512, -0.29071, -0.38441, -1.57080
10.343, 0.38051, 0.67512, -0.29071, -0.38441, -1.57080
10.357, 0.38051, 0.67512, -0.29071, -0.38441, -1.57080
10.371, 0.38051, 0.67512, -0.29071, -0.38441, -1.57080
10.386, 0.38051, 0.67512, -0.29071, -0.38441, -1.57080
10.400, 0.38051, 0.67512, -0.29071, -0.38441, -1.57080
10.414, 0.38051, 0.67512, -0.29072, -0.38440, -1.57078
10.429, 0.38051, 0.67511, -0.29074, -0.38438, -1.57075
10.443, 0.38051, 0.67510, -0.29077, -0.38435, -1.57069
10.457, 0.38051, 0.67508, -0.29083, -0.38429, -1.57059
10.471, 0.38051, 0.67506, -0.29092, -0.38421, -1.57045
10.486, 0.38051, 0.67502, -0.29105, -0.38410, -1.57025
10.500, 0.38051, 0.67497, -0.29122, -0.38396, -1.56999
10.514, 0.38051, 0.67491, -0.29143, -0.38378, -1.56966
10.529, 0.38051, 0.67484, -0.29170, -0.38355, -1.56925
10.543, 0.38051, 0.67474, -0.29202, -0.38328, -1.56875
10.557, 0.38051, 0.67464, -0.29241, -0.38295, -1.56815
10.571, 0.38051, 0.67451, -0.29287, -0.38257, -1.56744
10.586, 0.38051, 0.67436, -0.29340, -0.38212, -1.56662
10.600, 0.38051, 0.67418, -0.29402, -0.38161, -1.56567
10.614, 0.38051, 0.67399, -0.29473, -0.38102, -1.56460
10.629, 0.38051, 0.67376, -0.29552, -0.38036, -1.56338
10.643, 0.38051, 0.67351, -0.29642, -0.37962, -1.56200
10.657, 0.38051, 0.67323, -0.29743, -0.37879, -1.56048
10.671, 0.38051, 0.67292, -0.29854, -0.37788, -1.55878
10.686, 0.38051, 0.67258, -0.29977, -0.37687, -1.55690
10.700, 0.38051, 0.67221, -0.30113, -0.37575, -1.55484
10.714, 0.38051, 0.67180, -0.30261, -0.37454, -1.55259
10.729, 0.38051, 0.67135, -0.30423, -0.37321, -1.55014
10.743, 0.38051, 0.67086, -0.30598, -0.37178, -1.54747
10.757, 0.38051, 0.67033, -0.30788, -0.37022, -1.54458
10.771, 0.38051, 0.66977, -0.30993, -0.36854, -1.54147
10.786, 0.38051, 0.66915, -0.31211, -0.36674, -1.53811
10.800, 0.38051, 0.66850, -0.31444, -0.36480, -1.53451
10.814, 0.38051, 0.66779, -0.31691, -0.36272, -1.53066
10.829, 0.38051, 0.66704, -0.31953, -0.36051, -1.52654
10.843, 0.38051, 0.66624, -0.32228, -0.35814, -1.52215
10.857, 0.38051, 0.66539, -0.32518, -0.35563, -1.51747
10.871, 0.38051, 0.66449, -0.32823, -0.35296, -1.51252
10.886, 0.38051, 0.66353, -0.33141, -0.35013, -1.50727
10.900, 0.38051, 0.66251, -0.33474, -0.34714, -1.50174
10.914, 0.38051, 0.66144, -0.33820, -0.34398, -1.49593
10.929, 0.38051, 0.66031, -0.34180, -0.34064, -1.48983
10.943, 0.38051, 0.65911, -0.34552, -0.33713, -1.48345
10.957, 0.38051, 0.65786, -0.34936, -0.33343, -1.47678
10.971, 0.38051, 0.65655, -0.35331, -0.32954, -1.46982
10.986, 0.38051, 0.65518, -0.35737, -0.32547, -1.46258
11.000, 0.38051, 0.65374, -0.36153, -0.32121, -1.45506
11.014, 0.38051, 0.65225, -0.36579, -0.31676, -1.44726
11.029, 0.38051, 0.65070, -0.37014, -0.31212, -1.43920
11.043, 0.38051, 0.64908, -0.37457, -0.30730, -1.43088
11.057, 0.38051, 0.64741, -0.37908, -0.30229, -1.42232
11.071, 0.38051, 0.64568, -0.38367, -0.29709, -1.41351
11.086, 0.38051, 0.64388, -0.38832, -0.29170, -1.40448
11.100, 0.38051, 0.64203, -0.39303, -0.28612, -1.39523
11.114, 0.38051, 0.64012, -0.39780, -0.28036, -1.38576
11.129, 0.38051, 0.63815, -0.40261, -0.27441, -1.37609
11.143, 0.38051, 0.63611, -0.40747, -0.26827, -1.36622
11.157, 0.38051, 0.63402, -0.41237, -0.26196, -1.35617
11.171, 0.38051, 0.63187, -0.41730, -0.25546, -1.34594
11.186, 0.38051, 0.62965, -0.42225, -0.24880, -1.33555
11.200, 0.38051, 0.62739, -0.42722, -0.24198, -1.32499
11.214, 0.38051, 0.62506, -0.43221, -0.23499, -1.31428
11.229, 0.38051, 0.62269, -0.43721, -0.22785, -1.30343
11.243, 0.38051, 0.62026, -0.44221, -0.22055, -1.29244
11.257, 0.38051, 0.61778, -0.44721, -0.21311, -1.28133
11.271, 0.38051, 0.61526, -0.45221, -0.20552, -1.27011
11.286, 0.38051, 0.61268, -0.45721, -0.19780, -1.25877
11.300, 0.38051, 0.61007, -0.46221, -0.18994, -1.24734
11.314, 0.38051, 0.60740, -0.46721, -0.18196, -1.23582
11.329, 0.38051, 0.60470, -0.47221, -0.17385, -1.22421
11.343, 0.38051, 0.60195, -0.47721, -0.16562, -1.21253
11.357, 0.38051, 0.59917, -0.48221, -0.15728, -1.20079
11.371, 0.38051, 0.59635, -0.48721, -0.14883, -1.18900
11.386, 0.38051, 0.59349, -0.49221, -0.14027, -1.17715
11.400, 0.38051, 0.59060, -0.49721, -0.13162, -1.16527
11.414, 0.38051, 0.58768, -0.50221, -0.12286, -1.15336
11.429, 0.38051, 0.58472, -0.50721, -0.11402, -1.14143
11.443, 0.38051, 0.58174, -0.51221, -0.10509, -1.12949
11.457, 0.38051, 0.57873, -0.51721, -0.09608, -1.11754
11.471, 0.38051, 0.57569, -0.52221, -0.08699, -1.10560
11.486, 0.38051, 0.57262, -0.52721, -0.07783, -1.09365
11.500, 0.38051, 0.56954, -0.53221, -0.06860, -1.08171
11.514, 0.38051, 0.56643, -0.53721, -0.05930, -1.06976
11.529, 0.38051, 0.56330, -0.54221, -0.04995, -1.05781
11.543, 0.38051, 0.56016, -0.54721, -0.04055, -1.04587
11.557, 0.38051, 0.55699, -0.55221, -0.03109, -1.03392
11.571, 0.38051, 0.55382, -0.55721, -0.02159, -1.02198
11.586, 0.38051, 0.55063, -0.56221, -0.01205, -1.01003
11.600, 0.38051, 0.54742, -0.56721, -0.00248, -0.99809
11.614, 0.38051, 0.54421, -0.57221, 0.00713, -0.98614
11.629, 0.38051, 0.54099, -0.57721, 0.01676, -0.97420
11.643, 0.38051, 0.53776, -0.58221, 0.02641, -0.96225
11.657, 0.38051, 0.53452, -0.58721, 0.03608, -0.95031
11.671, 0.38051, 0.53128, -0.59221, 0.04576, -0.93836
11.686, 0.38051, 0.52804, -0.59721, 0.05545, -0.92642
11.700, 0.38051, 0.52480, -0.60221, 0.06514, -0.91447
11.714, 0.38051, 0.52156, -0.60721, 0.07483, -0.90252
11.729, 0.38051, 0.51831, -0.61221, 0.08452, -0.89058
11.743, 0.38051, 0.51507, -0.61721, 0.09421, -0.87863
11.757, 0.38051, 0.51183, -0.62221, 0.10390, -0.86669
11.771, 0.38051, 0.50859, -0.62721, 0.11359, -0.85474
11.786, 0.38051, 0.50535, -0.63221, 0.12328, -0.84280
11.800, 0.38051, 0.50210, -0.63721, 0.13297, -0.83085
11.814, 0.38051, 0.49886, -0.64221, 0.14266, -0.81891
11.829, 0.38051, 0.49562, -0.64721, 0.15235, -0.80696
11.843, 0.38051, 0.49238, -0.65221, 0.16204, -0.79502
11.857, 0.38051, 0.48913, -0.65721, 0.17173, -0.78307
11.871, 0.38051, 0.48589, -0.66221, 0.18142, -0.77113
11.886, 0.38051, 0.48265, -0.66721, 0.19111, -0.75918
11.900, 0.38051, 0.47941, -0.67221, 0.20080, -0.74723
11.914, 0.38051, 0.47616, -0.67721, 0.21049, -0.73529
11.929, 0.38051, 0.47292, -0.68221, 0.22018, -0.72334
11.943, 0.38051, 0.46968, -0.68721, 0.22987, -0.71140
11.957, 0.38051, 0.46644, -0.69221, 0.23956, -0.69945
11.971, 0.38051, 0.46320, -0.69721, 0.24925, -0.68751
11.986, 0.38051, 0.45995, -0.70221, 0.25894, -0.67556
12.000, 0.38051, 0.45671, -0.70721, 0.26864, -0.66362
12.014, 0.38051, 0.45347, -0.71221, 0.27833, -0.65167
12.029, 0.38051, 0.45023, -0.71721, 0.28801, -0.63973
12.043, 0.38051, 0.44699, -0.72221, 0.29769, -0.62778
12.057, 0.38051, 0.44375, -0.72721, 0.30736, -0.61584
12.071, 0.38051, 0.44051, -0.73221, 0.31701, -0.60389
12.086, 0.38051, 0.43729, -0.73721, 0.32664, -0.59194
12.100, 0.38051, 0.43407, -0.74221, 0.33624, -0.58000
12.114, 0.38051, 0.43086, -0.74721, 0.34581, -0.56805
12.129, 0.38051, 0.42766, -0.75221, 0.35535, -0.55611
12.143, 0.38051, 0.42448, -0.75721, 0.36484, -0.54416
12.157, 0.38051, 0.42130, -0.76221, 0.37429, -0.53222
12.171, 0.38051, 0.41815, -0.76721, 0.38369, -0.52027
12.186, 0.38051, 0.41501, -0.77221, 0.39304, -0.50833
12.200, 0.38051, 0.41189, -0.77721, 0.40232, -0.49638
12.214, 0.38051, 0.40879, -0.78221, 0.41155, -0.48444
12.229, 0.38051, 0.40571, -0.78721, 0.42070, -0.47249
12.243, 0.38051, 0.40266, -0.79221, 0.42978, -0.46055
12.257, 0.38051, 0.39963, -0.79721, 0.43879, -0.44860
12.271, 0.38051, 0.39663, -0.80221, 0.44771, -0.43665
12.286, 0.38051, 0.39366, -0.80721, 0.45654, -0.42472
12.300, 0.38051, 0.39072, -0.81221, 0.46529, -0.41279
12.314, 0.38051, 0.38781, -0.81721, 0.47393, -0.40089
12.329, 0.38051, 0.38493, -0.82221, 0.48248, -0.38902
12.343, 0.38051, 0.38209, -0.82721, 0.49092, -0.37720
12.357, 0.38051, 0.37928, -0.83221, 0.49925, -0.36542
12.371, 0.38051, 0.37651, -0.83721, 0.50747, -0.35370
12.386, 0.38051, 0.37379, -0.84221, 0.51556, -0.34205
12.400, 0.38051, 0.37110, -0.84721, 0.52353, -0.33048
12.414, 0.38051, 0.36845, -0.85221, 0.53138, -0.31899
12.429, 0.38051, 0.36585, -0.85721, 0.53908, -0.30759
12.443, 0.38051, 0.36330, -0.86221, 0.54666, -0.29630
12.457, 0.38051, 0.36079, -0.86721, 0.55408, -0.28512
12.471, 0.38051, 0.35834, -0.87221, 0.56136, -0.27406
12.486, 0.38051, 0.35593, -0.87721, 0.56849, -0.26312
12.500, 0.38051, 0.35358, -0.88220, 0.57546, -0.25233
12.514, 0.38051, 0.35128, -0.88719, 0.58227, -0.24168
12.529, 0.38051, 0.34903, -0.89215, 0.58892, -0.23118
12.543, 0.38051, 0.34685, -0.89710, 0.59539, -0.22085
12.557, 0.38051, 0.34472, -0.90202, 0.60169, -0.21069
12.571, 0.38051, 0.34265, -0.90690, 0.60780, -0.20071
12.586, 0.38051, 0.34064, -0.91174, 0.61374, -0.19092
12.600, 0.38051, 0.33869, -0.91654, 0.61948, -0.18132
12.614, 0.38051, 0.33680, -0.92128, 0.62504, -0.17194
12.629, 0.38051, 0.33498, -0.92597, 0.63041, -0.16277
12.643, 0.38051, 0.33321, -0.93059, 0.63559, -0.15383
12.657, 0.38051, 0.33150, -0.93515, 0.64058, -0.14512
12.671, 0.38051, 0.32985, -0.93963, 0.64539, -0.13665
12.686, 0.38051, 0.32826, -0.94403, 0.65000, -0.12843
12.700, 0.38051, 0.32673, -0.94834, 0.65443, -0.12047
12.714, 0.38051, 0.32527, -0.95256, 0.65868, -0.11278
12.729, 0.38051, 0.32386, -0.95668, 0.66273, -0.10536
12.743, 0.38051, 0.32251, -0.96070, 0.66660, -0.09823
12.757, 0.38051, 0.32122, -0.96460, 0.67028, -0.09139
12.771, 0.38051, 0.32000, -0.96840, 0.67377, -0.08483
12.786, 0.38051, 0.31883, -0.97207, 0.67709, -0.07856
12.800, 0.38051, 0.31772, -0.97561, 0.68024, -0.07257
12.814, 0.38051, 0.31667, -0.97902, 0.68321, -0.06687
12.829, 0.38051, 0.31568, -0.98229, 0.68602, -0.06145
12.843, 0.38051, 0.31474, -0.98542, 0.68868, -0.05632
12.857, 0.38051, 0.31386, -0.98840, 0.69117, -0.05147
12.871, 0.38051, 0.31303, -0.99124, 0.69352, -0.04691
12.886, 0.38051, 0.31225, -0.99394, 0.69572, -0.04262
12.900, 0.38051, 0.31152, -0.99650, 0.69778, -0.03861
12.914, 0.38051, 0.31083, -0.99891, 0.69971, -0.03485
12.929, 0.38051, 0.31020, -1.00118, 0.70150, -0.03135
12.943, 0.38051, 0.30960, -1.00331, 0.70317, -0.02809
12.957, 0.38051, 0.30905, -1.00530, 0.70471, -0.02507
12.971, 0.38051, 0.30854, -1.00714, 0.70613, -0.02227
12.986, 0.38051, 0.30807, -1.00884, 0.70745, -0.01968
13.000, 0.38051, 0.30764, -1.01040, 0.70865, -0.01731
13.014, 0.38051, 0.30724, -1.01183, 0.70975, -0.01513
13.029, 0.38051, 0.30688, -1.01313, 0.71076, -0.01314
13.043, 0.38051, 0.30655, -1.01432, 0.71166, -0.01134
13.057, 0.38051, 0.30626, -1.01538, 0.71248, -0.00971
13.071, 0.38051, 0.30599, -1.01634, 0.71321, -0.00824
13.086, 0.38051, 0.30575, -1.01720, 0.71387, -0.00693
13.100, 0.38051, 0.30554, -1.01796, 0.71445, -0.00577
13.114, 0.38051, 0.30535, -1.01863, 0.71495, -0.00474
13.129, 0.38051, 0.30519, -1.01921, 0.71539, -0.00384
13.143, 0.38051, 0.30505, -1.01972, 0.71577, -0.00307
13.157, 0.38051, 0.30493, -1.02015, 0.71609, -0.00241
13.171, 0.38051, 0.30483, -1.02051, 0.71636, -0.00184
13.186, 0.38051, 0.30474, -1.02081, 0.71658, -0.00138
13.200, 0.38051, 0.30467, -1.02105, 0.71676, -0.00100
13.214, 0.38051, 0.30462, -1.02125, 0.71690, -0.00070
13.229, 0.38051, 0.30457, -1.02140, 0.71700, -0.00046
13.243, 0.38051, 0.30454, -1.02151, 0.71708, -0.00029
13.257, 0.38051, 0.30452, -1.02158, 0.71713, -0.00016
13.271, 0.38051, 0.30450, -1.02163, 0.71716, -0.00008
13.286, 0.38051, 0.30450, -1.02166, 0.71718, -0.00003
13.300, 0.38051, 0.30449, -1.02168, 0.71719, -0.00001
13.314, 0.38051, 0.30449, -1.02168, 0.71719, -0.00000
13.329, 0.38051, 0.30449, -1.02168, 0.71719, 0.00000
13.343, 0.38051, 0.30449, -1.02168, 0.71719, 0.00000
13.357, 0.38051, 0.30449, -1.02168, 0.71719, 0.00000
13.371, 0.38051, 0.30449, -1.02168, 0.71719, 0.00000
13.386, 0.38051, 0.30449, -1.02168, 0.71719, 0.00000
13.400, 0.38051, 0.30449, -1.02168, 0.71719, 0.00000
13.414, 0.38051, 0.30449, -1.02168, 0.71719, 0.00000
13.429, 0.38051, 0.30449, -1.02168, 0.71719, 0.00000
13.443, 0.38051, 0.30449, -1.02168, 0.71719, 0.00000
13.457, 0.38051, 0.30449, -1.02168, 0.71719, 0.00000
13.471, 0.38051, 0.30449, -1.02168, 0.71719, 0.00000
13.486, 0.38051, 0.30449, -1.02168, 0.71719, 0.00000
13.500, 0.38051, 0.30449, -1.02168, 0.71719, 0.00000
13.514, 0.38051, 0.30449, -1.02168, 0.71719, 0.00000
13.529, 0.38051, 0.30449, -1.02168, 0.71719, 0.00000
13.543, 0.38051, 0.30449, -1.02168, 0.71719, 0.00000
13.557, 0.38051, 0.30449, -1.02168, 0.71719, 0.00000
13.571, 0.38051, 0.30449, -1.02168, 0.71719, 0.00000
13.586, 0.38051, 0.30449, -1.02168, 0.71719, 0.00000
13.600, 0.38051, 0.30449, -1.02168, 0.71719, 0.00000
13.614, 0.38051, 0.30449, -1.02168, 0.71719, 0.00000
13.629, 0.38051, 0.30449, -1.02168, 0.71719, 0.00000
13.643, 0.38051, 0.30449, -1.02168, 0.71719, 0.00000
13.657, 0.38051, 0.30449, -1.02168, 0.71719, 0.00000
13.671, 0.38051, 0.30449, -1.02168, 0.71719, 0.00000
13.686, 0.38051, 0.30449, -1.02168, 0.71719, 0.00000
13.700, 0.38051, 0.30449, -1.02168, 0.71719, 0.00000
13.714, 0.38051, 0.30449, -1.02168, 0.71719, -0.00000
13.729, 0.38051, 0.30449, -1.02168, 0.71719, -0.00000
13.743, 0.38051, 0.30449, -1.02168, 0.71719, -0.00000
13.757, 0.38051, 0.30449, -1.02168, 0.71719, -0.00000
13.771, 0.38051, 0.30449, -1.02168, 0.71719, -0.00000
13.786, 0.38051, 0.30449, -1.02168, 0.71719, -0.00000
13.800, 0.38051, 0.30449, -1.02168, 0.71719, -0.00000
13.814, 0.38051, 0.30449, -1.02168, 0.71719, -0.00000
13.829, 0.38051, 0.30449, -1.02168, 0.71719, -0.00000
13.843, 0.38051, 0.30449, -1.02168, 0.71719, -0.00000
13.857, 0.38051, 0.30449, -1.02168, 0.71719, -0.00000
13.871, 0.38051, 0.30449, -1.02168, 0.71719, -0.00000
13.886, 0.38051, 0.30449, -1.02168, 0.71719, -0.00000
13.900, 0.38051, 0.30449, -1.02168, 0.71719, -0.00000
13.914, 0.38051, 0.30449, -1.02168, 0.71719, -0.00000
13.929, 0.38051, 0.30449, -1.02168, 0.71719, -0.00000
13.943, 0.38051, 0.30449, -1.02168, 0.71719, -0.00000
13.957, 0.38051, 0.30449, -1.02168, 0.71719, -0.00000
13.971, 0.38051, 0.30449, -1.02168, 0.71719, -0.00000
13.986, 0.38051, 0.30449, -1.02168, 0.71719, -0.00000
14.000, 0.38051, 0.30449, -1.02168, 0.71719, -0.00000
14.014, 0.38051, 0.30449, -1.02168, 0.71719, -0.00001
14.029, 0.38051, 0.30449, -1.02168, 0.71719, -0.00001
14.043, 0.38051, 0.30449, -1.02168, 0.71719, -0.00001
14.057, 0.38051, 0.30449, -1.02168, 0.71719, -0.00001
14.071, 0.38051, 0.30449, -1.02168, 0.71719, -0.00001
14.086, 0.38051, 0.30449, -1.02168, 0.71719, -0.00001
14.100, 0.38051, 0.30449, -1.02168, 0.71719, -0.00001
14.114, 0.38051, 0.30449, -1.02168, 0.71719, -0.00001
14.129, 0.38051, 0.30449, -1.02168, 0.71719, -0.00001
14.143, 0.38051, 0.30449, -1.02168, 0.71719, -0.00000
14.157, 0.38051, 0.30449, -1.02168, 0.71719, -0.00000
14.171, 0.38051, 0.30449, -1.02168, 0.71719, -0.00000
14.186, 0.38051, 0.30449, -1.02168, 0.71719, -0.00000
14.200, 0.38051, 0.30449, -1.02168, 0.71719, -0.00000
14.214, 0.38051, 0.30449, -1.02168, 0.71719, -0.00000
14.229, 0.38051, 0.30449, -1.02168, 0.71719, -0.00000
14.243, 0.38051, 0.30449, -1.02168, 0.71719, -0.00000
14.257, 0.38051, 0.30449, -1.02168, 0.71719, -0.00000
14.271, 0.38051, 0.30449, -1.02168, 0.71719, -0.00000
14.286, 0.38051, 0.30449, -1.02168, 0.71719, -0.00000
14.300, 0.38051, 0.30449, -1.02168, 0.71719, -0.00000
14.314, 0.38051, 0.30449, -1.02168, 0.71719, -0.00000
14.329, 0.38051, 0.30449, -1.02168, 0.71719, 0.00000
14.343, 0.38050, 0.30449, -1.02168, 0.71719, 0.00001
14.357, 0.38049, 0.30449, -1.02168, 0.71719, 0.00003
14.371, 0.38045, 0.30449, -1.02168, 0.71719, 0.00006
14.386, 0.38039, 0.30449, -1.02168, 0.71719, 0.00012
14.400, 0.38031, 0.30449, -1.02168, 0.71719, 0.00021
14.414, 0.38018, 0.30449, -1.02168, 0.71719, 0.00032
14.429, 0.38002, 0.30449, -1.02168, 0.71719, 0.00048
14.443, 0.37981, 0.30449, -1.02168, 0.71719, 0.00068
14.457, 0.37955, 0.30449, -1.02168, 0.71719, 0.00092
14.471, 0.37924, 0.30449, -1.02168, 0.71719, 0.00122
14.486, 0.37885, 0.30449, -1.02168, 0.71719, 0.00158
14.500, 0.37840, 0.30449, -1.02168, 0.71719, 0.00200
14.514, 0.37787, 0.30449, -1.02168, 0.71719, 0.00249
14.529, 0.37727, 0.30449, -1.02168, 0.71719, 0.00306
14.543, 0.37658, 0.30449, -1.02168, 0.71719, 0.00370
14.557, 0.37580, 0.30449, -1.02168, 0.71719, 0.00443
14.571, 0.37495, 0.30449, -1.02168, 0.71719, 0.00525
14.586, 0.37402, 0.30449, -1.02168, 0.71719, 0.00616
14.600, 0.37300, 0.30449, -1.02168, 0.71719, 0.00717
14.614, 0.37190, 0.30449, -1.02168, 0.71719, 0.00829
14.629, 0.37072, 0.30449, -1.02168, 0.71719, 0.00952
14.643, 0.36946, 0.30449, -1.02168, 0.71719, 0.01086
14.657, 0.36812, 0.30449, -1.02168, 0.71719, 0.01233
14.671, 0.36669, 0.30449, -1.02168, 0.71719, 0.01392
14.686, 0.36519, 0.30449, -1.02168, 0.71719, 0.01564
14.700, 0.36360, 0.30449, -1.02168, 0.71719, 0.01750
14.714, 0.36193, 0.30449, -1.02168, 0.71719, 0.01950
14.729, 0.36018, 0.30449, -1.02168, 0.71719, 0.02165
14.743, 0.35835, 0.30449, -1.02168, 0.71719, 0.02395
14.757, 0.35643, 0.30449, -1.02168, 0.71719, 0.02641
14.771, 0.35444, 0.30449, -1.02168, 0.71719, 0.02903
14.786, 0.35236, 0.30449, -1.02168, 0.71719, 0.03182
14.800, 0.35020, 0.30449, -1.02168, 0.71719, 0.03478
14.814, 0.34796, 0.30449, -1.02168, 0.71719, 0.03792
14.829, 0.34564, 0.30449, -1.02168, 0.71719, 0.04124
14.843, 0.34323, 0.30449, -1.02168, 0.71719, 0.04476
14.857, 0.34075, 0.30449, -1.02168, 0.71719, 0.04846
14.871, 0.33818, 0.30449, -1.02168, 0.71719, 0.05237
14.886, 0.33553, 0.30449, -1.02168, 0.71719, 0.05647
14.900, 0.33280, 0.30449, -1.02168, 0.71719, 0.06078
14.914, 0.32999, 0.30449, -1.02168, 0.71719, 0.06529
14.929, 0.32709, 0.30449, -1.02168, 0.71719, 0.07001
14.943, 0.32412, 0.30449, -1.02168, 0.71719, 0.07492
14.957, 0.32106, 0.30449, -1.02168, 0.71719, 0.08004
14.971, 0.31792, 0.30449, -1.02168, 0.71719, 0.08536
14.986, 0.31470, 0.30449, -1.02168, 0.71719, 0.09089
15.000, 0.31140, 0.30449, -1.02168, 0.71719, 0.09661
15.014, 0.30802, 0.30449, -1.02168, 0.71719, 0.10254
15.029, 0.30455, 0.30449, -1.02168, 0.71719, 0.10867
15.043, 0.30100, 0.30449, -1.02168, 0.71719, 0.11500
15.057, 0.29738, 0.30449, -1.02168, 0.71719, 0.12153
15.071, 0.29367, 0.30449, -1.02168, 0.71719, 0.12824
15.086, 0.28988, 0.30449, -1.02168, 0.71719, 0.13514
15.100, 0.28601, 0.30449, -1.02168, 0.71719, 0.14221
15.114, 0.28208, 0.30449, -1.02168, 0.71719, 0.14946
15.129, 0.27809, 0.30449, -1.02168, 0.71719, 0.15688
15.143, 0.27405, 0.30449, -1.02168, 0.71719, 0.16446
15.157, 0.26995, 0.30449, -1.02168, 0.71719, 0.17220
15.171, 0.26581, 0.30449, -1.02168, 0.71719, 0.18010
15.186, 0.26163, 0.30449, -1.02168, 0.71719, 0.18814
15.200, 0.25742, 0.30449, -1.02168, 0.71719, 0.19632
15.214, 0.25318, 0.30449, -1.02168, 0.71719, 0.20464
15.229, 0.24892, 0.30449, -1.02168, 0.71719, 0.21309
15.243, 0.24465, 0.30449, -1.02168, 0.71719, 0.22167
15.257, 0.24037, 0.30449, -1.02168, 0.71719, 0.23037
15.271, 0.23608, 0.30449, -1.02168, 0.71719, 0.23919
15.286, 0.23180, 0.30449, -1.02168, 0.71719, 0.24811
15.300, 0.22751, 0.30449, -1.02168, 0.71719, 0.25715
15.314, 0.22322, 0.30449, -1.02168, 0.71719, 0.26628
15.329, 0.21894, 0.30449, -1.02168, 0.71719, 0.27551
15.343, 0.21465, 0.30449, -1.02168, 0.71719, 0.28483
15.357, 0.21037, 0.30449, -1.02168, 0.71719, 0.29423
15.371, 0.20608, 0.30449, -1.02168, 0.71719, 0.30372
15.386, 0.20180, 0.30449, -1.02168, 0.71719, 0.31328
15.400, 0.19751, 0.30449, -1.02168, 0.71719, 0.32291
15.414, 0.19322, 0.30449, -1.02168, 0.71719, 0.33260
15.429, 0.18894, 0.30449, -1.02168, 0.71719, 0.34235
15.443, 0.18465, 0.30449, -1.02168, 0.71719, 0.35216
15.457, 0.18037, 0.30449, -1.02168, 0.71719, 0.36201
15.471, 0.17608, 0.30449, -1.02168, 0.71719, 0.37191
15.486, 0.17180, 0.30449, -1.02168, 0.71719, 0.38185
15.500, 0.16751, 0.30449, -1.02168, 0.71719, 0.39181
15.514, 0.16322, 0.30449, -1.02168, 0.71719, 0.40181
15.529, 0.15894, 0.30449, -1.02168, 0.71719, 0.41183
15.543, 0.15465, 0.30449, -1.02168, 0.71719, 0.42187
15.557, 0.15037, 0.30449, -1.02168, 0.71719, 0.43192
15.571, 0.14608, 0.30449, -1.02168, 0.71719, 0.44197
15.586, 0.14180, 0.30449, -1.02168, 0.71719, 0.45203
15.600, 0.13751, 0.30449, -1.02168, 0.71719, 0.46209
15.614, 0.13322, 0.30449, -1.02168, 0.71719, 0.47214
15.629, 0.12894, 0.30449, -1.02168, 0.71719, 0.48220
15.643, 0.12465, 0.30449, -1.02168, 0.71719, 0.49226
15.657, 0.12037, 0.30449, -1.02168, 0.71719, 0.50232
15.671, 0.11608, 0.30449, -1.02168, 0.71719, 0.51237
15.686, 0.11180, 0.30449, -1.02168, 0.71719, 0.52243
15.700, 0.10751, 0.30449, -1.02168, 0.71719, 0.53249
15.714, 0.10322, 0.30449, -1.02168, 0.71719, 0.54255
15.729, 0.09894, 0.30449, -1.02168, 0.71719, 0.55260
15.743, 0.09465, 0.30449, -1.02168, 0.71719, 0.56266
15.757, 0.09037, 0.30449, -1.02168, 0.71719, 0.57272
15.771, 0.08608, 0.30449, -1.02168, 0.71719, 0.58278
15.786, 0.08180, 0.30449, -1.02168, 0.71719, 0.59283
15.800, 0.07751, 0.30449, -1.02168, 0.71719, 0.60289
15.814, 0.07322, 0.30449, -1.02168, 0.71719, 0.61295
15.829, 0.06894, 0.30449, -1.02168, 0.71719, 0.62301
15.843, 0.06465, 0.30449, -1.02168, 0.71719, 0.63306
15.857, 0.06037, 0.30449, -1.02168, 0.71719, 0.64312
15.871, 0.05608, 0.30449, -1.02168, 0.71719, 0.65318
15.886, 0.05180, 0.30449, -1.02168, 0.71719, 0.66324
15.900, 0.04751, 0.30449, -1.02168, 0.71719, 0.67329
15.914, 0.04322, 0.30449, -1.02168, 0.71719, 0.68335
15.929, 0.03894, 0.30449, -1.02168, 0.71719, 0.69341
15.943, 0.03465, 0.30449, -1.02168, 0.71719, 0.70347
15.957, 0.03037, 0.30449, -1.02168, 0.71719, 0.71352
15.971, 0.02608, 0.30449, -1.02168, 0.71719, 0.72358
15.986, 0.02180, 0.30449, -1.02168, 0.71719, 0.73364
16.000, 0.01751, 0.30449, -1.02168, 0.71719, 0.74370
16.014, 0.01322, 0.30449, -1.02168, 0.71719, 0.75375
16.029, 0.00894, 0.30449, -1.02168, 0.71719, 0.76381
16.043, 0.00465, 0.30449, -1.02168, 0.71719, 0.77387
16.057, 0.00037, 0.30449, -1.02168, 0.71719, 0.78393
16.071, -0.00392, 0.30449, -1.02168, 0.71719, 0.79398
16.086, -0.00820, 0.30449, -1.02168, 0.71719, 0.80404
16.100, -0.01249, 0.30449, -1.02168, 0.71719, 0.81410
16.114, -0.01678, 0.30449, -1.02168, 0.71719, 0.82416
16.129, -0.02106, 0.30449, -1.02168, 0.71719, 0.83421
16.143, -0.02535, 0.30449, -1.02168, 0.71719, 0.84427
16.157, -0.02963, 0.30449, -1.02168, 0.71719, 0.85433
16.171, -0.03392, 0.30449, -1.02168, 0.71719, 0.86439
16.186, -0.03820, 0.30449, -1.02168, 0.71719, 0.87444
16.200, -0.04249, 0.30449, -1.02168, 0.71719, 0.88450
16.214, -0.04678, 0.30449, -1.02168, 0.71719, 0.89456
16.229, -0.05106, 0.30449, -1.02168, 0.71719, 0.90462
16.243, -0.05535, 0.30449, -1.02168, 0.71719, 0.91467
16.257, -0.05963, 0.30449, -1.02168, 0.71719, 0.92473
16.271, -0.06392, 0.30449, -1.02168, 0.71719, 0.93479
16.286, -0.06820, 0.30449, -1.02168, 0.71719, 0.94485
16.300, -0.07249, 0.30449, -1.02168, 0.71719, 0.95490
16.314, -0.07678, 0.30449, -1.02168, 0.71719, 0.96496
16.329, -0.08106, 0.30449, -1.02168, 0.71719, 0.97502
16.343, -0.08535, 0.30449, -1.02168, 0.71719, 0.98508
16.357, -0.08963, 0.30449, -1.02168, 0.71719, 0.99513
16.371, -0.09392, 0.30449, -1.02168, 0.71719, 1.00519
16.386, -0.09820, 0.30449, -1.02168, 0.71719, 1.01525
16.400, -0.10249, 0.30449, -1.02168, 0.71719, 1.02531
16.414, -0.10678, 0.30449, -1.02168, 0.71719, 1.03536
16.429, -0.11106, 0.30449, -1.02168, 0.71719, 1.04542
16.443, -0.11535, 0.30449, -1.02168, 0.71719, 1.05548
16.457, -0.11963, 0.30449, -1.02168, 0.71719, 1.06554
16.471, -0.12392, 0.30449, -1.02168, 0.71719, 1.07559
16.486, -0.12820, 0.30449, -1.02168, 0.71719, 1.08565
16.500, -0.13249, 0.30449, -1.02168, 0.71719, 1.09571
16.514, -0.13678, 0.30449, -1.02168, 0.71719, 1.10577
16.529, -0.14106, 0.30449, -1.02168, 0.71719, 1.11582
16.543, -0.14535, 0.30449, -1.02168, 0.71719, 1.12588
16.557, -0.14963, 0.30449, -1.02168, 0.71719, 1.13594
16.571, -0.15392, 0.30449, -1.02168, 0.71719, 1.14599
16.586, -0.15820, 0.30449, -1.02168, 0.71719, 1.15603
16.600, -0.16249, 0.30449, -1.02168, 0.71719, 1.16605
16.614, -0.16678, 0.30449, -1.02168, 0.71719, 1.17606
16.629, -0.17106, 0.30449, -1.02168, 0.71719, 1.18604
16.643, -0.17535, 0.30449, -1.02168, 0.71719, 1.19598
16.657, -0.17963, 0.30449, -1.02168, 0.71719, 1.20589
16.671, -0.18392, 0.30449, -1.02168, 0.71719, 1.21576
16.686, -0.18820, 0.30449, -1.02168, 0.71719, 1.22558
16.700, -0.19249, 0.30449, -1.02168, 0.71719, 1.23535
16.714, -0.19678, 0.30449, -1.02168, 0.71719, 1.24506
16.729, -0.20106, 0.30449, -1.02168, 0.71719, 1.25471
16.743, -0.20535, 0.30449, -1.02168, 0.71719, 1.26429
16.757, -0.20963, 0.30449, -1.02168, 0.71719, 1.27379
16.771, -0.21392, 0.30449, -1.02168, 0.71719, 1.28322
16.786, -0.21820, 0.30449, -1.02168, 0.71719, 1.29257
16.800, -0.22249, 0.30449, -1.02168, 0.71719, 1.30182
16.814, -0.22678, 0.30449, -1.02168, 0.71719, 1.31099
16.829, -0.23106, 0.30449, -1.02168, 0.71719, 1.32005
16.843, -0.23535, 0.30449, -1.02168, 0.71719, 1.32901
16.857, -0.23963, 0.30449, -1.02168, 0.71719, 1.33786
16.871, -0.24392, 0.30449, -1.02168, 0.71719, 1.34659
16.886, -0.24819, 0.30449, -1.02168, 0.71719, 1.35521
16.900, -0.25245, 0.30449, -1.02168, 0.71719, 1.36370
16.914, -0.25669, 0.30449, -1.02168, 0.71719, 1.37206
16.929, -0.26091, 0.30449, -1.02168, 0.71719, 1.38028
16.943, -0.26510, 0.30449, -1.02168, 0.71719, 1.38836
16.957, -0.26924, 0.30449, -1.02168, 0.71719, 1.39630
16.971, -0.27335, 0.30449, -1.02168, 0.71719, 1.40408
16.986, -0.27740, 0.30449, -1.02168, 0.71719, 1.41171
17.000, -0.28140, 0.30449, -1.02168, 0.71719, 1.41918
17.014, -0.28535, 0.30449, -1.02168, 0.71719, 1.42648
17.029, -0.28922, 0.30449, -1.02168, 0.71719, 1.43361
17.043, -0.29302, 0.30449, -1.02168, 0.71719, 1.44056
17.057, -0.29675, 0.30449, -1.02168, 0.71719, 1.44733
17.071, -0.30039, 0.30449, -1.02168, 0.71719, 1.45391
17.086, -0.30395, 0.30449, -1.02168, 0.71719, 1.46029
17.100, -0.30743, 0.30449, -1.02168, 0.71719, 1.46648
17.114, -0.31083, 0.30449, -1.02168, 0.71719, 1.47247
17.129, -0.31414, 0.30449, -1.02168, 0.71719, 1.47826
17.143, -0.31738, 0.30449, -1.02168, 0.71719, 1.48384
17.157, -0.32053, 0.30449, -1.02168, 0.71719, 1.48922
17.171, -0.32360, 0.30449, -1.02168, 0.71719, 1.49440
17.186, -0.32659, 0.30449, -1.02168, 0.71719, 1.49937
17.200, -0.32950, 0.30449, -1.02168, 0.71719, 1.50415
17.214, -0.33232, 0.30449, -1.02168, 0.71719, 1.50872
17.229, -0.33507, 0.30449, -1.02168, 0.71719, 1.51308
17.243, -0.33773, 0.30449, -1.02168, 0.71719, 1.51725
17.257, -0.34031, 0.30449, -1.02168, 0.71719, 1.52122
17.271, -0.34281, 0.30449, -1.02168, 0.71719, 1.52498
17.286, -0.34523, 0.30449, -1.02168, 0.71719, 1.52855
17.300, -0.34757, 0.30449, -1.02168, 0.71719, 1.53192
17.314, -0.34982, 0.30449, -1.02168, 0.71719, 1.53512
17.329, -0.35200, 0.30449, -1.02168, 0.71719, 1.53813
17.343, -0.35409, 0.30449, -1.02168, 0.71719, 1.54097
17.357, -0.35610, 0.30449, -1.02168, 0.71719, 1.54364
17.371, -0.35802, 0.30449, -1.02168, 0.71719, 1.54614
17.386, -0.35987, 0.30449, -1.02168, 0.71719, 1.54849
17.400, -0.36164, 0.30449, -1.02168, 0.71719, 1.55068
17.414, -0.36332, 0.30449, -1.02168, 0.71719, 1.55273
17.429, -0.36492, 0.30449, -1.02168, 0.71719, 1.55463
17.443, -0.36644, 0.30449, -1.02168, 0.71719, 1.55639
17.457, -0.36788, 0.30449, -1.02168, 0.71719, 1.55802
17.471, -0.36924, 0.30449, -1.02168, 0.71719, 1.55952
17.486, -0.37051, 0.30449, -1.02168, 0.71719, 1.56090
17.500, -0.37171, 0.30449, -1.02168, 0.71719, 1.56216
17.514, -0.37282, 0.30449, -1.02168, 0.71719, 1.56331
17.529, -0.37385, 0.30449, -1.02168, 0.71719, 1.56435
17.543, -0.37480, 0.30449, -1.02168, 0.71719, 1.56530
17.557, -0.37566, 0.30449, -1.02168, 0.71719, 1.56614
17.571, -0.37645, 0.30449, -1.02168, 0.71719, 1.56690
17.586, -0.37715, 0.30449, -1.02168, 0.71719, 1.56756
17.600, -0.37777, 0.30449, -1.02168, 0.71719, 1.56815
17.614, -0.37832, 0.30449, -1.02168, 0.71719, 1.56866
17.629, -0.37878, 0.30449, -1.02168, 0.71719, 1.56910
17.643, -0.37917, 0.30449, -1.02168, 0.71719, 1.56948
17.657, -0.37950, 0.30449, -1.02168, 0.71719, 1.56979
17.671, -0.37977, 0.30449, -1.02168, 0.71719, 1.57006
17.686, -0.37999, 0.30449, -1.02168, 0.71719, 1.57027
17.700, -0.38016, 0.30449, -1.02168, 0.71719, 1.57043
17.714, -0.38029, 0.30449, -1.02168, 0.71719, 1.57056
17.729, -0.38038, 0.30449, -1.02168, 0.71719, 1.57066
17.743, -0.38044, 0.30449, -1.02168, 0.71719, 1.57072
17.757, -0.38048, 0.30449, -1.02168, 0.71719, 1.57076
17.771, -0.38050, 0.30449, -1.02168, 0.71719, 1.57079
17.786, -0.38051, 0.30449, -1.02168, 0.71719, 1.57080
17.800, -0.38051, 0.30449, -1.02168, 0.71719, 1.57080
17.814, -0.38051, 0.30449, -1.02168, 0.71719, 1.57080
17.829, -0.38051, 0.30449, -1.02168, 0.71719, 1.57080
17.843, -0.38051, 0.30449, -1.02168, 0.71719, 1.57080
17.857, -0.38051, 0.30449, -1.02168, 0.71719, 1.57080
17.871, -0.38051, 0.30449, -1.02168, 0.71719, 1.57080
17.886, -0.38051, 0.30449, -1.02168, 0.71719, 1.57080
17.900, -0.38051, 0.30449, -1.02168, 0.71719, 1.57080
17.914, -0.38051, 0.30449, -1.02168, 0.71719, 1.57080
17.929, -0.38051, 0.30449, -1.02168, 0.71719, 1.57080
17.943, -0.38051, 0.30449, -1.02168, 0.71719, 1.57080
17.957, -0.38051, 0.30449, -1.02168, 0.71719, 1.57080
17.971, -0.38051, 0.30449, -1.02168, 0.71719, 1.57080
17.986, -0.38051, 0.30449, -1.02168, 0.71719, 1.57080
18.000, -0.38051, 0.30449, -1.02168, 0.71719, 1.57080
18.014, -0.38051, 0.30449, -1.02168, 0.71719, 1.57080
18.029, -0.38051, 0.30449, -1.02168, 0.71719, 1.57080
18.043, -0.38051, 0.30449, -1.02168, 0.71719, 1.57080
18.057, -0.38051, 0.30449, -1.02168, 0.71719, 1.57080
18.071, -0.38051, 0.30449, -1.02168, 0.71719, 1.57080
18.086, -0.38051, 0.30449, -1.02168, 0.71719, 1.57080
18.100, -0.38051, 0.30449, -1.02168, 0.71719, 1.57080
18.114, -0.38051, 0.30449, -1.02168, 0.71719, 1.57080
18.129, -0.38051, 0.30449, -1.02168, 0.71719, 1.57080
18.143, -0.38051, 0.30449, -1.02168, 0.71719, 1.57080
18.157, -0.38051, 0.30449, -1.02168, 0.71719, 1.57080
18.171, -0.38051, 0.30449, -1.02168, 0.71719, 1.57080
18.186, -0.38051, 0.30449, -1.02168, 0.71719, 1.57080
18.200, -0.38051, 0.30449, -1.02168, 0.71719, 1.57080
18.214, -0.38051, 0.30449, -1.02168, 0.71719, 1.57080
18.229, -0.38051, 0.30449, -1.02168, 0.71719, 1.57080
18.243, -0.38051, 0.30449, -1.02168, 0.71719, 1.57080
18.257, -0.38051, 0.30449, -1.02168, 0.71720, 1.57080
18.271, -0.38051, 0.30449, -1.02168, 0.71720, 1.57080
18.286, -0.38051, 0.30449, -1.02168, 0.71720, 1.57080
18.300, -0.38051, 0.30449, -1.02168, 0.71720, 1.57080
18.314, -0.38051, 0.30449, -1.02168, 0.71720, 1.57080
18.329, -0.38051, 0.30449, -1.02168, 0.71720, 1.57080
18.343, -0.38051, 0.30449, -1.02168, 0.71720, 1.57080
18.357, -0.38051, 0.30449, -1.02168, 0.71720, 1.57080
18.371, -0.38051, 0.30449, -1.02168, 0.71720, 1.57079
18.386, -0.38051, 0.30449, -1.02168, 0.71720, 1.57079
18.400, -0.38051, 0.30449, -1.02168, 0.71720, 1.57079
18.414, -0.38051, 0.30449, -1.02168, 0.71720, 1.57079
18.429, -0.38051, 0.30449, -1.02168, 0.71720, 1.57079
18.443, -0.38051, 0.30449, -1.02168, 0.71720, 1.57079
18.457, -0.38051, 0.30449, -1.02168, 0.71720, 1.57079
18.471, -0.38051, 0.30449, -1.02168, 0.71720, 1.57079
18.486, -0.38051, 0.30449, -1.02168, 0.71720, 1.57079
18.500, -0.38051, 0.30449, -1.02168, 0.71720, 1.57079
18.514, -0.38051, 0.30449, -1.02168, 0.71720, 1.57079
18.529, -0.38051, 0.30449, -1.02168, 0.71720, 1.57079
18.543, -0.38051, 0.30449, -1.02168, 0.71720, 1.57079
18.557, -0.38051, 0.30449, -1.02168, 0.71720, 1.57079
18.571, -0.38051, 0.30449, -1.02168, 0.71720, 1.57079
18.586, -0.38051, 0.30449, -1.02168, 0.71720, 1.57079
18.600, -0.38051, 0.30449, -1.02168, 0.71720, 1.57079
18.614, -0.38051, 0.30449, -1.02168, 0.71720, 1.57079
18.629, -0.38051, 0.30449, -1.02168, 0.71720, 1.57079
18.643, -0.38051, 0.30449, -1.02168, 0.71720, 1.57079
18.657, -0.38051, 0.30449, -1.02168, 0.71719, 1.57079
18.671, -0.38051, 0.30449, -1.02168, 0.71719, 1.57079
18.686, -0.38051, 0.30449, -1.02168, 0.71719, 1.57080
18.700, -0.38051, 0.30449, -1.02168, 0.71719, 1.57080
18.714, -0.38051, 0.30449, -1.02168, 0.71719, 1.57080
18.729, -0.38051, 0.30449, -1.02168, 0.71719, 1.57080
18.743, -0.38051, 0.30449, -1.02168, 0.71719, 1.57080
18.757, -0.38051, 0.30449, -1.02168, 0.71719, 1.57080
18.771, -0.38051, 0.30449, -1.02168, 0.71719, 1.57080
18.786, -0.38051, 0.30449, -1.02168, 0.71719, 1.57080
18.800, -0.38051, 0.30449, -1.02168, 0.71719, 1.57080
18.814, -0.38051, 0.30449, -1.02168, 0.71719, 1.57080
18.829, -0.38051, 0.30449, -1.02167, 0.71718, 1.57082
18.843, -0.38051, 0.30450, -1.02164, 0.71715, 1.57086
18.857, -0.38051, 0.30451, -1.02160, 0.71711, 1.57093
18.871, -0.38051, 0.30453, -1.02153, 0.71705, 1.57104
18.886, -0.38051, 0.30456, -1.02143, 0.71696, 1.57120
18.900, -0.38051, 0.30460, -1.02130, 0.71685, 1.57142
18.914, -0.38051, 0.30465, -1.02112, 0.71669, 1.57170
18.929, -0.38051, 0.30472, -1.02089, 0.71650, 1.57205
18.943, -0.38051, 0.30480, -1.02060, 0.71626, 1.57249
18.957, -0.38051, 0.30490, -1.02026, 0.71597, 1.57302
18.971, -0.38051, 0.30501, -1.01985, 0.71562, 1.57365
18.986, -0.38051, 0.30515, -1.01937, 0.71522, 1.57439
19.000, -0.38051, 0.30530, -1.01881, 0.71476, 1.57525
19.014, -0.38051, 0.30548, -1.01817, 0.71422, 1.57623
19.029, -0.38051, 0.30569, -1.01743, 0.71361, 1.57735
19.043, -0.38051, 0.30592, -1.01661, 0.71293, 1.57862
19.057, -0.38051, 0.30618, -1.01568, 0.71216, 1.58004
19.071, -0.38051, 0.30647, -1.01464, 0.71131, 1.58162
19.086, -0.38051, 0.30678, -1.01349, 0.71036, 1.58337
19.100, -0.38051, 0.30714, -1.01223, 0.70932, 1.58529
19.114, -0.38051, 0.30752, -1.01083, 0.70818, 1.58741
19.129, -0.38051, 0.30794, -1.00931, 0.70693, 1.58972
19.143, -0.38051, 0.30840, -1.00765, 0.70557, 1.59224
19.157, -0.38051, 0.30890, -1.00585, 0.70410, 1.59497
19.171, -0.38051, 0.30944, -1.00391, 0.70251, 1.59793
19.186, -0.38051, 0.31002, -1.00182, 0.70079, 1.60112
19.200, -0.38051, 0.31065, -0.99960, 0.69895, 1.60454
19.214, -0.38051, 0.31132, -0.99722, 0.69697, 1.60822
19.229, -0.38051, 0.31204, -0.99471, 0.69485, 1.61215
19.243, -0.38051, 0.31280, -0.99205, 0.69259, 1.61635
19.257, -0.38051, 0.31362, -0.98925, 0.69019, 1.62083
19.271, -0.38051, 0.31449, -0.98631, 0.68763, 1.62558
19.286, -0.38051, 0.31541, -0.98322, 0.68491, 1.63063
19.300, -0.38051, 0.31638, -0.97999, 0.68203, 1.63596
19.314, -0.38051, 0.31742, -0.97663, 0.67899, 1.64157
19.329, -0.38051, 0.31851, -0.97312, 0.67578, 1.64747
19.343, -0.38051, 0.31966, -0.96949, 0.67239, 1.65365
19.357, -0.38051, 0.32087, -0.96573, 0.66882, 1.66013
19.371, -0.38051, 0.32214, -0.96186, 0.66506, 1.66688
19.386, -0.38051, 0.32347, -0.95787, 0.66112, 1.67392
19.400, -0.38051, 0.32486, -0.95378, 0.65699, 1.68125
19.414, -0.38051, 0.32631, -0.94959, 0.65267, 1.68885
19.429, -0.38051, 0.32782, -0.94530, 0.64817, 1.69673
19.443, -0.38051, 0.32939, -0.94093, 0.64348, 1.70487
19.457, -0.38051, 0.33102, -0.93647, 0.63859, 1.71326
19.471, -0.38051, 0.33271, -0.93194, 0.63353, 1.72190
19.486, -0.38051, 0.33446, -0.92733, 0.62827, 1.73077
19.500, -0.38051, 0.33627, -0.92267, 0.62282, 1.73987
19.514, -0.38051, 0.33815, -0.91794, 0.61719, 1.74919
19.529, -0.38051, 0.34008, -0.91315, 0.61137, 1.75872
19.543, -0.38051, 0.34207, -0.90833, 0.60537, 1.76845
19.557, -0.38051, 0.34412, -0.90345, 0.59917, 1.77837
19.571, -0.38051, 0.34623, -0.89855, 0.59281, 1.78848
19.586, -0.38051, 0.34840, -0.89361, 0.58626, 1.79876
19.600, -0.38051, 0.35063, -0.88865, 0.57955, 1.80920
19.614, -0.38051, 0.35291, -0.88367, 0.57268, 1.81981
19.629, -0.38051, 0.35525, -0.87868, 0.56564, 1.83056
19.643, -0.38051, 0.35764, -0.87368, 0.55845, 1.84145
19.657, -0.38051, 0.36009, -0.86868, 0.55111, 1.85248
19.671, -0.38051, 0.36258, -0.86368, 0.54363, 1.86362
19.686, -0.38051, 0.36512, -0.85868, 0.53600, 1.87488
19.700, -0.38051, 0.36771, -0.85368, 0.52824, 1.88625
19.714, -0.38051, 0.37034, -0.84868, 0.52034, 1.89771
19.729, -0.38051, 0.37301, -0.84368, 0.51232, 1.90926
19.743, -0.38051, 0.37573, -0.83868, 0.50417, 1.92088
19.757, -0.38051, 0.37849, -0.83368, 0.49591, 1.93258
19.771, -0.38051, 0.38128, -0.82868, 0.48754, 1.94434
19.786, -0.38051, 0.38411, -0.82368, 0.47905, 1.95615
19.800, -0.38051, 0.38698, -0.81868, 0.47047, 1.96801
19.814, -0.38051, 0.38988, -0.81368, 0.46178, 1.97990
19.829, -0.38051, 0.39282, -0.80868, 0.45300, 1.99182
19.843, -0.38051, 0.39578, -0.80368, 0.44413, 2.00375
19.857, -0.38051, 0.39877, -0.79868, 0.43517, 2.01570
19.871, -0.38051, 0.40179, -0.79368, 0.42614, 2.02764
19.886, -0.38051, 0.40484, -0.78868, 0.41703, 2.03959
19.900, -0.38051, 0.40791, -0.78368, 0.40784, 2.05153
19.914, -0.38051, 0.41100, -0.77868, 0.39859, 2.06348
19.929, -0.38051, 0.41412, -0.77368, 0.38928, 2.07542
19.943, -0.38051, 0.41725, -0.76868, 0.37992, 2.08737
19.957, -0.38051, 0.42040, -0.76368, 0.37049, 2.09931
19.971, -0.38051, 0.42357, -0.75868, 0.36103, 2.11126
19.986, -0.38051, 0.42675, -0.75368, 0.35151, 2.12321
20.000, -0.38051, 0.42994, -0.74868, 0.34196, 2.13515
20.014, -0.38051, 0.43315, -0.74368, 0.33238, 2.14710
20.029, -0.38051, 0.43637, -0.73868, 0.32277, 2.15904
20.043, -0.38051, 0.43959, -0.73368, 0.31313, 2.17099
20.057, -0.38051, 0.44282, -0.72868, 0.30347, 2.18293
20.071, -0.38051, 0.44606, -0.72368, 0.29380, 2.19488
20.086, -0.38051, 0.44930, -0.71868, 0.28412, 2.20682
20.100, -0.38051, 0.45254, -0.71368, 0.27443, 2.21877
20.114, -0.38051, 0.45578, -0.70868, 0.26474, 2.23071
20.129, -0.38051, 0.45903, -0.70368, 0.25505, 2.24266
20.143, -0.38051, 0.46227, -0.69868, 0.24536, 2.25460
20.157, -0.38051, 0.46551, -0.69368, 0.23566, 2.26655
20.171, -0.38051, 0.46875, -0.68868, 0.22597, 2.27850
20.186, -0.38051, 0.47200, -0.68368, 0.21628, 2.29044
20.200, -0.38051, 0.47524, -0.67868, 0.20659, 2.30239
20.214, -0.38051, 0.47848, -0.67368, 0.19690, 2.31433
20.229, -0.38051, 0.48172, -0.66868, 0.18721, 2.32628
20.243, -0.38051, 0.48496, -0.66368, 0.17752, 2.33822
20.257, -0.38051, 0.48821, -0.65868, 0.16783, 2.35017
20.271, -0.38051, 0.49145, -0.65368, 0.15814, 2.36211
20.286, -0.38051, 0.49469, -0.64868, 0.14845, 2.37406
20.300, -0.38051, 0.49793, -0.64368, 0.13876, 2.38600
20.314, -0.38051, 0.50118, -0.63868, 0.12907, 2.39795
20.329, -0.38051, 0.50442, -0.63368, 0.11938, 2.40989
20.343, -0.38051, 0.50766, -0.62868, 0.10969, 2.42184
20.357, -0.38051, 0.51090, -0.62368, 0.10000, 2.43379
20.371, -0.38051, 0.51415, -0.61868, 0.09031, 2.44573
20.386, -0.38051, 0.51739, -0.61368, 0.08062, 2.45768
20.400, -0.38051, 0.52063, -0.60868, 0.07093, 2.46962
20.414, -0.38051, 0.52387, -0.60368, 0.06124, 2.48157
20.429, -0.38051, 0.52711, -0.59868, 0.05155, 2.49351
20.443, -0.38051, 0.53036, -0.59368, 0.04186, 2.50546
20.457, -0.38051, 0.53360, -0.58868, 0.03219, 2.51740
20.471, -0.38051, 0.53683, -0.58368, 0.02252, 2.52935
20.486, -0.38051, 0.54006, -0.57868, 0.01288, 2.54129
20.500, -0.38051, 0.54329, -0.57368, 0.00326, 2.55324
20.514, -0.38051, 0.54650, -0.56868, -0.00633, 2.56518
20.529, -0.38051, 0.54971, -0.56368, -0.01590, 2.57713
20.543, -0.38051, 0.55291, -0.55868, -0.02542, 2.58908
20.557, -0.38051, 0.55609, -0.55368, -0.03490, 2.60102
20.571, -0.38051, 0.55925, -0.54868, -0.04434, 2.61297
20.586, -0.38051, 0.56241, -0.54368, -0.05372, 2.62491
20.600, -0.38051, 0.56554, -0.53868, -0.06305, 2.63686
20.614, -0.38051, 0.56865, -0.53368, -0.07232, 2.64880
20.629, -0.38051, 0.57174, -0.52868, -0.08152, 2.66075
20.643, -0.38051, 0.57481, -0.52368, -0.09065, 2.67269
20.657, -0.38051, 0.57786, -0.51868, -0.09971, 2.68464
20.671, -0.38051, 0.58088, -0.51368, -0.10869, 2.69658
20.686, -0.38051, 0.58387, -0.50868, -0.11759, 2.70853
20.700, -0.38051, 0.58684, -0.50368, -0.12640, 2.72046
20.714, -0.38051, 0.58977, -0.49868, -0.13511, 2.73238
20.729, -0.38051, 0.59267, -0.49368, -0.14373, 2.74427
20.743, -0.38051, 0.59554, -0.48868, -0.15224, 2.75613
20.757, -0.38051, 0.59837, -0.48368, -0.16065, 2.76794
20.771, -0.38051, 0.60116, -0.47868, -0.16895, 2.77970
20.786, -0.38051, 0.60392, -0.47368, -0.17713, 2.79140
20.800, -0.38051, 0.60663, -0.46868, -0.18519, 2.80303
20.814, -0.38051, 0.60931, -0.46368, -0.19312, 2.81458
20.829, -0.38051, 0.61194, -0.45868, -0.20092, 2.82604
20.843, -0.38051, 0.61453, -0.45368, -0.20859, 2.83740
20.857, -0.38051, 0.61707, -0.44868, -0.21612, 2.84866
20.871, -0.38051, 0.61956, -0.44368, -0.22350, 2.85981
20.886, -0.38051, 0.62200, -0.43868, -0.23074, 2.87084
20.900, -0.38051, 0.62439, -0.43368, -0.23782, 2.88173
20.914, -0.38051, 0.62673, -0.42869, -0.24474, 2.89248
20.929, -0.38051, 0.62901, -0.42371, -0.25150, 2.90309
20.943, -0.38051, 0.63124, -0.41875, -0.25810, 2.91354
20.957, -0.38051, 0.63341, -0.41381, -0.26452, 2.92382
20.971, -0.38051, 0.63552, -0.40891, -0.27076, 2.93393
20.986, -0.38051, 0.63757, -0.40404, -0.27682, 2.94385
21.000, -0.38051, 0.63956, -0.39921, -0.28270, 2.95358
21.014, -0.38051, 0.64149, -0.39442, -0.28839, 2.96311
21.029, -0.38051, 0.64336, -0.38970, -0.29389, 2.97243
21.043, -0.38051, 0.64517, -0.38503, -0.29920, 2.98153
21.057, -0.38051, 0.64692, -0.38042, -0.30433, 2.99041
21.071, -0.38051, 0.64861, -0.37589, -0.30926, 2.99905
21.086, -0.38051, 0.65024, -0.37144, -0.31401, 3.00744
21.100, -0.38051, 0.65181, -0.36706, -0.31857, 3.01558
21.114, -0.38051, 0.65332, -0.36278, -0.32295, 3.02346
21.129, -0.38051, 0.65477, -0.35859, -0.32713, 3.03107
21.143, -0.38051, 0.65616, -0.35449, -0.33113, 3.03840
21.157, -0.38051, 0.65749, -0.35051, -0.33494, 3.04545
21.171, -0.38051, 0.65876, -0.34664, -0.33856, 3.05220
21.186, -0.38051, 0.65997, -0.34288, -0.34201, 3.05868
21.200, -0.38051, 0.66112, -0.33925, -0.34527, 3.06486
21.214, -0.38051, 0.66221, -0.33574, -0.34837, 3.07077
21.229, -0.38051, 0.66324, -0.33238, -0.35129, 3.07638
21.243, -0.38051, 0.66422, -0.32915, -0.35406, 3.08172
21.257, -0.38051, 0.66514, -0.32606, -0.35666, 3.08676
21.271, -0.38051, 0.66600, -0.32312, -0.35911, 3.09152
21.286, -0.38051, 0.66682, -0.32032, -0.36142, 3.09600
21.300, -0.38051, 0.66758, -0.31767, -0.36357, 3.10020
21.314, -0.38051, 0.66830, -0.31515, -0.36559, 3.10414
21.329, -0.38051, 0.66897, -0.31278, -0.36748, 3.10782
21.343, -0.38051, 0.66960, -0.31055, -0.36923, 3.11124
21.357, -0.38051, 0.67018, -0.30847, -0.37086, 3.11443
21.371, -0.38051, 0.67071, -0.30653, -0.37237, 3.11739
21.386, -0.38051, 0.67121, -0.30473, -0.37376, 3.12012
21.400, -0.38051, 0.67167, -0.30307, -0.37504, 3.12264
21.414, -0.38051, 0.67209, -0.30155, -0.37621, 3.12496
21.429, -0.38051, 0.67248, -0.30016, -0.37728, 3.12708
21.443, -0.38051, 0.67283, -0.29889, -0.37826, 3.12901
21.457, -0.38051, 0.67315, -0.29774, -0.37914, 3.13076
21.471, -0.38051, 0.67344, -0.29671, -0.37993, 3.13234
21.486, -0.38051, 0.67369, -0.29578, -0.38064, 3.13376
21.500, -0.38051, 0.67393, -0.29495, -0.38127, 3.13502
21.514, -0.38051, 0.67413, -0.29422, -0.38182, 3.13615
21.529, -0.38051, 0.67431, -0.29358, -0.38231, 3.13713
21.543, -0.38051, 0.67447, -0.29302, -0.38273, 3.13799
21.557, -0.38051, 0.67460, -0.29254, -0.38309, 3.13873
21.571, -0.38051, 0.67472, -0.29213, -0.38340, 3.13936
21.586, -0.38051, 0.67481, -0.29178, -0.38365, 3.13989
21.600, -0.38051, 0.67489, -0.29150, -0.38386, 3.14033
21.614, -0.38051, 0.67496, -0.29127, -0.38402, 3.14069
21.629, -0.38051, 0.67501, -0.29109, -0.38415, 3.14097
21.643, -0.38051, 0.67505, -0.29096, -0.38425, 3.14119
21.657, -0.38051, 0.67508, -0.29086, -0.38432, 3.14135
21.671, -0.38051, 0.67510, -0.29079, -0.38436, 3.14146
21.686, -0.38051, 0.67511, -0.29075, -0.38439, 3.14153
21.700, -0.38051, 0.67512, -0.29072, -0.38440, 3.14157
21.714, -0.38051, 0.67512, -0.29071, -0.38441, 3.14159
21.729, -0.38051, 0.67512, -0.29071, -0.38441, 3.14159
21.743, -0.38051, 0.67512, -0.29071, -0.38441, 3.14159
21.757, -0.38051, 0.67512, -0.29071, -0.38441, 3.14159
21.771, -0.38051, 0.67512, -0.29071, -0.38441, 3.14159
21.786, -0.38051, 0.67512, -0.29071, -0.38441, 3.14159
21.800, -0.38051, 0.67512, -0.29071, -0.38441, 3.14159
21.814, -0.38051, 0.67512, -0.29071, -0.38441, 3.14159
21.829, -0.38051, 0.67512, -0.29071, -0.38441, 3.14159
21.843, -0.38051, 0.67512, -0.29071, -0.38441, 3.14159
21.857, -0.38051, 0.67512, -0.29071, -0.38441, 3.14159
21.871, -0.38051, 0.67512, -0.29071, -0.38441, 3.14159
21.886, -0.38051, 0.67512, -0.29071, -0.38441, 3.14159
21.900, -0.38051, 0.67512, -0.29071, -0.38441, 3.14159
21.914, -0.38051, 0.67512, -0.29071, -0.38441, 3.14160
21.929, -0.38051, 0.67512, -0.29071, -0.38441, 3.14160
21.943, -0.38051, 0.67512, -0.29071, -0.38441, 3.14160
21.957, -0.38051, 0.67512, -0.29071, -0.38441, 3.14160
21.971, -0.38051, 0.67512, -0.29071, -0.38441, 3.14160
21.986, -0.38051, 0.67512, -0.29071, -0.38441, 3.14160
22.000, -0.38051, 0.67512, -0.29071, -0.38441, 3.14160
22.014, -0.38051, 0.67512, -0.29071, -0.38441, 3.14160
22.029, -0.38051, 0.67512, -0.29071, -0.38441, 3.14160
22.043, -0.38051, 0.67512, -0.29071, -0.38441, 3.14160
22.057, -0.38051, 0.67512, -0.29071, -0.38441, 3.14160
22.071, -0.38051, 0.67512, -0.29071, -0.38441, 3.14160
22.086, -0.38051, 0.67512, -0.29071, -0.38440, 3.14160
22.100, -0.38051, 0.67512, -0.29071, -0.38440, 3.14160
22.114, -0.38051, 0.67512, -0.29071, -0.38440, 3.14160
22.129, -0.38051, 0.67512, -0.29071, -0.38440, 3.14160
22.143, -0.38051, 0.67512, -0.29071, -0.38440, 3.14160
22.157, -0.38051, 0.67512, -0.29071, -0.38440, 3.14160
22.171, -0.38051, 0.67512, -0.29071, -0.38440, 3.14160
22.186, -0.38051, 0.67512, -0.29071, -0.38440, 3.14160
22.200, -0.38051, 0.67512, -0.29071, -0.38440, 3.14160
22.214, -0.38051, 0.67512, -0.29071, -0.38440, 3.14160
22.229, -0.38051, 0.67512, -0.29071, -0.38440, 3.14160
22.243, -0.38051, 0.67512, -0.29071, -0.38440, 3.14160
22.257, -0.38051, 0.67512, -0.29071, -0.38440, 3.14160
22.271, -0.38051, 0.67512, -0.29071, -0.38440, 3.14160
22.286, -0.38051, 0.67512, -0.29071, -0.38440, 3.14160
22.300, -0.38051, 0.67512, -0.29071, -0.38440, 3.14160
22.314, -0.38051, 0.67512, -0.29071, -0.38440, 3.14160
22.329, -0.38051, 0.67512, -0.29071, -0.38440, 3.14160
22.343, -0.38051, 0.67512, -0.29071, -0.38440, 3.14160
22.357, -0.38051, 0.67512, -0.29071, -0.38440, 3.14160
22.371, -0.38051, 0.67512, -0.29071, -0.38440, 3.14160
22.386, -0.38051, 0.67512, -0.29071, -0.38440, 3.14160
22.400, -0.38051, 0.67512, -0.29071, -0.38440, 3.14160
22.414, -0.38051, 0.67512, -0.29071, -0.38440, 3.14160
22.429, -0.38051, 0.67512, -0.29071, -0.38440, 3.14160
22.443, -0.38051, 0.67512, -0.29071, -0.38440, 3.14160
22.457, -0.38051, 0.67512, -0.29071, -0.38440, 3.14160
22.471, -0.38051, 0.67512, -0.29071, -0.38441, 3.14160
22.486, -0.38051, 0.67512, -0.29071, -0.38441, 3.14160
22.500, -0.38051, 0.67512, -0.29071, -0.38441, 3.14160
22.514, -0.38051, 0.67512, -0.29071, -0.38441, 3.14160
22.529, -0.38051, 0.67512, -0.29071, -0.38441, 3.14160
22.543, -0.38051, 0.67512, -0.29071, -0.38441, 3.14160
22.557, -0.38051, 0.67512, -0.29071, -0.38441, 3.14160
22.571, -0.38051, 0.67512, -0.29071, -0.38441, 3.14160
22.586, -0.38051, 0.67512, -0.29071, -0.38441, 3.14160
22.600, -0.38051, 0.67512, -0.29071, -0.38441, 3.14160
22.614, -0.38051, 0.67512, -0.29071, -0.38441, 3.14160
22.629, -0.38051, 0.67512, -0.29071, -0.38441, 3.14159
22.643, -0.38051, 0.67512, -0.29071, -0.38441, 3.14159
22.657, -0.38051, 0.67512, -0.29071, -0.38441, 3.14159
22.671, -0.38051, 0.67512, -0.29071, -0.38441, 3.14159
22.686, -0.38051, 0.67512, -0.29071, -0.38441, 3.14159
22.700, -0.38051, 0.67512, -0.29071, -0.38441, 3.14159
22.714, -0.38051, 0.67512, -0.29071, -0.38441, 3.14159
22.729, -0.38051, 0.67512, -0.29071, -0.38441, 3.14159
22.743, -0.38051, 0.67512, -0.29071, -0.38441, 3.14159
22.757, -0.38051, 0.67513, -0.29072, -0.38441, 3.14157
22.771, -0.38051, 0.67515, -0.29074, -0.38442, 3.14154
22.786, -0.38050, 0.67519, -0.29078, -0.38443, 3.14147
22.800, -0.38049, 0.67526, -0.29084, -0.38445, 3.14137
22.814, -0.38048, 0.67536, -0.29093, -0.38447, 3.14123
22.829, -0.38047, 0.67549, -0.29105, -0.38450, 3.14103
22.843, -0.38045, 0.67566, -0.29121, -0.38454, 3.14077
22.857, -0.38043, 0.67589, -0.29141, -0.38459, 3.14044
22.871, -0.38040, 0.67617, -0.29166, -0.38465, 3.14004
22.886, -0.38037, 0.67650, -0.29197, -0.38472, 3.13955
22.900, -0.38033, 0.67690, -0.29233, -0.38480, 3.13896
22.914, -0.38028, 0.67738, -0.29276, -0.38490, 3.13827
22.929, -0.38023, 0.67793, -0.29326, -0.38501, 3.13747
22.943, -0.38017, 0.67856, -0.29384, -0.38514, 3.13656
22.957, -0.38010, 0.67929, -0.29449, -0.38529, 3.13551
22.971, -0.38002, 0.68011, -0.29523, -0.38545, 3.13433
22.986, -0.37993, 0.68102, -0.29607, -0.38564, 3.13301
23.000, -0.37984, 0.68205, -0.29700, -0.38584, 3.13154
23.014, -0.37973, 0.68319, -0.29803, -0.38607, 3.12991
23.029, -0.37961, 0.68444, -0.29916, -0.38632, 3.12810
23.043, -0.37948, 0.68582, -0.30041, -0.38659, 3.12613
23.057, -0.37933, 0.68733, -0.30178, -0.38689, 3.12396
23.071, -0.37918, 0.68898, -0.30327, -0.38722, 3.12161
23.086, -0.37901, 0.69076, -0.30489, -0.38757, 3.11905
23.100, -0.37883, 0.69269, -0.30664, -0.38795, 3.11629
23.114, -0.37863, 0.69476, -0.30853, -0.38836, 3.11330
23.129, -0.37842, 0.69698, -0.31055, -0.38880, 3.11010
23.143, -0.37820, 0.69933, -0.31270, -0.38927, 3.10665
23.157, -0.37795, 0.70183, -0.31499, -0.38977, 3.10297
23.171, -0.37769, 0.70448, -0.31741, -0.39031, 3.09904
23.186, -0.37742, 0.70726, -0.31996, -0.39088, 3.09484
23.200, -0.37713, 0.71019, -0.32265, -0.39149, 3.09038
23.214, -0.37682, 0.71326, -0.32547, -0.39213, 3.08565
23.229, -0.37650, 0.71648, -0.32842, -0.39281, 3.08064
23.243, -0.37615, 0.71983, -0.33151, -0.39354, 3.07536
23.257, -0.37580, 0.72332, -0.33473, -0.39430, 3.06981
23.271, -0.37542, 0.72694, -0.33808, -0.39510, 3.06398
23.286, -0.37503, 0.73069, -0.34155, -0.39595, 3.05787
23.300, -0.37462, 0.73455, -0.34514, -0.39683, 3.05149
23.314, -0.37420, 0.73852, -0.34884, -0.39777, 3.04484
23.329, -0.37376, 0.74261, -0.35265, -0.39875, 3.03791
23.343, -0.37330, 0.74679, -0.35656, -0.39977, 3.03071
23.357, -0.37283, 0.75106, -0.36057, -0.40084, 3.02324
23.371, -0.37234, 0.75543, -0.36466, -0.40197, 3.01551
23.386, -0.37183, 0.75988, -0.36885, -0.40314, 3.00753
23.400, -0.37131, 0.76440, -0.37311, -0.40436, 2.99931
23.414, -0.37077, 0.76900, -0.37745, -0.40563, 2.99085
23.429, -0.37022, 0.77367, -0.38186, -0.40696, 2.98216
23.443, -0.36964, 0.77839, -0.38633, -0.40835, 2.97325
23.457, -0.36905, 0.78316, -0.39086, -0.40978, 2.96414
23.471, -0.36845, 0.78799, -0.39545, -0.41128, 2.95482
23.486, -0.36783, 0.79286, -0.40008, -0.41283, 2.94530
23.500, -0.36719, 0.79776, -0.40476, -0.41444, 2.93560
23.514, -0.36653, 0.80269, -0.40948, -0.41611, 2.92573
23.529, -0.36586, 0.80765, -0.41423, -0.41784, 2.91568
23.543, -0.36517, 0.81263, -0.41901, -0.41963, 2.90547
23.557, -0.36447, 0.81762, -0.42381, -0.42149, 2.89511
23.571, -0.36374, 0.82262, -0.42862, -0.42341, 2.88460
23.586, -0.36301, 0.82762, -0.43345, -0.42539, 2.87396
23.600, -0.36225, 0.83262, -0.43829, -0.42744, 2.86319
23.614, -0.36148, 0.83762, -0.44312, -0.42956, 2.85230
23.629, -0.36069, 0.84262, -0.44796, -0.43175, 2.84130
23.643, -0.35989, 0.84762, -0.45280, -0.43400, 2.83019
23.657, -0.35907, 0.85262, -0.45764, -0.43633, 2.81899
23.671, -0.35823, 0.85762, -0.46247, -0.43873, 2.80770
23.686, -0.35738, 0.86262, -0.46731, -0.44120, 2.79633
23.700, -0.35651, 0.86762, -0.47215, -0.44374, 2.78489
23.714, -0.35562, 0.87262, -0.47698, -0.44635, 2.77338
23.729, -0.35472, 0.87762, -0.48182, -0.44903, 2.76183
23.743, -0.35380, 0.88262, -0.48666, -0.45178, 2.75022
23.757, -0.35286, 0.88762, -0.49150, -0.45461, 2.73858
23.771, -0.35191, 0.89262, -0.49633, -0.45751, 2.72691
23.786, -0.35094, 0.89762, -0.50117, -0.46047, 2.71522
23.800, -0.34995, 0.90262, -0.50601, -0.46351, 2.70351
23.814, -0.34895, 0.90762, -0.51084, -0.46662, 2.69180
23.829, -0.34793, 0.91262, -0.51568, -0.46980, 2.68009
23.843, -0.34689, 0.91762, -0.52052, -0.47305, 2.66838
23.857, -0.34584, 0.92262, -0.52535, -0.47638, 2.65667
23.871, -0.34477, 0.92762, -0.53019, -0.47977, 2.64496
23.886, -0.34369, 0.93262, -0.53503, -0.48323, 2.63325
23.900, -0.34259, 0.93762, -0.53987, -0.48677, 2.62154
23.914, -0.34147, 0.94262, -0.54470, -0.49038, 2.60983
23.929, -0.34033, 0.94762, -0.54954, -0.49406, 2.59812
23.943, -0.33918, 0.95262, -0.55438, -0.49781, 2.58641
23.957, -0.33801, 0.95762, -0.55921, -0.50162, 2.57470
23.971, -0.33683, 0.96262, -0.56405, -0.50551, 2.56298
23.986, -0.33563, 0.96762, -0.56889, -0.50946, 2.55127
24.000, -0.33441, 0.97262, -0.57373, -0.51348, 2.53956
24.014, -0.33318, 0.97762, -0.57856, -0.51756, 2.52785
24.029, -0.33193, 0.98262, -0.58340, -0.52170, 2.51614
24.043, -0.33066, 0.98762, -0.58824, -0.52591, 2.50443
24.057, -0.32937, 0.99262, -0.59307, -0.53018, 2.49272
24.071, -0.32807, 0.99762, -0.59791, -0.53451, 2.48101
24.086, -0.32676, 1.00262, -0.60275, -0.53890, 2.46930
24.100, -0.32542, 1.00762, -0.60758, -0.54334, 2.45759
24.114, -0.32407, 1.01262, -0.61242, -0.54785, 2.44588
24.129, -0.32271, 1.01762, -0.61726, -0.55241, 2.43417
24.143, -0.32132, 1.02262, -0.62210, -0.55702, 2.42245
24.157, -0.31992, 1.02762, -0.62693, -0.56169, 2.41074
24.171, -0.31851, 1.03262, -0.63177, -0.56641, 2.39903
24.186, -0.31708, 1.03762, -0.63661, -0.57118, 2.38732
24.200, -0.31563, 1.04262, -0.64144, -0.57600, 2.37561
24.214, -0.31416, 1.04762, -0.64628, -0.58087, 2.36390
24.229, -0.31268, 1.05262, -0.65112, -0.58579, 2.35219
24.243, -0.31118, 1.05762, -0.65596, -0.59076, 2.34048
24.257, -0.30966, 1.06262, -0.66079, -0.59577, 2.32877
24.271, -0.30813, 1.06762, -0.66563, -0.60082, 2.31706
24.286, -0.30658, 1.07262, -0.67047, -0.60593, 2.30535
24.300, -0.30502, 1.07762, -0.67530, -0.61107, 2.29364
24.314, -0.30344, 1.08262, -0.68014, -0.61626, 2.28193
24.329, -0.30184, 1.08762, -0.68498, -0.62148, 2.27021
24.343, -0.30023, 1.09262, -0.68981, -0.62675, 2.25850
24.357, -0.29859, 1.09762, -0.69465, -0.63205, 2.24679
24.371, -0.29695, 1.10262, -0.69949, -0.63739, 2.23508
24.386, -0.29528, 1.10762, -0.70433, -0.64277, 2.22337
24.400, -0.29360, 1.11262, -0.70916, -0.64818, 2.21166
24.414, -0.29191, 1.11762, -0.71400, -0.65363, 2.19995
24.429, -0.29019, 1.12262, -0.71884, -0.65911, 2.18824
24.443, -0.28847, 1.12762, -0.72367, -0.66462, 2.17653
24.457, -0.28672, 1.13262, -0.72851, -0.67016, 2.16482
24.471, -0.28497, 1.13762, -0.73335, -0.67574, 2.15311
24.486, -0.28320, 1.14262, -0.73819, -0.68134, 2.14140
24.500, -0.28142, 1.14762, -0.74302, -0.68697, 2.12969
24.514, -0.27963, 1.15262, -0.74786, -0.69262, 2.11797
24.529, -0.27782, 1.15762, -0.75270, -0.69830, 2.10626
24.543, -0.27600, 1.16262, -0.75753, -0.70401, 2.09455
24.557, -0.27418, 1.16762, -0.76237, -0.70973, 2.08284
24.571, -0.27234, 1.17262, -0.76721, -0.71548, 2.07113
24.586, -0.27049, 1.17762, -0.77205, -0.72126, 2.05942
24.600, -0.26864, 1.18262, -0.77688, -0.72705, 2.04771
24.614, -0.26677, 1.18762, -0.78172, -0.73286, 2.03600
24.629, -0.26490, 1.19262, -0.78656, -0.73868, 2.02429
24.643, -0.26302, 1.19762, -0.79139, -0.74453, 2.01258
24.657, -0.26113, 1.20262, -0.79623, -0.75039, 2.00087
24.671, -0.25924, 1.20762, -0.80107, -0.75626, 1.98916
24.686, -0.25734, 1.21262, -0.80590, -0.76215, 1.97744
24.700, -0.25543, 1.21762, -0.81074, -0.76805, 1.96573
24.714, -0.25352, 1.22262, -0.81558, -0.77396, 1.95402
24.729, -0.25161, 1.22762, -0.82042, -0.77989, 1.94231
24.743, -0.24969, 1.23262, -0.82525, -0.78582, 1.93060
24.757, -0.24777, 1.23762, -0.83009, -0.79176, 1.91889
24.771, -0.24585, 1.24262, -0.83493, -0.79770, 1.90718
24.786, -0.24392, 1.24762, -0.83976, -0.80365, 1.89547
24.800, -0.24200, 1.25262, -0.84460, -0.80961, 1.88376
24.814, -0.24007, 1.25762, -0.84944, -0.81557, 1.87205
24.829, -0.23814, 1.26262, -0.85428, -0.82153, 1.86034
24.843, -0.23621, 1.26762, -0.85911, -0.82750, 1.84863
24.857, -0.23428, 1.27262, -0.86395, -0.83346, 1.83692
24.871, -0.23235, 1.27762, -0.86879, -0.83943, 1.82520
24.886, -0.23042, 1.28262, -0.87362, -0.84539, 1.81349
24.900, -0.22849, 1.28762, -0.87846, -0.85136, 1.80178
24.914, -0.22656, 1.29262, -0.88330, -0.85732, 1.79007
24.929, -0.22464, 1.29762, -0.88813, -0.86328, 1.77836
24.943, -0.22271, 1.30262, -0.89297, -0.86925, 1.76665
24.957, -0.22078, 1.30762, -0.89781, -0.87521, 1.75494
24.971, -0.21885, 1.31262, -0.90265, -0.88118, 1.74323
24.986, -0.21692, 1.31762, -0.90748, -0.88714, 1.73152
25.000, -0.21499, 1.32262, -0.91232, -0.89311, 1.71981
25.014, -0.21306, 1.32762, -0.91716, -0.89907, 1.70810
25.029, -0.21113, 1.33262, -0.92199, -0.90504, 1.69639
25.043, -0.20920, 1.33762, -0.92683, -0.91100, 1.68467
25.057, -0.20727, 1.34262, -0.93167, -0.91697, 1.67296
25.071, -0.20535, 1.34762, -0.93651, -0.92293, 1.66125
25.086, -0.20342, 1.35262, -0.94134, -0.92889, 1.64954
25.100, -0.20149, 1.35762, -0.94618, -0.93486, 1.63783
25.114, -0.19956, 1.36262, -0.95102, -0.94082, 1.62612
25.129, -0.19763, 1.36762, -0.95585, -0.94679, 1.61441
25.143, -0.19570, 1.37262, -0.96069, -0.95275, 1.60270
25.157, -0.19377, 1.37762, -0.96553, -0.95872, 1.59099
25.171, -0.19184, 1.38262, -0.97036, -0.96468, 1.57928
25.186, -0.18991, 1.38762, -0.97520, -0.97065, 1.56757
25.200, -0.18798, 1.39262, -0.98004, -0.97661, 1.55586
25.214, -0.18606, 1.39762, -0.98488, -0.98257, 1.54415
25.229, -0.18413, 1.40262, -0.98971, -0.98854, 1.53243
25.243, -0.18220, 1.40762, -0.99455, -0.99450, 1.52072
25.257, -0.18027, 1.41262, -0.99939, -1.00047, 1.50901
25.271, -0.17834, 1.41762, -1.00422, -1.00643, 1.49730
25.286, -0.17641, 1.42262, -1.00906, -1.01240, 1.48559
25.300, -0.17448, 1.42762, -1.01390, -1.01836, 1.47388
25.314, -0.17255, 1.43262, -1.01874, -1.02433, 1.46217
25.329, -0.17062, 1.43762, -1.02357, -1.03029, 1.45046
25.343, -0.16869, 1.44262, -1.02841, -1.03626, 1.43875
25.357, -0.16677, 1.44762, -1.03325, -1.04222, 1.42704
25.371, -0.16484, 1.45262, -1.03808, -1.04818, 1.41533
25.386, -0.16291, 1.45762, -1.04292, -1.05415, 1.40362
25.400, -0.16098, 1.46262, -1.04776, -1.06011, 1.39191
25.414, -0.15905, 1.46762, -1.05259, -1.06608, 1.38019
25.429, -0.15712, 1.47262, -1.05743, -1.07204, 1.36848
25.443, -0.15519, 1.47762, -1.06227, -1.07801, 1.35677
25.457, -0.15326, 1.48262, -1.06711, -1.08397, 1.34506
25.471, -0.15133, 1.48762, -1.07194, -1.08994, 1.33335
25.486, -0.14940, 1.49262, -1.07678, -1.09590, 1.32164
25.500, -0.14748, 1.49762, -1.08162, -1.10186, 1.30993
25.514, -0.14555, 1.50262, -1.08645, -1.10783, 1.29822
25.529, -0.14362, 1.50762, -1.09129, -1.11379, 1.28651
25.543, -0.14169, 1.51262, -1.09613, -1.11976, 1.27480
25.557, -0.13976, 1.51762, -1.10097, -1.12572, 1.26309
25.571, -0.13783, 1.52262, -1.10580, -1.13167, 1.25138
25.586, -0.13590, 1.52762, -1.11064, -1.13762, 1.23966
25.600, -0.13398, 1.53262, -1.11548, -1.14357, 1.22795
25.614, -0.13206, 1.53762, -1.12031, -1.14950, 1.21624
25.629, -0.13014, 1.54262, -1.12515, -1.15543, 1.20453
25.643, -0.12822, 1.54762, -1.12999, -1.16135, 1.19282
25.657, -0.12631, 1.55262, -1.13483, -1.16726, 1.18111
25.671, -0.12440, 1.55762, -1.13966, -1.17316, 1.16940
25.686, -0.12250, 1.56262, -1.14450, -1.17905, 1.15769
25.700, -0.12060, 1.56762, -1.14934, -1.18492, 1.14598
25.714, -0.11871, 1.57262, -1.15417, -1.19078, 1.13427
25.729, -0.11682, 1.57762, -1.15901, -1.19662, 1.12256
25.743, -0.11495, 1.58262, -1.16385, -1.20245, 1.11085
25.757, -0.11308, 1.58762, -1.16868, -1.20825, 1.09914
25.771, -0.11122, 1.59262, -1.17352, -1.21404, 1.08742
25.786, -0.10936, 1.59762, -1.17836, -1.21981, 1.07571
25.800, -0.10752, 1.60262, -1.18320, -1.22556, 1.06400
25.814, -0.10569, 1.60762, -1.18803, -1.23128, 1.05229
25.829, -0.10386, 1.61262, -1.19287, -1.23698, 1.04058
25.843, -0.10205, 1.61762, -1.19771, -1.24266, 1.02887
25.857, -0.10025, 1.62262, -1.20254, -1.24831, 1.01716
25.871, -0.09846, 1.62762, -1.20738, -1.25393, 1.00545
25.886, -0.09668, 1.63262, -1.21222, -1.25953, 0.99374
25.900, -0.09492, 1.63762, -1.21706, -1.26510, 0.98203
25.914, -0.09317, 1.64262, -1.22189, -1.27063, 0.97032
25.929, -0.09143, 1.64762, -1.22673, -1.27614, 0.95861
25.943, -0.08971, 1.65262, -1.23157, -1.28161, 0.94689
25.957, -0.08800, 1.65762, -1.23640, -1.28706, 0.93518
25.971, -0.08631, 1.66262, -1.24124, -1.29246, 0.92347
25.986, -0.08464, 1.66762, -1.24608, -1.29783, 0.91176
26.000, -0.08298, 1.67262, -1.25091, -1.30317, 0.90005
26.014, -0.08134, 1.67762, -1.25575, -1.30847, 0.88834
26.029, -0.07971, 1.68262, -1.26059, -1.31373, 0.87663
26.043, -0.07810, 1.68762, -1.26543, -1.31895, 0.86492
26.057, -0.07651, 1.69262, -1.27026, -1.32413, 0.85321
26.071, -0.07493, 1.69762, -1.27510, -1.32926, 0.84150
26.086, -0.07338, 1.70262, -1.27994, -1.33436, 0.82979
26.100, -0.07183, 1.70762, -1.28477, -1.33941, 0.81808
26.114, -0.07031, 1.71262, -1.28961, -1.34441, 0.80637
26.129, -0.06880, 1.71762, -1.29445, -1.34937, 0.79465
26.143, -0.06730, 1.72262, -1.29929, -1.35428, 0.78294
26.157, -0.06583, 1.72762, -1.30412, -1.35914, 0.77123
