kutzer/Scor6AxisToolbox/Scor6AxisToolbox Example SCRIPTS/ScorBotBoxData_sCurve/BSEPR_Position_60Hz.csv
Time_(s), Base_Joint_Position_(rad), Shoulder_Joint_Position_(rad), Elbow_Joint_Position_(rad), Wrist_Pitch_Joint_Position_(rad), Wrist_Roll_Joint_Position_(rad)
0.000, 0.00000, 2.09925, -1.65843, -1.54994, 0.00000
0.017, -0.00000, 2.09925, -1.65843, -1.54994, -0.00001
0.033, -0.00000, 2.09923, -1.65841, -1.54993, -0.00003
0.050, -0.00001, 2.09919, -1.65838, -1.54992, -0.00009
0.067, -0.00001, 2.09913, -1.65832, -1.54991, -0.00019
0.083, -0.00003, 2.09902, -1.65822, -1.54988, -0.00035
0.100, -0.00004, 2.09886, -1.65808, -1.54985, -0.00058
0.117, -0.00006, 2.09865, -1.65789, -1.54980, -0.00090
0.133, -0.00009, 2.09837, -1.65763, -1.54974, -0.00131
0.150, -0.00013, 2.09801, -1.65730, -1.54966, -0.00184
0.167, -0.00017, 2.09757, -1.65690, -1.54957, -0.00248
0.183, -0.00022, 2.09702, -1.65641, -1.54946, -0.00327
0.200, -0.00029, 2.09638, -1.65583, -1.54933, -0.00420
0.217, -0.00036, 2.09562, -1.65514, -1.54917, -0.00530
0.233, -0.00044, 2.09474, -1.65434, -1.54899, -0.00657
0.250, -0.00054, 2.09372, -1.65342, -1.54879, -0.00803
0.267, -0.00065, 2.09257, -1.65237, -1.54856, -0.00969
0.283, -0.00077, 2.09126, -1.65119, -1.54830, -0.01157
0.300, -0.00091, 2.08980, -1.64986, -1.54800, -0.01368
0.317, -0.00107, 2.08816, -1.64837, -1.54768, -0.01602
0.333, -0.00124, 2.08634, -1.64673, -1.54732, -0.01862
0.350, -0.00143, 2.08434, -1.64491, -1.54693, -0.02149
0.367, -0.00164, 2.08214, -1.64292, -1.54649, -0.02464
0.383, -0.00186, 2.07975, -1.64074, -1.54602, -0.02808
0.400, -0.00211, 2.07716, -1.63838, -1.54551, -0.03183
0.417, -0.00238, 2.07438, -1.63584, -1.54495, -0.03589
0.433, -0.00267, 2.07141, -1.63312, -1.54435, -0.04029
0.450, -0.00298, 2.06824, -1.63022, -1.54370, -0.04504
0.467, -0.00331, 2.06488, -1.62713, -1.54301, -0.05014
0.483, -0.00367, 2.06132, -1.62387, -1.54226, -0.05561
0.500, -0.00405, 2.05756, -1.62042, -1.54147, -0.06146
0.517, -0.00445, 2.05362, -1.61678, -1.54062, -0.06768
0.533, -0.00487, 2.04949, -1.61297, -1.53971, -0.07428
0.550, -0.00532, 2.04519, -1.60899, -1.53875, -0.08124
0.567, -0.00579, 2.04073, -1.60485, -1.53773, -0.08858
0.583, -0.00628, 2.03611, -1.60055, -1.53665, -0.09630
0.600, -0.00679, 2.03135, -1.59610, -1.53550, -0.10438
0.617, -0.00733, 2.02645, -1.59152, -1.53430, -0.11284
0.633, -0.00789, 2.02142, -1.58681, -1.53303, -0.12167
0.650, -0.00847, 2.01628, -1.58198, -1.53169, -0.13084
0.667, -0.00908, 2.01103, -1.57703, -1.53028, -0.14034
0.683, -0.00970, 2.00568, -1.57198, -1.52880, -0.15017
0.700, -0.01035, 2.00024, -1.56684, -1.52725, -0.16031
0.717, -0.01102, 1.99471, -1.56161, -1.52563, -0.17075
0.733, -0.01172, 1.98912, -1.55630, -1.52393, -0.18147
0.750, -0.01243, 1.98347, -1.55092, -1.52215, -0.19246
0.767, -0.01317, 1.97776, -1.54547, -1.52029, -0.20371
0.783, -0.01393, 1.97201, -1.53998, -1.51835, -0.21520
0.800, -0.01472, 1.96622, -1.53444, -1.51633, -0.22692
0.817, -0.01553, 1.96041, -1.52886, -1.51423, -0.23887
0.833, -0.01635, 1.95458, -1.52325, -1.51204, -0.25102
0.850, -0.01721, 1.94875, -1.51762, -1.50976, -0.26336
0.867, -0.01808, 1.94292, -1.51198, -1.50739, -0.27588
0.883, -0.01898, 1.93708, -1.50634, -1.50493, -0.28856
0.900, -0.01990, 1.93125, -1.50069, -1.50238, -0.30140
0.917, -0.02084, 1.92542, -1.49505, -1.49973, -0.31438
0.933, -0.02180, 1.91958, -1.48941, -1.49699, -0.32749
0.950, -0.02279, 1.91375, -1.48377, -1.49415, -0.34071
0.967, -0.02380, 1.90792, -1.47812, -1.49121, -0.35403
0.983, -0.02483, 1.90208, -1.47248, -1.48818, -0.36744
1.000, -0.02588, 1.89625, -1.46684, -1.48505, -0.38092
1.017, -0.02696, 1.89042, -1.46119, -1.48182, -0.39447
1.033, -0.02806, 1.88458, -1.45555, -1.47849, -0.40806
1.050, -0.02918, 1.87875, -1.44991, -1.47507, -0.42169
1.067, -0.03033, 1.87292, -1.44426, -1.47155, -0.43534
1.083, -0.03149, 1.86708, -1.43862, -1.46794, -0.44901
1.100, -0.03268, 1.86125, -1.43298, -1.46423, -0.46267
1.117, -0.03389, 1.85542, -1.42733, -1.46042, -0.47633
1.133, -0.03513, 1.84958, -1.42169, -1.45651, -0.48999
1.150, -0.03639, 1.84375, -1.41605, -1.45251, -0.50366
1.167, -0.03767, 1.83792, -1.41040, -1.44841, -0.51732
1.183, -0.03897, 1.83208, -1.40476, -1.44421, -0.53098
1.200, -0.04029, 1.82625, -1.39912, -1.43992, -0.54464
1.217, -0.04164, 1.82042, -1.39347, -1.43553, -0.55831
1.233, -0.04301, 1.81458, -1.38783, -1.43105, -0.57197
1.250, -0.04440, 1.80875, -1.38219, -1.42648, -0.58563
1.267, -0.04581, 1.80292, -1.37654, -1.42182, -0.59929
1.283, -0.04725, 1.79708, -1.37090, -1.41706, -0.61296
1.300, -0.04871, 1.79125, -1.36526, -1.41223, -0.62662
1.317, -0.05019, 1.78542, -1.35961, -1.40731, -0.64028
1.333, -0.05170, 1.77958, -1.35397, -1.40230, -0.65394
1.350, -0.05322, 1.77375, -1.34833, -1.39721, -0.66761
1.367, -0.05477, 1.76792, -1.34268, -1.39205, -0.68127
1.383, -0.05635, 1.76208, -1.33704, -1.38680, -0.69493
1.400, -0.05794, 1.75625, -1.33140, -1.38148, -0.70860
1.417, -0.05956, 1.75042, -1.32575, -1.37609, -0.72226
1.433, -0.06120, 1.74458, -1.32011, -1.37062, -0.73592
1.450, -0.06286, 1.73875, -1.31447, -1.36509, -0.74958
1.467, -0.06454, 1.73292, -1.30882, -1.35948, -0.76325
1.483, -0.06625, 1.72708, -1.30318, -1.35381, -0.77691
1.500, -0.06798, 1.72125, -1.29754, -1.34807, -0.79057
1.517, -0.06973, 1.71542, -1.29189, -1.34226, -0.80423
1.533, -0.07151, 1.70958, -1.28625, -1.33640, -0.81790
1.550, -0.07330, 1.70375, -1.28061, -1.33047, -0.83156
1.567, -0.07512, 1.69792, -1.27496, -1.32448, -0.84522
1.583, -0.07697, 1.69208, -1.26932, -1.31844, -0.85888
1.600, -0.07883, 1.68625, -1.26368, -1.31234, -0.87255
1.617, -0.08072, 1.68042, -1.25804, -1.30619, -0.88621
1.633, -0.08263, 1.67458, -1.25239, -1.29999, -0.89987
1.650, -0.08456, 1.66875, -1.24675, -1.29374, -0.91353
1.667, -0.08651, 1.66292, -1.24111, -1.28743, -0.92720
1.683, -0.08849, 1.65708, -1.23546, -1.28108, -0.94086
1.700, -0.09049, 1.65125, -1.22982, -1.27469, -0.95452
1.717, -0.09251, 1.64542, -1.22418, -1.26825, -0.96818
1.733, -0.09454, 1.63958, -1.21853, -1.26177, -0.98185
1.750, -0.09660, 1.63375, -1.21289, -1.25526, -0.99551
1.767, -0.09867, 1.62792, -1.20725, -1.24870, -1.00917
1.783, -0.10076, 1.62208, -1.20160, -1.24211, -1.02283
1.800, -0.10287, 1.61625, -1.19596, -1.23548, -1.03650
1.817, -0.10499, 1.61042, -1.19032, -1.22882, -1.05016
1.833, -0.10713, 1.60458, -1.18467, -1.22213, -1.06382
1.850, -0.10928, 1.59875, -1.17903, -1.21541, -1.07749
1.867, -0.11144, 1.59292, -1.17339, -1.20866, -1.09115
1.883, -0.11361, 1.58708, -1.16774, -1.20188, -1.10481
1.900, -0.11580, 1.58125, -1.16210, -1.19508, -1.11847
1.917, -0.11799, 1.57542, -1.15646, -1.18826, -1.13214
1.933, -0.12020, 1.56958, -1.15081, -1.18142, -1.14580
1.950, -0.12241, 1.56375, -1.14517, -1.17455, -1.15946
1.967, -0.12463, 1.55792, -1.13953, -1.16768, -1.17312
1.983, -0.12686, 1.55208, -1.13388, -1.16078, -1.18679
2.000, -0.12909, 1.54625, -1.12824, -1.15387, -1.20045
2.017, -0.13133, 1.54042, -1.12260, -1.14695, -1.21411
2.033, -0.13357, 1.53458, -1.11695, -1.14002, -1.22777
2.050, -0.13582, 1.52875, -1.11131, -1.13308, -1.24144
2.067, -0.13806, 1.52292, -1.10567, -1.12613, -1.25510
2.083, -0.14031, 1.51708, -1.10002, -1.11918, -1.26876
2.100, -0.14256, 1.51125, -1.09438, -1.11222, -1.28242
2.117, -0.14481, 1.50542, -1.08874, -1.10526, -1.29609
2.133, -0.14707, 1.49958, -1.08309, -1.09830, -1.30975
2.150, -0.14932, 1.49375, -1.07745, -1.09134, -1.32341
2.167, -0.15157, 1.48792, -1.07181, -1.08439, -1.33707
2.183, -0.15382, 1.48208, -1.06616, -1.07743, -1.35074
2.200, -0.15607, 1.47625, -1.06052, -1.07047, -1.36440
2.217, -0.15832, 1.47042, -1.05488, -1.06351, -1.37806
2.233, -0.16057, 1.46458, -1.04924, -1.05655, -1.39173
2.250, -0.16282, 1.45875, -1.04359, -1.04959, -1.40539
2.267, -0.16507, 1.45292, -1.03795, -1.04263, -1.41905
2.283, -0.16732, 1.44708, -1.03231, -1.03568, -1.43271
2.300, -0.16957, 1.44125, -1.02666, -1.02872, -1.44638
2.317, -0.17182, 1.43542, -1.02102, -1.02176, -1.46004
2.333, -0.17407, 1.42958, -1.01538, -1.01480, -1.47370
2.350, -0.17632, 1.42375, -1.00973, -1.00784, -1.48736
2.367, -0.17857, 1.41792, -1.00409, -1.00088, -1.50103
2.383, -0.18082, 1.41208, -0.99845, -0.99392, -1.51469
2.400, -0.18307, 1.40625, -0.99280, -0.98697, -1.52835
2.417, -0.18532, 1.40042, -0.98716, -0.98001, -1.54201
2.433, -0.18757, 1.39458, -0.98152, -0.97305, -1.55568
2.450, -0.18982, 1.38875, -0.97587, -0.96609, -1.56934
2.467, -0.19208, 1.38292, -0.97023, -0.95913, -1.58300
2.483, -0.19433, 1.37708, -0.96459, -0.95217, -1.59666
2.500, -0.19658, 1.37125, -0.95894, -0.94521, -1.61033
2.517, -0.19883, 1.36542, -0.95330, -0.93826, -1.62399
2.533, -0.20108, 1.35958, -0.94766, -0.93130, -1.63765
2.550, -0.20333, 1.35375, -0.94201, -0.92434, -1.65131
2.567, -0.20558, 1.34792, -0.93637, -0.91738, -1.66498
2.583, -0.20783, 1.34208, -0.93073, -0.91042, -1.67864
2.600, -0.21008, 1.33625, -0.92508, -0.90346, -1.69230
2.617, -0.21233, 1.33042, -0.91944, -0.89650, -1.70596
2.633, -0.21458, 1.32458, -0.91380, -0.88955, -1.71963
2.650, -0.21683, 1.31875, -0.90815, -0.88259, -1.73329
2.667, -0.21908, 1.31292, -0.90251, -0.87563, -1.74695
2.683, -0.22133, 1.30708, -0.89687, -0.86867, -1.76062
2.700, -0.22358, 1.30125, -0.89122, -0.86171, -1.77428
2.717, -0.22583, 1.29542, -0.88558, -0.85475, -1.78794
2.733, -0.22808, 1.28958, -0.87994, -0.84779, -1.80160
2.750, -0.23033, 1.28375, -0.87429, -0.84084, -1.81527
2.767, -0.23258, 1.27792, -0.86865, -0.83388, -1.82893
2.783, -0.23484, 1.27208, -0.86301, -0.82692, -1.84259
2.800, -0.23709, 1.26625, -0.85736, -0.81996, -1.85625
2.817, -0.23934, 1.26042, -0.85172, -0.81300, -1.86992
2.833, -0.24159, 1.25458, -0.84608, -0.80605, -1.88358
2.850, -0.24383, 1.24875, -0.84044, -0.79911, -1.89724
2.867, -0.24608, 1.24292, -0.83479, -0.79217, -1.91090
2.883, -0.24832, 1.23708, -0.82915, -0.78524, -1.92457
2.900, -0.25056, 1.23125, -0.82351, -0.77832, -1.93823
2.917, -0.25280, 1.22542, -0.81786, -0.77142, -1.95189
2.933, -0.25503, 1.21958, -0.81222, -0.76453, -1.96555
2.950, -0.25725, 1.21375, -0.80658, -0.75765, -1.97922
2.967, -0.25947, 1.20792, -0.80093, -0.75080, -1.99288
2.983, -0.26167, 1.20208, -0.79529, -0.74396, -2.00654
3.000, -0.26387, 1.19625, -0.78965, -0.73715, -2.02020
3.017, -0.26606, 1.19042, -0.78400, -0.73035, -2.03387
3.033, -0.26824, 1.18458, -0.77836, -0.72359, -2.04753
3.050, -0.27041, 1.17875, -0.77272, -0.71685, -2.06119
3.067, -0.27256, 1.17292, -0.76707, -0.71013, -2.07485
3.083, -0.27470, 1.16708, -0.76143, -0.70345, -2.08852
3.100, -0.27683, 1.16125, -0.75579, -0.69680, -2.10218
3.117, -0.27894, 1.15542, -0.75014, -0.69018, -2.11584
3.133, -0.28104, 1.14958, -0.74450, -0.68360, -2.12951
3.150, -0.28312, 1.14375, -0.73886, -0.67706, -2.14317
3.167, -0.28518, 1.13792, -0.73321, -0.67055, -2.15683
3.183, -0.28723, 1.13208, -0.72757, -0.66409, -2.17049
3.200, -0.28925, 1.12625, -0.72193, -0.65766, -2.18416
3.217, -0.29126, 1.12042, -0.71628, -0.65128, -2.19782
3.233, -0.29324, 1.11458, -0.71064, -0.64495, -2.21148
3.250, -0.29521, 1.10875, -0.70500, -0.63866, -2.22514
3.267, -0.29715, 1.10292, -0.69935, -0.63242, -2.23881
3.283, -0.29906, 1.09708, -0.69371, -0.62623, -2.25247
3.300, -0.30096, 1.09125, -0.68807, -0.62010, -2.26613
3.317, -0.30283, 1.08542, -0.68242, -0.61402, -2.27979
3.333, -0.30468, 1.07958, -0.67678, -0.60799, -2.29346
3.350, -0.30651, 1.07375, -0.67114, -0.60203, -2.30712
3.367, -0.30832, 1.06792, -0.66549, -0.59612, -2.32078
3.383, -0.31010, 1.06208, -0.65985, -0.59027, -2.33444
3.400, -0.31186, 1.05625, -0.65421, -0.58449, -2.34811
3.417, -0.31360, 1.05042, -0.64856, -0.57877, -2.36177
3.433, -0.31532, 1.04458, -0.64292, -0.57311, -2.37543
3.450, -0.31701, 1.03875, -0.63728, -0.56753, -2.38909
3.467, -0.31868, 1.03292, -0.63164, -0.56201, -2.40276
3.483, -0.32033, 1.02708, -0.62599, -0.55657, -2.41642
3.500, -0.32195, 1.02125, -0.62035, -0.55120, -2.43008
3.517, -0.32356, 1.01542, -0.61471, -0.54590, -2.44374
3.533, -0.32514, 1.00958, -0.60906, -0.54068, -2.45741
3.550, -0.32670, 1.00375, -0.60342, -0.53554, -2.47107
3.567, -0.32823, 0.99792, -0.59778, -0.53048, -2.48473
3.583, -0.32974, 0.99208, -0.59213, -0.52550, -2.49840
3.600, -0.33124, 0.98625, -0.58649, -0.52061, -2.51206
3.617, -0.33270, 0.98042, -0.58085, -0.51579, -2.52572
3.633, -0.33415, 0.97458, -0.57520, -0.51107, -2.53938
3.650, -0.33557, 0.96875, -0.56956, -0.50644, -2.55305
3.667, -0.33697, 0.96292, -0.56392, -0.50189, -2.56671
3.683, -0.33835, 0.95708, -0.55827, -0.49744, -2.58037
3.700, -0.33971, 0.95125, -0.55263, -0.49308, -2.59403
3.717, -0.34104, 0.94542, -0.54699, -0.48882, -2.60770
3.733, -0.34235, 0.93958, -0.54134, -0.48465, -2.62136
3.750, -0.34364, 0.93375, -0.53570, -0.48058, -2.63502
3.767, -0.34490, 0.92792, -0.53006, -0.47661, -2.64868
3.783, -0.34615, 0.92208, -0.52441, -0.47273, -2.66235
3.800, -0.34737, 0.91625, -0.51877, -0.46896, -2.67601
3.817, -0.34856, 0.91042, -0.51313, -0.46527, -2.68967
3.833, -0.34974, 0.90458, -0.50748, -0.46169, -2.70333
3.850, -0.35089, 0.89875, -0.50184, -0.45820, -2.71699
3.867, -0.35202, 0.89292, -0.49620, -0.45481, -2.73063
3.883, -0.35313, 0.88708, -0.49055, -0.45151, -2.74423
3.900, -0.35422, 0.88125, -0.48491, -0.44832, -2.75779
3.917, -0.35528, 0.87542, -0.47927, -0.44522, -2.77128
3.933, -0.35632, 0.86958, -0.47362, -0.44221, -2.78471
3.950, -0.35734, 0.86375, -0.46798, -0.43930, -2.79805
3.967, -0.35833, 0.85792, -0.46234, -0.43649, -2.81129
3.983, -0.35931, 0.85208, -0.45669, -0.43378, -2.82443
4.000, -0.36026, 0.84625, -0.45105, -0.43116, -2.83743
4.017, -0.36118, 0.84042, -0.44541, -0.42864, -2.85030
4.033, -0.36209, 0.83458, -0.43976, -0.42621, -2.86302
4.050, -0.36297, 0.82875, -0.43412, -0.42387, -2.87558
4.067, -0.36383, 0.82292, -0.42849, -0.42162, -2.88796
4.083, -0.36467, 0.81709, -0.42287, -0.41945, -2.90015
4.100, -0.36549, 0.81127, -0.41728, -0.41738, -2.91214
4.117, -0.36628, 0.80547, -0.41172, -0.41538, -2.92391
4.133, -0.36705, 0.79969, -0.40620, -0.41347, -2.93545
4.150, -0.36780, 0.79396, -0.40073, -0.41164, -2.94675
4.167, -0.36852, 0.78828, -0.39532, -0.40988, -2.95780
4.183, -0.36922, 0.78265, -0.38997, -0.40821, -2.96858
4.200, -0.36990, 0.77709, -0.38471, -0.40661, -2.97908
4.217, -0.37056, 0.77160, -0.37952, -0.40508, -2.98928
4.233, -0.37120, 0.76620, -0.37443, -0.40362, -2.99918
4.250, -0.37181, 0.76090, -0.36943, -0.40224, -3.00875
4.267, -0.37240, 0.75569, -0.36455, -0.40092, -3.01800
4.283, -0.37297, 0.75060, -0.35978, -0.39967, -3.02689
4.300, -0.37351, 0.74563, -0.35514, -0.39848, -3.03543
4.317, -0.37404, 0.74079, -0.35063, -0.39736, -3.04360
4.333, -0.37454, 0.73610, -0.34626, -0.39630, -3.05139
4.350, -0.37501, 0.73155, -0.34204, -0.39530, -3.05881
4.367, -0.37547, 0.72716, -0.33798, -0.39435, -3.06586
4.383, -0.37590, 0.72294, -0.33409, -0.39346, -3.07253
4.400, -0.37631, 0.71890, -0.33038, -0.39263, -3.07883
4.417, -0.37670, 0.71504, -0.32684, -0.39185, -3.08476
4.433, -0.37706, 0.71138, -0.32349, -0.39112, -3.09031
4.450, -0.37741, 0.70791, -0.32032, -0.39044, -3.09549
4.467, -0.37773, 0.70464, -0.31734, -0.38981, -3.10031
4.483, -0.37802, 0.70156, -0.31453, -0.38922, -3.10479
4.500, -0.37830, 0.69867, -0.31191, -0.38868, -3.10892
4.517, -0.37855, 0.69598, -0.30946, -0.38818, -3.11274
4.533, -0.37879, 0.69349, -0.30720, -0.38772, -3.11624
4.550, -0.37900, 0.69118, -0.30513, -0.38730, -3.11945
4.567, -0.37920, 0.68908, -0.30323, -0.38691, -3.12238
4.583, -0.37938, 0.68716, -0.30151, -0.38657, -3.12503
4.600, -0.37954, 0.68543, -0.29995, -0.38625, -3.12743
4.617, -0.37968, 0.68387, -0.29855, -0.38597, -3.12959
4.633, -0.37981, 0.68248, -0.29730, -0.38572, -3.13151
4.650, -0.37993, 0.68125, -0.29619, -0.38550, -3.13322
4.667, -0.38003, 0.68016, -0.29521, -0.38530, -3.13472
4.683, -0.38012, 0.67921, -0.29436, -0.38513, -3.13604
4.700, -0.38020, 0.67838, -0.29362, -0.38498, -3.13717
4.717, -0.38026, 0.67768, -0.29299, -0.38485, -3.13814
4.733, -0.38032, 0.67708, -0.29245, -0.38475, -3.13895
4.750, -0.38037, 0.67659, -0.29201, -0.38466, -3.13963
4.767, -0.38041, 0.67618, -0.29165, -0.38459, -3.14018
4.783, -0.38044, 0.67586, -0.29136, -0.38453, -3.14061
4.800, -0.38046, 0.67561, -0.29114, -0.38449, -3.14095
4.817, -0.38048, 0.67543, -0.29098, -0.38446, -3.14120
4.833, -0.38049, 0.67529, -0.29086, -0.38444, -3.14137
4.850, -0.38050, 0.67521, -0.29078, -0.38442, -3.14148
4.867, -0.38051, 0.67515, -0.29074, -0.38441, -3.14155
4.883, -0.38051, 0.67513, -0.29072, -0.38441, -3.14158
4.900, -0.38051, 0.67512, -0.29071, -0.38441, -3.14159
4.917, -0.38051, 0.67512, -0.29071, -0.38441, -3.14159
4.933, -0.38051, 0.67512, -0.29071, -0.38441, -3.14159
4.950, -0.38051, 0.67512, -0.29071, -0.38441, -3.14159
4.967, -0.38051, 0.67512, -0.29071, -0.38441, -3.14159
4.983, -0.38051, 0.67512, -0.29071, -0.38441, -3.14159
5.000, -0.38051, 0.67512, -0.29071, -0.38441, -3.14159
5.017, -0.38051, 0.67512, -0.29071, -0.38441, -3.14159
5.033, -0.38051, 0.67512, -0.29071, -0.38441, -3.14159
5.050, -0.38051, 0.67512, -0.29071, -0.38441, -3.14159
5.067, -0.38051, 0.67512, -0.29071, -0.38441, -3.14159
5.083, -0.38051, 0.67512, -0.29071, -0.38441, -3.14159
5.100, -0.38051, 0.67512, -0.29071, -0.38441, -3.14159
5.117, -0.38051, 0.67512, -0.29071, -0.38441, -3.14159
5.133, -0.38051, 0.67512, -0.29071, -0.38441, -3.14159
5.150, -0.38051, 0.67512, -0.29071, -0.38441, -3.14159
5.167, -0.38051, 0.67512, -0.29071, -0.38441, -3.14159
5.183, -0.38051, 0.67512, -0.29071, -0.38441, -3.14159
5.200, -0.38051, 0.67512, -0.29071, -0.38441, -3.14159
5.217, -0.38051, 0.67512, -0.29071, -0.38441, -3.14159
5.233, -0.38051, 0.67512, -0.29071, -0.38441, -3.14159
5.250, -0.38051, 0.67512, -0.29071, -0.38441, -3.14159
5.267, -0.38051, 0.67512, -0.29071, -0.38441, -3.14159
5.283, -0.38051, 0.67512, -0.29071, -0.38441, -3.14159
5.300, -0.38051, 0.67512, -0.29071, -0.38441, -3.14159
5.317, -0.38051, 0.67512, -0.29071, -0.38441, -3.14159
5.333, -0.38051, 0.67512, -0.29071, -0.38441, -3.14159
5.350, -0.38051, 0.67512, -0.29071, -0.38441, -3.14159
5.367, -0.38051, 0.67512, -0.29071, -0.38441, -3.14159
5.383, -0.38051, 0.67512, -0.29071, -0.38441, -3.14159
5.400, -0.38051, 0.67512, -0.29071, -0.38441, -3.14159
5.417, -0.38051, 0.67512, -0.29071, -0.38441, -3.14159
5.433, -0.38051, 0.67512, -0.29071, -0.38441, -3.14159
5.450, -0.38051, 0.67512, -0.29071, -0.38441, -3.14159
5.467, -0.38051, 0.67512, -0.29071, -0.38441, -3.14159
5.483, -0.38051, 0.67512, -0.29071, -0.38441, -3.14159
5.500, -0.38051, 0.67512, -0.29071, -0.38441, -3.14159
5.517, -0.38051, 0.67512, -0.29071, -0.38441, -3.14159
5.533, -0.38051, 0.67512, -0.29071, -0.38441, -3.14159
5.550, -0.38051, 0.67512, -0.29071, -0.38441, -3.14159
5.567, -0.38051, 0.67512, -0.29071, -0.38441, -3.14159
5.583, -0.38051, 0.67512, -0.29071, -0.38441, -3.14160
5.600, -0.38051, 0.67512, -0.29071, -0.38441, -3.14160
5.617, -0.38051, 0.67512, -0.29071, -0.38441, -3.14160
5.633, -0.38051, 0.67512, -0.29071, -0.38441, -3.14160
5.650, -0.38051, 0.67512, -0.29071, -0.38441, -3.14160
5.667, -0.38051, 0.67512, -0.29071, -0.38441, -3.14160
5.683, -0.38051, 0.67512, -0.29071, -0.38441, -3.14160
5.700, -0.38051, 0.67512, -0.29071, -0.38441, -3.14160
5.717, -0.38051, 0.67512, -0.29071, -0.38441, -3.14160
5.733, -0.38051, 0.67512, -0.29071, -0.38441, -3.14159
5.750, -0.38051, 0.67512, -0.29071, -0.38441, -3.14159
5.767, -0.38051, 0.67512, -0.29071, -0.38441, -3.14159
5.783, -0.38051, 0.67512, -0.29071, -0.38441, -3.14159
5.800, -0.38051, 0.67512, -0.29071, -0.38441, -3.14159
5.817, -0.38051, 0.67512, -0.29071, -0.38441, -3.14159
5.833, -0.38051, 0.67512, -0.29071, -0.38441, -3.14159
5.850, -0.38051, 0.67512, -0.29071, -0.38441, -3.14159
5.867, -0.38051, 0.67512, -0.29071, -0.38441, -3.14159
5.883, -0.38051, 0.67512, -0.29071, -0.38441, -3.14159
5.900, -0.38051, 0.67512, -0.29071, -0.38441, -3.14159
5.917, -0.38051, 0.67512, -0.29071, -0.38441, -3.14159
5.933, -0.38050, 0.67512, -0.29071, -0.38441, -3.14158
5.950, -0.38048, 0.67512, -0.29071, -0.38441, -3.14156
5.967, -0.38043, 0.67512, -0.29071, -0.38441, -3.14151
5.983, -0.38035, 0.67512, -0.29071, -0.38441, -3.14143
6.000, -0.38023, 0.67512, -0.29071, -0.38441, -3.14130
6.017, -0.38005, 0.67512, -0.29071, -0.38441, -3.14113
6.033, -0.37981, 0.67512, -0.29071, -0.38441, -3.14090
6.050, -0.37950, 0.67512, -0.29071, -0.38441, -3.14061
6.067, -0.37910, 0.67512, -0.29071, -0.38441, -3.14024
6.083, -0.37862, 0.67512, -0.29071, -0.38441, -3.13979
6.100, -0.37804, 0.67512, -0.29071, -0.38441, -3.13925
6.117, -0.37735, 0.67512, -0.29071, -0.38441, -3.13861
6.133, -0.37655, 0.67512, -0.29071, -0.38441, -3.13787
6.150, -0.37564, 0.67512, -0.29071, -0.38441, -3.13701
6.167, -0.37462, 0.67512, -0.29071, -0.38441, -3.13602
6.183, -0.37348, 0.67512, -0.29071, -0.38441, -3.13490
6.200, -0.37224, 0.67512, -0.29071, -0.38441, -3.13365
6.217, -0.37088, 0.67512, -0.29071, -0.38441, -3.13224
6.233, -0.36942, 0.67512, -0.29071, -0.38441, -3.13068
6.250, -0.36784, 0.67512, -0.29071, -0.38441, -3.12895
6.267, -0.36615, 0.67512, -0.29071, -0.38441, -3.12705
6.283, -0.36435, 0.67512, -0.29071, -0.38441, -3.12497
6.300, -0.36244, 0.67512, -0.29071, -0.38441, -3.12270
6.317, -0.36042, 0.67512, -0.29071, -0.38441, -3.12023
6.333, -0.35828, 0.67512, -0.29071, -0.38441, -3.11756
6.350, -0.35604, 0.67512, -0.29071, -0.38441, -3.11467
6.367, -0.35368, 0.67512, -0.29071, -0.38441, -3.11156
6.383, -0.35122, 0.67512, -0.29071, -0.38441, -3.10821
6.400, -0.34864, 0.67512, -0.29071, -0.38441, -3.10463
6.417, -0.34595, 0.67512, -0.29071, -0.38441, -3.10080
6.433, -0.34315, 0.67512, -0.29071, -0.38441, -3.09671
6.450, -0.34024, 0.67512, -0.29071, -0.38441, -3.09236
6.467, -0.33722, 0.67512, -0.29071, -0.38441, -3.08774
6.483, -0.33408, 0.67512, -0.29071, -0.38441, -3.08284
6.500, -0.33084, 0.67512, -0.29071, -0.38441, -3.07767
6.517, -0.32748, 0.67512, -0.29071, -0.38441, -3.07222
6.533, -0.32402, 0.67512, -0.29071, -0.38441, -3.06650
6.550, -0.32044, 0.67512, -0.29071, -0.38441, -3.06050
6.567, -0.31675, 0.67512, -0.29071, -0.38441, -3.05422
6.583, -0.31295, 0.67512, -0.29071, -0.38441, -3.04767
6.600, -0.30904, 0.67512, -0.29071, -0.38441, -3.04085
6.617, -0.30502, 0.67512, -0.29071, -0.38441, -3.03375
6.633, -0.30088, 0.67512, -0.29071, -0.38441, -3.02637
6.650, -0.29664, 0.67512, -0.29071, -0.38441, -3.01874
6.667, -0.29228, 0.67512, -0.29071, -0.38441, -3.01084
6.683, -0.28783, 0.67512, -0.29071, -0.38441, -3.00270
6.700, -0.28327, 0.67512, -0.29071, -0.38441, -2.99432
6.717, -0.27863, 0.67512, -0.29071, -0.38441, -2.98571
6.733, -0.27391, 0.67512, -0.29071, -0.38441, -2.97687
6.750, -0.26913, 0.67512, -0.29071, -0.38441, -2.96782
6.767, -0.26428, 0.67512, -0.29071, -0.38441, -2.95856
6.783, -0.25939, 0.67512, -0.29071, -0.38441, -2.94911
6.800, -0.25445, 0.67512, -0.29071, -0.38441, -2.93946
6.817, -0.24949, 0.67512, -0.29071, -0.38441, -2.92963
6.833, -0.24451, 0.67512, -0.29071, -0.38441, -2.91963
6.850, -0.23951, 0.67512, -0.29071, -0.38441, -2.90947
6.867, -0.23451, 0.67512, -0.29071, -0.38441, -2.89914
6.883, -0.22951, 0.67512, -0.29071, -0.38441, -2.88867
6.900, -0.22451, 0.67512, -0.29071, -0.38441, -2.87806
6.917, -0.21951, 0.67512, -0.29071, -0.38441, -2.86732
6.933, -0.21451, 0.67512, -0.29071, -0.38441, -2.85645
6.950, -0.20951, 0.67512, -0.29071, -0.38441, -2.84547
6.967, -0.20451, 0.67512, -0.29071, -0.38441, -2.83438
6.983, -0.19951, 0.67512, -0.29071, -0.38441, -2.82319
7.000, -0.19451, 0.67512, -0.29071, -0.38441, -2.81191
7.017, -0.18951, 0.67512, -0.29071, -0.38441, -2.80054
7.033, -0.18451, 0.67512, -0.29071, -0.38441, -2.78911
7.050, -0.17951, 0.67512, -0.29071, -0.38441, -2.77760
7.067, -0.17451, 0.67512, -0.29071, -0.38441, -2.76604
7.083, -0.16951, 0.67512, -0.29071, -0.38441, -2.75443
7.100, -0.16451, 0.67512, -0.29071, -0.38441, -2.74278
7.117, -0.15951, 0.67512, -0.29071, -0.38441, -2.73110
7.133, -0.15451, 0.67512, -0.29071, -0.38441, -2.71939
7.150, -0.14951, 0.67512, -0.29071, -0.38441, -2.70766
7.167, -0.14451, 0.67512, -0.29071, -0.38441, -2.69593
7.183, -0.13951, 0.67512, -0.29071, -0.38441, -2.68420
7.200, -0.13451, 0.67512, -0.29071, -0.38441, -2.67246
7.217, -0.12951, 0.67512, -0.29071, -0.38441, -2.66073
7.233, -0.12451, 0.67512, -0.29071, -0.38441, -2.64900
7.250, -0.11951, 0.67512, -0.29071, -0.38441, -2.63726
7.267, -0.11451, 0.67512, -0.29071, -0.38441, -2.62553
7.283, -0.10951, 0.67512, -0.29071, -0.38441, -2.61379
7.300, -0.10451, 0.67512, -0.29071, -0.38441, -2.60206
7.317, -0.09951, 0.67512, -0.29071, -0.38441, -2.59033
7.333, -0.09451, 0.67512, -0.29071, -0.38441, -2.57859
7.350, -0.08951, 0.67512, -0.29071, -0.38441, -2.56686
7.367, -0.08451, 0.67512, -0.29071, -0.38441, -2.55513
7.383, -0.07951, 0.67512, -0.29071, -0.38441, -2.54339
7.400, -0.07451, 0.67512, -0.29071, -0.38441, -2.53166
7.417, -0.06951, 0.67512, -0.29071, -0.38441, -2.51992
7.433, -0.06451, 0.67512, -0.29071, -0.38441, -2.50819
7.450, -0.05951, 0.67512, -0.29071, -0.38441, -2.49646
7.467, -0.05451, 0.67512, -0.29071, -0.38441, -2.48472
7.483, -0.04951, 0.67512, -0.29071, -0.38441, -2.47299
7.500, -0.04451, 0.67512, -0.29071, -0.38441, -2.46126
7.517, -0.03951, 0.67512, -0.29071, -0.38441, -2.44952
7.533, -0.03451, 0.67512, -0.29071, -0.38441, -2.43779
7.550, -0.02951, 0.67512, -0.29071, -0.38441, -2.42605
7.567, -0.02451, 0.67512, -0.29071, -0.38441, -2.41432
7.583, -0.01951, 0.67512, -0.29071, -0.38441, -2.40259
7.600, -0.01451, 0.67512, -0.29071, -0.38441, -2.39085
7.617, -0.00951, 0.67512, -0.29071, -0.38441, -2.37912
7.633, -0.00451, 0.67512, -0.29071, -0.38441, -2.36739
7.650, 0.00049, 0.67512, -0.29071, -0.38441, -2.35565
7.667, 0.00549, 0.67512, -0.29071, -0.38441, -2.34392
7.683, 0.01049, 0.67512, -0.29071, -0.38441, -2.33219
7.700, 0.01549, 0.67512, -0.29071, -0.38441, -2.32045
7.717, 0.02049, 0.67512, -0.29071, -0.38441, -2.30872
7.733, 0.02549, 0.67512, -0.29071, -0.38441, -2.29698
7.750, 0.03049, 0.67512, -0.29071, -0.38441, -2.28525
7.767, 0.03549, 0.67512, -0.29071, -0.38441, -2.27352
7.783, 0.04049, 0.67512, -0.29071, -0.38441, -2.26178
7.800, 0.04549, 0.67512, -0.29071, -0.38441, -2.25005
7.817, 0.05049, 0.67512, -0.29071, -0.38441, -2.23832
7.833, 0.05549, 0.67512, -0.29071, -0.38441, -2.22658
7.850, 0.06049, 0.67512, -0.29071, -0.38441, -2.21485
7.867, 0.06549, 0.67512, -0.29071, -0.38441, -2.20311
7.883, 0.07049, 0.67512, -0.29071, -0.38441, -2.19138
7.900, 0.07549, 0.67512, -0.29071, -0.38441, -2.17965
7.917, 0.08049, 0.67512, -0.29071, -0.38441, -2.16791
7.933, 0.08549, 0.67512, -0.29071, -0.38441, -2.15618
7.950, 0.09049, 0.67512, -0.29071, -0.38441, -2.14445
7.967, 0.09549, 0.67512, -0.29071, -0.38441, -2.13271
7.983, 0.10049, 0.67512, -0.29071, -0.38441, -2.12098
8.000, 0.10549, 0.67512, -0.29071, -0.38441, -2.10924
8.017, 0.11049, 0.67512, -0.29071, -0.38441, -2.09751
8.033, 0.11549, 0.67512, -0.29071, -0.38441, -2.08578
8.050, 0.12049, 0.67512, -0.29071, -0.38441, -2.07404
8.067, 0.12549, 0.67512, -0.29071, -0.38441, -2.06231
8.083, 0.13049, 0.67512, -0.29071, -0.38441, -2.05058
8.100, 0.13549, 0.67512, -0.29071, -0.38441, -2.03884
8.117, 0.14049, 0.67512, -0.29071, -0.38441, -2.02711
8.133, 0.14549, 0.67512, -0.29071, -0.38441, -2.01537
8.150, 0.15049, 0.67512, -0.29071, -0.38441, -2.00364
8.167, 0.15549, 0.67512, -0.29071, -0.38441, -1.99192
8.183, 0.16049, 0.67512, -0.29071, -0.38441, -1.98021
8.200, 0.16549, 0.67512, -0.29071, -0.38441, -1.96853
8.217, 0.17049, 0.67512, -0.29071, -0.38441, -1.95688
8.233, 0.17549, 0.67512, -0.29071, -0.38441, -1.94528
8.250, 0.18049, 0.67512, -0.29071, -0.38441, -1.93372
8.267, 0.18549, 0.67512, -0.29071, -0.38441, -1.92222
8.283, 0.19049, 0.67512, -0.29071, -0.38441, -1.91079
8.300, 0.19549, 0.67512, -0.29071, -0.38441, -1.89944
8.317, 0.20049, 0.67512, -0.29071, -0.38441, -1.88817
8.333, 0.20549, 0.67512, -0.29071, -0.38441, -1.87699
8.350, 0.21049, 0.67512, -0.29071, -0.38441, -1.86590
8.367, 0.21549, 0.67512, -0.29071, -0.38441, -1.85493
8.383, 0.22049, 0.67512, -0.29071, -0.38441, -1.84407
8.400, 0.22549, 0.67512, -0.29071, -0.38441, -1.83334
8.417, 0.23049, 0.67512, -0.29071, -0.38441, -1.82274
8.433, 0.23549, 0.67512, -0.29071, -0.38441, -1.81229
8.450, 0.24049, 0.67512, -0.29071, -0.38441, -1.80198
8.467, 0.24549, 0.67512, -0.29071, -0.38441, -1.79183
8.483, 0.25047, 0.67512, -0.29071, -0.38441, -1.78184
8.500, 0.25542, 0.67512, -0.29071, -0.38441, -1.77203
8.517, 0.26035, 0.67512, -0.29071, -0.38441, -1.76240
8.533, 0.26523, 0.67512, -0.29071, -0.38441, -1.75296
8.550, 0.27007, 0.67512, -0.29071, -0.38441, -1.74372
8.567, 0.27484, 0.67512, -0.29071, -0.38441, -1.73469
8.583, 0.27954, 0.67512, -0.29071, -0.38441, -1.72588
8.600, 0.28417, 0.67512, -0.29071, -0.38441, -1.71729
8.617, 0.28871, 0.67512, -0.29071, -0.38441, -1.70893
8.633, 0.29315, 0.67512, -0.29071, -0.38441, -1.70081
8.650, 0.29748, 0.67512, -0.29071, -0.38441, -1.69294
8.667, 0.30170, 0.67512, -0.29071, -0.38441, -1.68532
8.683, 0.30581, 0.67512, -0.29071, -0.38441, -1.67797
8.700, 0.30982, 0.67512, -0.29071, -0.38441, -1.67090
8.717, 0.31370, 0.67512, -0.29071, -0.38441, -1.66410
8.733, 0.31748, 0.67512, -0.29071, -0.38441, -1.65757
8.750, 0.32115, 0.67512, -0.29071, -0.38441, -1.65132
8.767, 0.32471, 0.67512, -0.29071, -0.38441, -1.64535
8.783, 0.32815, 0.67512, -0.29071, -0.38441, -1.63965
8.800, 0.33148, 0.67512, -0.29071, -0.38441, -1.63423
8.817, 0.33471, 0.67512, -0.29071, -0.38441, -1.62908
8.833, 0.33782, 0.67512, -0.29071, -0.38441, -1.62421
8.850, 0.34082, 0.67512, -0.29071, -0.38441, -1.61961
8.867, 0.34371, 0.67512, -0.29071, -0.38441, -1.61529
8.883, 0.34649, 0.67512, -0.29071, -0.38441, -1.61122
8.900, 0.34915, 0.67512, -0.29071, -0.38441, -1.60742
8.917, 0.35171, 0.67512, -0.29071, -0.38441, -1.60386
8.933, 0.35415, 0.67512, -0.29071, -0.38441, -1.60054
8.950, 0.35649, 0.67512, -0.29071, -0.38441, -1.59744
8.967, 0.35871, 0.67512, -0.29071, -0.38441, -1.59458
8.983, 0.36082, 0.67512, -0.29071, -0.38441, -1.59192
9.000, 0.36282, 0.67512, -0.29071, -0.38441, -1.58947
9.017, 0.36471, 0.67512, -0.29071, -0.38441, -1.58722
9.033, 0.36649, 0.67512, -0.29071, -0.38441, -1.58515
9.050, 0.36816, 0.67512, -0.29071, -0.38441, -1.58327
9.067, 0.36971, 0.67512, -0.29071, -0.38441, -1.58156
9.083, 0.37116, 0.67512, -0.29071, -0.38441, -1.58001
9.100, 0.37249, 0.67512, -0.29071, -0.38441, -1.57862
9.117, 0.37372, 0.67512, -0.29071, -0.38441, -1.57738
9.133, 0.37483, 0.67512, -0.29071, -0.38441, -1.57627
9.150, 0.37583, 0.67512, -0.29071, -0.38441, -1.57530
9.167, 0.37672, 0.67512, -0.29071, -0.38441, -1.57445
9.183, 0.37749, 0.67512, -0.29071, -0.38441, -1.57371
9.200, 0.37816, 0.67512, -0.29071, -0.38441, -1.57308
9.217, 0.37872, 0.67512, -0.29071, -0.38441, -1.57255
9.233, 0.37919, 0.67512, -0.29071, -0.38441, -1.57211
9.250, 0.37956, 0.67512, -0.29071, -0.38441, -1.57175
9.267, 0.37986, 0.67512, -0.29071, -0.38441, -1.57146
9.283, 0.38009, 0.67512, -0.29071, -0.38441, -1.57124
9.300, 0.38025, 0.67512, -0.29071, -0.38441, -1.57107
9.317, 0.38037, 0.67512, -0.29071, -0.38441, -1.57095
9.333, 0.38044, 0.67512, -0.29071, -0.38441, -1.57088
9.350, 0.38049, 0.67512, -0.29071, -0.38441, -1.57083
9.367, 0.38050, 0.67512, -0.29071, -0.38441, -1.57081
9.383, 0.38051, 0.67512, -0.29071, -0.38441, -1.57080
9.400, 0.38051, 0.67512, -0.29071, -0.38441, -1.57080
9.417, 0.38051, 0.67512, -0.29071, -0.38441, -1.57080
9.433, 0.38051, 0.67512, -0.29071, -0.38441, -1.57080
9.450, 0.38051, 0.67512, -0.29071, -0.38441, -1.57080
9.467, 0.38051, 0.67512, -0.29071, -0.38441, -1.57080
9.483, 0.38051, 0.67512, -0.29071, -0.38441, -1.57080
9.500, 0.38051, 0.67512, -0.29071, -0.38441, -1.57080
9.517, 0.38051, 0.67512, -0.29071, -0.38441, -1.57080
9.533, 0.38051, 0.67512, -0.29071, -0.38441, -1.57080
9.550, 0.38051, 0.67512, -0.29071, -0.38441, -1.57080
9.567, 0.38051, 0.67512, -0.29071, -0.38441, -1.57080
9.583, 0.38051, 0.67512, -0.29071, -0.38441, -1.57080
9.600, 0.38051, 0.67512, -0.29071, -0.38441, -1.57080
9.617, 0.38051, 0.67512, -0.29071, -0.38441, -1.57080
9.633, 0.38051, 0.67512, -0.29071, -0.38441, -1.57080
9.650, 0.38051, 0.67512, -0.29071, -0.38441, -1.57080
9.667, 0.38051, 0.67512, -0.29071, -0.38441, -1.57080
9.683, 0.38051, 0.67512, -0.29071, -0.38441, -1.57080
9.700, 0.38051, 0.67512, -0.29071, -0.38441, -1.57080
9.717, 0.38051, 0.67512, -0.29071, -0.38441, -1.57080
9.733, 0.38051, 0.67512, -0.29071, -0.38441, -1.57080
9.750, 0.38051, 0.67512, -0.29071, -0.38441, -1.57080
9.767, 0.38051, 0.67512, -0.29071, -0.38441, -1.57080
9.783, 0.38051, 0.67512, -0.29071, -0.38441, -1.57080
9.800, 0.38051, 0.67512, -0.29071, -0.38441, -1.57080
9.817, 0.38051, 0.67512, -0.29071, -0.38441, -1.57080
9.833, 0.38051, 0.67512, -0.29071, -0.38441, -1.57080
9.850, 0.38051, 0.67512, -0.29071, -0.38442, -1.57080
9.867, 0.38051, 0.67512, -0.29071, -0.38442, -1.57080
9.883, 0.38051, 0.67512, -0.29071, -0.38442, -1.57080
9.900, 0.38051, 0.67512, -0.29071, -0.38442, -1.57080
9.917, 0.38051, 0.67512, -0.29071, -0.38442, -1.57080
9.933, 0.38051, 0.67512, -0.29071, -0.38442, -1.57080
9.950, 0.38051, 0.67512, -0.29071, -0.38442, -1.57081
9.967, 0.38051, 0.67512, -0.29071, -0.38442, -1.57081
9.983, 0.38051, 0.67512, -0.29071, -0.38442, -1.57081
10.000, 0.38051, 0.67512, -0.29071, -0.38442, -1.57081
10.017, 0.38051, 0.67512, -0.29071, -0.38442, -1.57081
10.033, 0.38051, 0.67512, -0.29071, -0.38442, -1.57081
10.050, 0.38051, 0.67512, -0.29071, -0.38442, -1.57081
10.067, 0.38051, 0.67512, -0.29071, -0.38442, -1.57081
10.083, 0.38051, 0.67512, -0.29071, -0.38442, -1.57081
10.100, 0.38051, 0.67512, -0.29071, -0.38442, -1.57081
10.117, 0.38051, 0.67512, -0.29071, -0.38442, -1.57081
10.133, 0.38051, 0.67512, -0.29071, -0.38442, -1.57081
10.150, 0.38051, 0.67512, -0.29071, -0.38442, -1.57081
10.167, 0.38051, 0.67512, -0.29071, -0.38442, -1.57081
10.183, 0.38051, 0.67512, -0.29071, -0.38442, -1.57081
10.200, 0.38051, 0.67512, -0.29071, -0.38442, -1.57081
10.217, 0.38051, 0.67512, -0.29071, -0.38442, -1.57081
10.233, 0.38051, 0.67512, -0.29071, -0.38442, -1.57081
10.250, 0.38051, 0.67512, -0.29071, -0.38441, -1.57081
10.267, 0.38051, 0.67512, -0.29071, -0.38441, -1.57080
10.283, 0.38051, 0.67512, -0.29071, -0.38441, -1.57080
10.300, 0.38051, 0.67512, -0.29071, -0.38441, -1.57080
10.317, 0.38051, 0.67512, -0.29071, -0.38441, -1.57080
10.333, 0.38051, 0.67512, -0.29071, -0.38441, -1.57080
10.350, 0.38051, 0.67512, -0.29071, -0.38441, -1.57080
10.367, 0.38051, 0.67512, -0.29071, -0.38441, -1.57080
10.383, 0.38051, 0.67512, -0.29071, -0.38441, -1.57080
10.400, 0.38051, 0.67512, -0.29071, -0.38441, -1.57080
10.417, 0.38051, 0.67512, -0.29072, -0.38440, -1.57078
10.433, 0.38051, 0.67511, -0.29075, -0.38437, -1.57074
10.450, 0.38051, 0.67509, -0.29080, -0.38432, -1.57065
10.467, 0.38051, 0.67507, -0.29089, -0.38424, -1.57051
10.483, 0.38051, 0.67503, -0.29103, -0.38413, -1.57029
10.500, 0.38051, 0.67497, -0.29122, -0.38396, -1.56999
10.517, 0.38051, 0.67490, -0.29147, -0.38374, -1.56960
10.533, 0.38051, 0.67481, -0.29180, -0.38347, -1.56909
10.550, 0.38051, 0.67469, -0.29221, -0.38312, -1.56846
10.567, 0.38051, 0.67455, -0.29271, -0.38270, -1.56769
10.583, 0.38051, 0.67438, -0.29331, -0.38220, -1.56677
10.600, 0.38051, 0.67418, -0.29402, -0.38161, -1.56567
10.617, 0.38051, 0.67395, -0.29485, -0.38092, -1.56440
10.633, 0.38051, 0.67368, -0.29581, -0.38013, -1.56294
10.650, 0.38051, 0.67338, -0.29691, -0.37922, -1.56126
10.667, 0.38051, 0.67303, -0.29816, -0.37819, -1.55936
10.683, 0.38051, 0.67264, -0.29956, -0.37704, -1.55723
10.700, 0.38051, 0.67221, -0.30113, -0.37575, -1.55484
10.717, 0.38051, 0.67172, -0.30287, -0.37433, -1.55220
10.733, 0.38051, 0.67119, -0.30480, -0.37275, -1.54927
10.750, 0.38051, 0.67060, -0.30691, -0.37101, -1.54605
10.767, 0.38051, 0.66996, -0.30923, -0.36912, -1.54253
10.783, 0.38051, 0.66926, -0.31174, -0.36705, -1.53869
10.800, 0.38051, 0.66850, -0.31444, -0.36480, -1.53451
10.817, 0.38051, 0.66767, -0.31734, -0.36236, -1.52999
10.833, 0.38051, 0.66678, -0.32043, -0.35974, -1.52510
10.850, 0.38051, 0.66582, -0.32371, -0.35691, -1.51985
10.867, 0.38051, 0.66479, -0.32720, -0.35387, -1.51420
10.883, 0.38051, 0.66369, -0.33087, -0.35062, -1.50817
10.900, 0.38051, 0.66251, -0.33474, -0.34714, -1.50174
10.917, 0.38051, 0.66125, -0.33879, -0.34344, -1.49493
10.933, 0.38051, 0.65991, -0.34302, -0.33949, -1.48773
10.950, 0.38051, 0.65849, -0.34742, -0.33530, -1.48015
10.967, 0.38051, 0.65699, -0.35198, -0.33086, -1.47217
10.983, 0.38051, 0.65541, -0.35669, -0.32616, -1.46381
11.000, 0.38051, 0.65374, -0.36153, -0.32121, -1.45506
11.017, 0.38051, 0.65200, -0.36651, -0.31600, -1.44593
11.033, 0.38051, 0.65017, -0.37161, -0.31054, -1.43645
11.050, 0.38051, 0.64826, -0.37682, -0.30482, -1.42663
11.067, 0.38051, 0.64626, -0.38213, -0.29884, -1.41647
11.083, 0.38051, 0.64419, -0.38754, -0.29261, -1.40600
11.100, 0.38051, 0.64203, -0.39303, -0.28612, -1.39523
11.117, 0.38051, 0.63979, -0.39859, -0.27938, -1.38416
11.133, 0.38051, 0.63747, -0.40423, -0.27238, -1.37282
11.150, 0.38051, 0.63507, -0.40991, -0.26514, -1.36122
11.167, 0.38051, 0.63259, -0.41565, -0.25765, -1.34937
11.183, 0.38051, 0.63003, -0.42142, -0.24993, -1.33729
11.200, 0.38051, 0.62739, -0.42722, -0.24198, -1.32499
11.217, 0.38051, 0.62467, -0.43305, -0.23381, -1.31248
11.233, 0.38051, 0.62188, -0.43888, -0.22543, -1.29978
11.250, 0.38051, 0.61903, -0.44471, -0.21685, -1.28690
11.267, 0.38051, 0.61610, -0.45054, -0.20807, -1.27386
11.283, 0.38051, 0.61312, -0.45638, -0.19910, -1.26067
11.300, 0.38051, 0.61007, -0.46221, -0.18994, -1.24734
11.317, 0.38051, 0.60696, -0.46804, -0.18062, -1.23389
11.333, 0.38051, 0.60379, -0.47388, -0.17112, -1.22033
11.350, 0.38051, 0.60057, -0.47971, -0.16147, -1.20667
11.367, 0.38051, 0.59729, -0.48554, -0.15166, -1.19293
11.383, 0.38051, 0.59397, -0.49138, -0.14171, -1.17913
11.400, 0.38051, 0.59060, -0.49721, -0.13162, -1.16527
11.417, 0.38051, 0.58719, -0.50304, -0.12140, -1.15137
11.433, 0.38051, 0.58373, -0.50888, -0.11105, -1.13745
11.450, 0.38051, 0.58024, -0.51471, -0.10059, -1.12351
11.467, 0.38051, 0.57670, -0.52054, -0.09003, -1.10958
11.483, 0.38051, 0.57314, -0.52638, -0.07936, -1.09564
11.500, 0.38051, 0.56954, -0.53221, -0.06860, -1.08171
11.517, 0.38051, 0.56591, -0.53804, -0.05775, -1.06777
11.533, 0.38051, 0.56226, -0.54388, -0.04682, -1.05383
11.550, 0.38051, 0.55858, -0.54971, -0.03582, -1.03990
11.567, 0.38051, 0.55488, -0.55554, -0.02476, -1.02596
11.583, 0.38051, 0.55116, -0.56138, -0.01365, -1.01202
11.600, 0.38051, 0.54742, -0.56721, -0.00248, -0.99809
11.617, 0.38051, 0.54367, -0.57304, 0.00873, -0.98415
11.633, 0.38051, 0.53991, -0.57888, 0.01997, -0.97022
11.650, 0.38051, 0.53614, -0.58471, 0.03124, -0.95628
11.667, 0.38051, 0.53236, -0.59054, 0.04253, -0.94234
11.683, 0.38051, 0.52858, -0.59638, 0.05383, -0.92841
11.700, 0.38051, 0.52480, -0.60221, 0.06514, -0.91447
11.717, 0.38051, 0.52102, -0.60804, 0.07644, -0.90053
11.733, 0.38051, 0.51723, -0.61388, 0.08775, -0.88660
11.750, 0.38051, 0.51345, -0.61971, 0.09905, -0.87266
11.767, 0.38051, 0.50967, -0.62554, 0.11036, -0.85872
11.783, 0.38051, 0.50589, -0.63138, 0.12166, -0.84479
11.800, 0.38051, 0.50210, -0.63721, 0.13297, -0.83085
11.817, 0.38051, 0.49832, -0.64304, 0.14427, -0.81692
11.833, 0.38051, 0.49454, -0.64888, 0.15558, -0.80298
11.850, 0.38051, 0.49075, -0.65471, 0.16689, -0.78904
11.867, 0.38051, 0.48697, -0.66054, 0.17819, -0.77511
11.883, 0.38051, 0.48319, -0.66638, 0.18950, -0.76117
11.900, 0.38051, 0.47941, -0.67221, 0.20080, -0.74723
11.917, 0.38051, 0.47562, -0.67804, 0.21211, -0.73330
11.933, 0.38051, 0.47184, -0.68388, 0.22341, -0.71936
11.950, 0.38051, 0.46806, -0.68971, 0.23472, -0.70543
11.967, 0.38051, 0.46428, -0.69554, 0.24602, -0.69149
11.983, 0.38051, 0.46049, -0.70138, 0.25733, -0.67755
12.000, 0.38051, 0.45671, -0.70721, 0.26864, -0.66362
12.017, 0.38051, 0.45293, -0.71304, 0.27994, -0.64968
12.033, 0.38051, 0.44915, -0.71888, 0.29124, -0.63574
12.050, 0.38051, 0.44537, -0.72471, 0.30253, -0.62181
12.067, 0.38051, 0.44159, -0.73054, 0.31380, -0.60787
12.083, 0.38051, 0.43783, -0.73638, 0.32503, -0.59394
12.100, 0.38051, 0.43407, -0.74221, 0.33624, -0.58000
12.117, 0.38051, 0.43033, -0.74804, 0.34740, -0.56606
12.133, 0.38051, 0.42660, -0.75388, 0.35852, -0.55213
12.150, 0.38051, 0.42289, -0.75971, 0.36957, -0.53819
12.167, 0.38051, 0.41920, -0.76554, 0.38056, -0.52425
12.183, 0.38051, 0.41553, -0.77138, 0.39148, -0.51032
12.200, 0.38051, 0.41189, -0.77721, 0.40232, -0.49638
12.217, 0.38051, 0.40828, -0.78304, 0.41308, -0.48244
12.233, 0.38051, 0.40469, -0.78888, 0.42374, -0.46851
12.250, 0.38051, 0.40114, -0.79471, 0.43430, -0.45457
12.267, 0.38051, 0.39763, -0.80054, 0.44474, -0.44064
12.283, 0.38051, 0.39415, -0.80638, 0.45508, -0.42670
12.300, 0.38051, 0.39072, -0.81221, 0.46529, -0.41279
12.317, 0.38051, 0.38733, -0.81804, 0.47537, -0.39891
12.333, 0.38051, 0.38398, -0.82388, 0.48531, -0.38508
12.350, 0.38051, 0.38068, -0.82971, 0.49510, -0.37130
12.367, 0.38051, 0.37743, -0.83554, 0.50474, -0.35760
12.383, 0.38051, 0.37424, -0.84138, 0.51422, -0.34399
12.400, 0.38051, 0.37110, -0.84721, 0.52353, -0.33048
12.417, 0.38051, 0.36802, -0.85304, 0.53267, -0.31708
12.433, 0.38051, 0.36500, -0.85888, 0.54162, -0.30382
12.450, 0.38051, 0.36204, -0.86471, 0.55039, -0.29070
12.467, 0.38051, 0.35915, -0.87054, 0.55895, -0.27773
12.483, 0.38051, 0.35633, -0.87638, 0.56731, -0.26494
12.500, 0.38051, 0.35358, -0.88220, 0.57546, -0.25233
12.517, 0.38051, 0.35090, -0.88802, 0.58339, -0.23991
12.533, 0.38051, 0.34830, -0.89381, 0.59109, -0.22772
12.550, 0.38051, 0.34577, -0.89956, 0.59856, -0.21574
12.567, 0.38051, 0.34333, -0.90527, 0.60579, -0.20401
12.583, 0.38051, 0.34097, -0.91094, 0.61276, -0.19253
12.600, 0.38051, 0.33869, -0.91654, 0.61948, -0.18132
12.617, 0.38051, 0.33649, -0.92207, 0.62595, -0.17040
12.633, 0.38051, 0.33438, -0.92752, 0.63215, -0.15976
12.650, 0.38051, 0.33235, -0.93288, 0.63811, -0.14944
12.667, 0.38051, 0.33039, -0.93814, 0.64381, -0.13944
12.683, 0.38051, 0.32852, -0.94330, 0.64925, -0.12978
12.700, 0.38051, 0.32673, -0.94834, 0.65443, -0.12047
12.717, 0.38051, 0.32503, -0.95325, 0.65937, -0.11152
12.733, 0.38051, 0.32340, -0.95803, 0.66404, -0.10295
12.750, 0.38051, 0.32186, -0.96266, 0.66846, -0.09478
12.767, 0.38051, 0.32040, -0.96715, 0.67263, -0.08698
12.783, 0.38051, 0.31902, -0.97146, 0.67655, -0.07958
12.800, 0.38051, 0.31772, -0.97561, 0.68024, -0.07257
12.817, 0.38051, 0.31650, -0.97957, 0.68369, -0.06594
12.833, 0.38051, 0.31536, -0.98335, 0.68692, -0.05971
12.850, 0.38051, 0.31430, -0.98693, 0.68994, -0.05386
12.867, 0.38051, 0.31330, -0.99031, 0.69275, -0.04840
12.883, 0.38051, 0.31238, -0.99350, 0.69536, -0.04332
12.900, 0.38051, 0.31152, -0.99650, 0.69778, -0.03861
12.917, 0.38051, 0.31073, -0.99930, 0.70001, -0.03425
12.933, 0.38051, 0.30999, -1.00191, 0.70207, -0.03024
12.950, 0.38051, 0.30932, -1.00432, 0.70395, -0.02655
12.967, 0.38051, 0.30871, -1.00654, 0.70567, -0.02317
12.983, 0.38051, 0.30815, -1.00856, 0.70724, -0.02010
13.000, 0.38051, 0.30764, -1.01040, 0.70865, -0.01731
13.017, 0.38051, 0.30718, -1.01205, 0.70993, -0.01479
13.033, 0.38051, 0.30677, -1.01354, 0.71107, -0.01252
13.050, 0.38051, 0.30640, -1.01486, 0.71208, -0.01050
13.067, 0.38051, 0.30608, -1.01604, 0.71298, -0.00871
13.083, 0.38051, 0.30579, -1.01707, 0.71376, -0.00714
13.100, 0.38051, 0.30554, -1.01796, 0.71445, -0.00577
13.117, 0.38051, 0.30532, -1.01873, 0.71503, -0.00458
13.133, 0.38051, 0.30514, -1.01939, 0.71552, -0.00357
13.150, 0.38051, 0.30499, -1.01994, 0.71594, -0.00272
13.167, 0.38051, 0.30486, -1.02040, 0.71627, -0.00202
13.183, 0.38051, 0.30475, -1.02076, 0.71655, -0.00145
13.200, 0.38051, 0.30467, -1.02105, 0.71676, -0.00100
13.217, 0.38051, 0.30461, -1.02127, 0.71692, -0.00065
13.233, 0.38051, 0.30456, -1.02144, 0.71703, -0.00040
13.250, 0.38051, 0.30453, -1.02155, 0.71711, -0.00022
13.267, 0.38051, 0.30451, -1.02162, 0.71716, -0.00010
13.283, 0.38051, 0.30450, -1.02166, 0.71718, -0.00004
13.300, 0.38051, 0.30449, -1.02168, 0.71719, -0.00001
13.317, 0.38051, 0.30449, -1.02168, 0.71719, -0.00000
13.333, 0.38051, 0.30449, -1.02168, 0.71719, 0.00000
13.350, 0.38051, 0.30449, -1.02168, 0.71719, 0.00000
13.367, 0.38051, 0.30449, -1.02168, 0.71719, 0.00000
13.383, 0.38051, 0.30449, -1.02168, 0.71719, 0.00000
13.400, 0.38051, 0.30449, -1.02168, 0.71719, 0.00000
13.417, 0.38051, 0.30449, -1.02168, 0.71719, 0.00000
13.433, 0.38051, 0.30449, -1.02168, 0.71719, 0.00000
13.450, 0.38051, 0.30449, -1.02168, 0.71719, 0.00000
13.467, 0.38051, 0.30449, -1.02168, 0.71719, 0.00000
13.483, 0.38051, 0.30449, -1.02168, 0.71719, 0.00000
13.500, 0.38051, 0.30449, -1.02168, 0.71719, 0.00000
13.517, 0.38051, 0.30449, -1.02168, 0.71719, 0.00000
13.533, 0.38051, 0.30449, -1.02168, 0.71719, 0.00000
13.550, 0.38051, 0.30449, -1.02168, 0.71719, 0.00000
13.567, 0.38051, 0.30449, -1.02168, 0.71719, 0.00000
13.583, 0.38051, 0.30449, -1.02168, 0.71719, 0.00000
13.600, 0.38051, 0.30449, -1.02168, 0.71719, 0.00000
13.617, 0.38051, 0.30449, -1.02168, 0.71719, 0.00000
13.633, 0.38051, 0.30449, -1.02168, 0.71719, 0.00000
13.650, 0.38051, 0.30449, -1.02168, 0.71719, 0.00000
13.667, 0.38051, 0.30449, -1.02168, 0.71719, 0.00000
13.683, 0.38051, 0.30449, -1.02168, 0.71719, 0.00000
13.700, 0.38051, 0.30449, -1.02168, 0.71719, 0.00000
13.717, 0.38051, 0.30449, -1.02168, 0.71719, -0.00000
13.733, 0.38051, 0.30449, -1.02168, 0.71719, -0.00000
13.750, 0.38051, 0.30449, -1.02168, 0.71719, -0.00000
13.767, 0.38051, 0.30449, -1.02168, 0.71719, -0.00000
13.783, 0.38051, 0.30449, -1.02168, 0.71719, -0.00000
13.800, 0.38051, 0.30449, -1.02168, 0.71719, -0.00000
13.817, 0.38051, 0.30449, -1.02168, 0.71719, -0.00000
13.833, 0.38051, 0.30449, -1.02168, 0.71719, -0.00000
13.850, 0.38051, 0.30449, -1.02168, 0.71719, -0.00000
13.867, 0.38051, 0.30449, -1.02168, 0.71719, -0.00000
13.883, 0.38051, 0.30449, -1.02168, 0.71719, -0.00000
13.900, 0.38051, 0.30449, -1.02168, 0.71719, -0.00000
13.917, 0.38051, 0.30449, -1.02168, 0.71719, -0.00000
13.933, 0.38051, 0.30449, -1.02168, 0.71719, -0.00000
13.950, 0.38051, 0.30449, -1.02168, 0.71719, -0.00000
13.967, 0.38051, 0.30449, -1.02168, 0.71719, -0.00000
13.983, 0.38051, 0.30449, -1.02168, 0.71719, -0.00000
14.000, 0.38051, 0.30449, -1.02168, 0.71719, -0.00000
14.017, 0.38051, 0.30449, -1.02168, 0.71719, -0.00001
14.033, 0.38051, 0.30449, -1.02168, 0.71719, -0.00001
14.050, 0.38051, 0.30449, -1.02168, 0.71719, -0.00001
14.067, 0.38051, 0.30449, -1.02168, 0.71719, -0.00001
14.083, 0.38051, 0.30449, -1.02168, 0.71719, -0.00001
14.100, 0.38051, 0.30449, -1.02168, 0.71719, -0.00001
14.117, 0.38051, 0.30449, -1.02168, 0.71719, -0.00001
14.133, 0.38051, 0.30449, -1.02168, 0.71719, -0.00000
14.150, 0.38051, 0.30449, -1.02168, 0.71719, -0.00000
14.167, 0.38051, 0.30449, -1.02168, 0.71719, -0.00000
14.183, 0.38051, 0.30449, -1.02168, 0.71719, -0.00000
14.200, 0.38051, 0.30449, -1.02168, 0.71719, -0.00000
14.217, 0.38051, 0.30449, -1.02168, 0.71719, -0.00000
14.233, 0.38051, 0.30449, -1.02168, 0.71719, -0.00000
14.250, 0.38051, 0.30449, -1.02168, 0.71719, -0.00000
14.267, 0.38051, 0.30449, -1.02168, 0.71719, -0.00000
14.283, 0.38051, 0.30449, -1.02168, 0.71719, -0.00000
14.300, 0.38051, 0.30449, -1.02168, 0.71719, -0.00000
14.317, 0.38051, 0.30449, -1.02168, 0.71719, -0.00000
14.333, 0.38051, 0.30449, -1.02168, 0.71719, 0.00000
14.350, 0.38050, 0.30449, -1.02168, 0.71719, 0.00002
14.367, 0.38046, 0.30449, -1.02168, 0.71719, 0.00005
14.383, 0.38040, 0.30449, -1.02168, 0.71719, 0.00011
14.400, 0.38031, 0.30449, -1.02168, 0.71719, 0.00021
14.417, 0.38016, 0.30449, -1.02168, 0.71719, 0.00035
14.433, 0.37996, 0.30449, -1.02168, 0.71719, 0.00054
14.450, 0.37969, 0.30449, -1.02168, 0.71719, 0.00079
14.467, 0.37935, 0.30449, -1.02168, 0.71719, 0.00112
14.483, 0.37892, 0.30449, -1.02168, 0.71719, 0.00152
14.500, 0.37840, 0.30449, -1.02168, 0.71719, 0.00200
14.517, 0.37778, 0.30449, -1.02168, 0.71719, 0.00258
14.533, 0.37704, 0.30449, -1.02168, 0.71719, 0.00326
14.550, 0.37620, 0.30449, -1.02168, 0.71719, 0.00405
14.567, 0.37524, 0.30449, -1.02168, 0.71719, 0.00496
14.583, 0.37418, 0.30449, -1.02168, 0.71719, 0.00600
14.600, 0.37300, 0.30449, -1.02168, 0.71719, 0.00717
14.617, 0.37171, 0.30449, -1.02168, 0.71719, 0.00849
14.633, 0.37031, 0.30449, -1.02168, 0.71719, 0.00995
14.650, 0.36880, 0.30449, -1.02168, 0.71719, 0.01158
14.667, 0.36718, 0.30449, -1.02168, 0.71719, 0.01337
14.683, 0.36544, 0.30449, -1.02168, 0.71719, 0.01535
14.700, 0.36360, 0.30449, -1.02168, 0.71719, 0.01750
14.717, 0.36164, 0.30449, -1.02168, 0.71719, 0.01985
14.733, 0.35958, 0.30449, -1.02168, 0.71719, 0.02240
14.750, 0.35740, 0.30449, -1.02168, 0.71719, 0.02516
14.767, 0.35511, 0.30449, -1.02168, 0.71719, 0.02814
14.783, 0.35271, 0.30449, -1.02168, 0.71719, 0.03134
14.800, 0.35020, 0.30449, -1.02168, 0.71719, 0.03478
14.817, 0.34758, 0.30449, -1.02168, 0.71719, 0.03846
14.833, 0.34484, 0.30449, -1.02168, 0.71719, 0.04239
14.850, 0.34200, 0.30449, -1.02168, 0.71719, 0.04658
14.867, 0.33904, 0.30449, -1.02168, 0.71719, 0.05104
14.883, 0.33598, 0.30449, -1.02168, 0.71719, 0.05577
14.900, 0.33280, 0.30449, -1.02168, 0.71719, 0.06078
14.917, 0.32951, 0.30449, -1.02168, 0.71719, 0.06607
14.933, 0.32611, 0.30449, -1.02168, 0.71719, 0.07162
14.950, 0.32260, 0.30449, -1.02168, 0.71719, 0.07746
14.967, 0.31898, 0.30449, -1.02168, 0.71719, 0.08357
14.983, 0.31524, 0.30449, -1.02168, 0.71719, 0.08995
15.000, 0.31140, 0.30449, -1.02168, 0.71719, 0.09661
15.017, 0.30744, 0.30449, -1.02168, 0.71719, 0.10355
15.033, 0.30338, 0.30449, -1.02168, 0.71719, 0.11076
15.050, 0.29920, 0.30449, -1.02168, 0.71719, 0.11824
15.067, 0.29491, 0.30449, -1.02168, 0.71719, 0.12598
15.083, 0.29051, 0.30449, -1.02168, 0.71719, 0.13397
15.100, 0.28601, 0.30449, -1.02168, 0.71719, 0.14221
15.117, 0.28142, 0.30449, -1.02168, 0.71719, 0.15069
15.133, 0.27675, 0.30449, -1.02168, 0.71719, 0.15939
15.150, 0.27200, 0.30449, -1.02168, 0.71719, 0.16831
15.167, 0.26719, 0.30449, -1.02168, 0.71719, 0.17745
15.183, 0.26233, 0.30449, -1.02168, 0.71719, 0.18679
15.200, 0.25742, 0.30449, -1.02168, 0.71719, 0.19632
15.217, 0.25247, 0.30449, -1.02168, 0.71719, 0.20604
15.233, 0.24750, 0.30449, -1.02168, 0.71719, 0.21594
15.250, 0.24251, 0.30449, -1.02168, 0.71719, 0.22600
15.267, 0.23751, 0.30449, -1.02168, 0.71719, 0.23623
15.283, 0.23251, 0.30449, -1.02168, 0.71719, 0.24662
15.300, 0.22751, 0.30449, -1.02168, 0.71719, 0.25715
15.317, 0.22251, 0.30449, -1.02168, 0.71719, 0.26781
15.333, 0.21751, 0.30449, -1.02168, 0.71719, 0.27861
15.350, 0.21251, 0.30449, -1.02168, 0.71719, 0.28952
15.367, 0.20751, 0.30449, -1.02168, 0.71719, 0.30055
15.383, 0.20251, 0.30449, -1.02168, 0.71719, 0.31168
15.400, 0.19751, 0.30449, -1.02168, 0.71719, 0.32291
15.417, 0.19251, 0.30449, -1.02168, 0.71719, 0.33422
15.433, 0.18751, 0.30449, -1.02168, 0.71719, 0.34561
15.450, 0.18251, 0.30449, -1.02168, 0.71719, 0.35708
15.467, 0.17751, 0.30449, -1.02168, 0.71719, 0.36861
15.483, 0.17251, 0.30449, -1.02168, 0.71719, 0.38019
15.500, 0.16751, 0.30449, -1.02168, 0.71719, 0.39181
15.517, 0.16251, 0.30449, -1.02168, 0.71719, 0.40348
15.533, 0.15751, 0.30449, -1.02168, 0.71719, 0.41517
15.550, 0.15251, 0.30449, -1.02168, 0.71719, 0.42689
15.567, 0.14751, 0.30449, -1.02168, 0.71719, 0.43862
15.583, 0.14251, 0.30449, -1.02168, 0.71719, 0.45035
15.600, 0.13751, 0.30449, -1.02168, 0.71719, 0.46209
15.617, 0.13251, 0.30449, -1.02168, 0.71719, 0.47382
15.633, 0.12751, 0.30449, -1.02168, 0.71719, 0.48555
15.650, 0.12251, 0.30449, -1.02168, 0.71719, 0.49729
15.667, 0.11751, 0.30449, -1.02168, 0.71719, 0.50902
15.683, 0.11251, 0.30449, -1.02168, 0.71719, 0.52076
15.700, 0.10751, 0.30449, -1.02168, 0.71719, 0.53249
15.717, 0.10251, 0.30449, -1.02168, 0.71719, 0.54422
15.733, 0.09751, 0.30449, -1.02168, 0.71719, 0.55596
15.750, 0.09251, 0.30449, -1.02168, 0.71719, 0.56769
15.767, 0.08751, 0.30449, -1.02168, 0.71719, 0.57942
15.783, 0.08251, 0.30449, -1.02168, 0.71719, 0.59116
15.800, 0.07751, 0.30449, -1.02168, 0.71719, 0.60289
15.817, 0.07251, 0.30449, -1.02168, 0.71719, 0.61463
15.833, 0.06751, 0.30449, -1.02168, 0.71719, 0.62636
15.850, 0.06251, 0.30449, -1.02168, 0.71719, 0.63809
15.867, 0.05751, 0.30449, -1.02168, 0.71719, 0.64983
15.883, 0.05251, 0.30449, -1.02168, 0.71719, 0.66156
15.900, 0.04751, 0.30449, -1.02168, 0.71719, 0.67329
15.917, 0.04251, 0.30449, -1.02168, 0.71719, 0.68503
15.933, 0.03751, 0.30449, -1.02168, 0.71719, 0.69676
15.950, 0.03251, 0.30449, -1.02168, 0.71719, 0.70849
15.967, 0.02751, 0.30449, -1.02168, 0.71719, 0.72023
15.983, 0.02251, 0.30449, -1.02168, 0.71719, 0.73196
16.000, 0.01751, 0.30449, -1.02168, 0.71719, 0.74370
16.017, 0.01251, 0.30449, -1.02168, 0.71719, 0.75543
16.033, 0.00751, 0.30449, -1.02168, 0.71719, 0.76716
16.050, 0.00251, 0.30449, -1.02168, 0.71719, 0.77890
16.067, -0.00249, 0.30449, -1.02168, 0.71719, 0.79063
16.083, -0.00749, 0.30449, -1.02168, 0.71719, 0.80236
16.100, -0.01249, 0.30449, -1.02168, 0.71719, 0.81410
16.117, -0.01749, 0.30449, -1.02168, 0.71719, 0.82583
16.133, -0.02249, 0.30449, -1.02168, 0.71719, 0.83757
16.150, -0.02749, 0.30449, -1.02168, 0.71719, 0.84930
16.167, -0.03249, 0.30449, -1.02168, 0.71719, 0.86103
16.183, -0.03749, 0.30449, -1.02168, 0.71719, 0.87277
16.200, -0.04249, 0.30449, -1.02168, 0.71719, 0.88450
16.217, -0.04749, 0.30449, -1.02168, 0.71719, 0.89623
16.233, -0.05249, 0.30449, -1.02168, 0.71719, 0.90797
16.250, -0.05749, 0.30449, -1.02168, 0.71719, 0.91970
16.267, -0.06249, 0.30449, -1.02168, 0.71719, 0.93144
16.283, -0.06749, 0.30449, -1.02168, 0.71719, 0.94317
16.300, -0.07249, 0.30449, -1.02168, 0.71719, 0.95490
16.317, -0.07749, 0.30449, -1.02168, 0.71719, 0.96664
16.333, -0.08249, 0.30449, -1.02168, 0.71719, 0.97837
16.350, -0.08749, 0.30449, -1.02168, 0.71719, 0.99010
16.367, -0.09249, 0.30449, -1.02168, 0.71719, 1.00184
16.383, -0.09749, 0.30449, -1.02168, 0.71719, 1.01357
16.400, -0.10249, 0.30449, -1.02168, 0.71719, 1.02531
16.417, -0.10749, 0.30449, -1.02168, 0.71719, 1.03704
16.433, -0.11249, 0.30449, -1.02168, 0.71719, 1.04877
16.450, -0.11749, 0.30449, -1.02168, 0.71719, 1.06051
16.467, -0.12249, 0.30449, -1.02168, 0.71719, 1.07224
16.483, -0.12749, 0.30449, -1.02168, 0.71719, 1.08397
16.500, -0.13249, 0.30449, -1.02168, 0.71719, 1.09571
16.517, -0.13749, 0.30449, -1.02168, 0.71719, 1.10744
16.533, -0.14249, 0.30449, -1.02168, 0.71719, 1.11917
16.550, -0.14749, 0.30449, -1.02168, 0.71719, 1.13091
16.567, -0.15249, 0.30449, -1.02168, 0.71719, 1.14264
16.583, -0.15749, 0.30449, -1.02168, 0.71719, 1.15436
16.600, -0.16249, 0.30449, -1.02168, 0.71719, 1.16605
16.617, -0.16749, 0.30449, -1.02168, 0.71719, 1.17772
16.633, -0.17249, 0.30449, -1.02168, 0.71719, 1.18935
16.650, -0.17749, 0.30449, -1.02168, 0.71719, 1.20094
16.667, -0.18249, 0.30449, -1.02168, 0.71719, 1.21247
16.683, -0.18749, 0.30449, -1.02168, 0.71719, 1.22395
16.700, -0.19249, 0.30449, -1.02168, 0.71719, 1.23535
16.717, -0.19749, 0.30449, -1.02168, 0.71719, 1.24667
16.733, -0.20249, 0.30449, -1.02168, 0.71719, 1.25791
16.750, -0.20749, 0.30449, -1.02168, 0.71719, 1.26905
16.767, -0.21249, 0.30449, -1.02168, 0.71719, 1.28009
16.783, -0.21749, 0.30449, -1.02168, 0.71719, 1.29102
16.800, -0.22249, 0.30449, -1.02168, 0.71719, 1.30182
16.817, -0.22749, 0.30449, -1.02168, 0.71719, 1.31250
16.833, -0.23249, 0.30449, -1.02168, 0.71719, 1.32305
16.850, -0.23749, 0.30449, -1.02168, 0.71719, 1.33345
16.867, -0.24249, 0.30449, -1.02168, 0.71719, 1.34369
16.883, -0.24748, 0.30449, -1.02168, 0.71719, 1.35378
16.900, -0.25245, 0.30449, -1.02168, 0.71719, 1.36370
16.917, -0.25740, 0.30449, -1.02168, 0.71719, 1.37344
16.933, -0.26231, 0.30449, -1.02168, 0.71719, 1.38299
16.950, -0.26717, 0.30449, -1.02168, 0.71719, 1.39235
16.967, -0.27198, 0.30449, -1.02168, 0.71719, 1.40151
16.983, -0.27673, 0.30449, -1.02168, 0.71719, 1.41045
17.000, -0.28140, 0.30449, -1.02168, 0.71719, 1.41918
17.017, -0.28600, 0.30449, -1.02168, 0.71719, 1.42768
17.033, -0.29050, 0.30449, -1.02168, 0.71719, 1.43594
17.050, -0.29489, 0.30449, -1.02168, 0.71719, 1.44396
17.067, -0.29918, 0.30449, -1.02168, 0.71719, 1.45173
17.083, -0.30336, 0.30449, -1.02168, 0.71719, 1.45924
17.100, -0.30743, 0.30449, -1.02168, 0.71719, 1.46648
17.117, -0.31138, 0.30449, -1.02168, 0.71719, 1.47345
17.133, -0.31523, 0.30449, -1.02168, 0.71719, 1.48014
17.150, -0.31896, 0.30449, -1.02168, 0.71719, 1.48655
17.167, -0.32259, 0.30449, -1.02168, 0.71719, 1.49269
17.183, -0.32610, 0.30449, -1.02168, 0.71719, 1.49856
17.200, -0.32950, 0.30449, -1.02168, 0.71719, 1.50415
17.217, -0.33279, 0.30449, -1.02168, 0.71719, 1.50946
17.233, -0.33597, 0.30449, -1.02168, 0.71719, 1.51450
17.250, -0.33903, 0.30449, -1.02168, 0.71719, 1.51926
17.267, -0.34199, 0.30449, -1.02168, 0.71719, 1.52375
17.283, -0.34483, 0.30449, -1.02168, 0.71719, 1.52797
17.300, -0.34757, 0.30449, -1.02168, 0.71719, 1.53192
17.317, -0.35019, 0.30449, -1.02168, 0.71719, 1.53563
17.333, -0.35270, 0.30449, -1.02168, 0.71719, 1.53910
17.350, -0.35510, 0.30449, -1.02168, 0.71719, 1.54232
17.367, -0.35739, 0.30449, -1.02168, 0.71719, 1.54533
17.383, -0.35957, 0.30449, -1.02168, 0.71719, 1.54811
17.400, -0.36164, 0.30449, -1.02168, 0.71719, 1.55068
17.417, -0.36359, 0.30449, -1.02168, 0.71719, 1.55305
17.433, -0.36544, 0.30449, -1.02168, 0.71719, 1.55523
17.450, -0.36717, 0.30449, -1.02168, 0.71719, 1.55722
17.467, -0.36879, 0.30449, -1.02168, 0.71719, 1.55903
17.483, -0.37031, 0.30449, -1.02168, 0.71719, 1.56068
17.500, -0.37171, 0.30449, -1.02168, 0.71719, 1.56216
17.517, -0.37300, 0.30449, -1.02168, 0.71719, 1.56349
17.533, -0.37417, 0.30449, -1.02168, 0.71719, 1.56468
17.550, -0.37524, 0.30449, -1.02168, 0.71719, 1.56573
17.567, -0.37620, 0.30449, -1.02168, 0.71719, 1.56665
17.583, -0.37704, 0.30449, -1.02168, 0.71719, 1.56746
17.600, -0.37777, 0.30449, -1.02168, 0.71719, 1.56815
17.617, -0.37840, 0.30449, -1.02168, 0.71719, 1.56874
17.633, -0.37892, 0.30449, -1.02168, 0.71719, 1.56923
17.650, -0.37935, 0.30449, -1.02168, 0.71719, 1.56964
17.667, -0.37969, 0.30449, -1.02168, 0.71719, 1.56997
17.683, -0.37996, 0.30449, -1.02168, 0.71719, 1.57023
17.700, -0.38016, 0.30449, -1.02168, 0.71719, 1.57043
17.717, -0.38031, 0.30449, -1.02168, 0.71719, 1.57058
17.733, -0.38040, 0.30449, -1.02168, 0.71719, 1.57068
17.750, -0.38046, 0.30449, -1.02168, 0.71719, 1.57075
17.767, -0.38050, 0.30449, -1.02168, 0.71719, 1.57078
17.783, -0.38051, 0.30449, -1.02168, 0.71719, 1.57080
17.800, -0.38051, 0.30449, -1.02168, 0.71719, 1.57080
17.817, -0.38051, 0.30449, -1.02168, 0.71719, 1.57080
17.833, -0.38051, 0.30449, -1.02168, 0.71719, 1.57080
17.850, -0.38051, 0.30449, -1.02168, 0.71719, 1.57080
17.867, -0.38051, 0.30449, -1.02168, 0.71719, 1.57080
17.883, -0.38051, 0.30449, -1.02168, 0.71719, 1.57080
17.900, -0.38051, 0.30449, -1.02168, 0.71719, 1.57080
17.917, -0.38051, 0.30449, -1.02168, 0.71719, 1.57080
17.933, -0.38051, 0.30449, -1.02168, 0.71719, 1.57080
17.950, -0.38051, 0.30449, -1.02168, 0.71719, 1.57080
17.967, -0.38051, 0.30449, -1.02168, 0.71719, 1.57080
17.983, -0.38051, 0.30449, -1.02168, 0.71719, 1.57080
18.000, -0.38051, 0.30449, -1.02168, 0.71719, 1.57080
18.017, -0.38051, 0.30449, -1.02168, 0.71719, 1.57080
18.033, -0.38051, 0.30449, -1.02168, 0.71719, 1.57080
18.050, -0.38051, 0.30449, -1.02168, 0.71719, 1.57080
18.067, -0.38051, 0.30449, -1.02168, 0.71719, 1.57080
18.083, -0.38051, 0.30449, -1.02168, 0.71719, 1.57080
18.100, -0.38051, 0.30449, -1.02168, 0.71719, 1.57080
18.117, -0.38051, 0.30449, -1.02168, 0.71719, 1.57080
18.133, -0.38051, 0.30449, -1.02168, 0.71719, 1.57080
18.150, -0.38051, 0.30449, -1.02168, 0.71719, 1.57080
18.167, -0.38051, 0.30449, -1.02168, 0.71719, 1.57080
18.183, -0.38051, 0.30449, -1.02168, 0.71719, 1.57080
18.200, -0.38051, 0.30449, -1.02168, 0.71719, 1.57080
18.217, -0.38051, 0.30449, -1.02168, 0.71719, 1.57080
18.233, -0.38051, 0.30449, -1.02168, 0.71719, 1.57080
18.250, -0.38051, 0.30449, -1.02168, 0.71720, 1.57080
18.267, -0.38051, 0.30449, -1.02168, 0.71720, 1.57080
18.283, -0.38051, 0.30449, -1.02168, 0.71720, 1.57080
18.300, -0.38051, 0.30449, -1.02168, 0.71720, 1.57080
18.317, -0.38051, 0.30449, -1.02168, 0.71720, 1.57080
18.333, -0.38051, 0.30449, -1.02168, 0.71720, 1.57080
18.350, -0.38051, 0.30449, -1.02168, 0.71720, 1.57080
18.367, -0.38051, 0.30449, -1.02168, 0.71720, 1.57079
18.383, -0.38051, 0.30449, -1.02168, 0.71720, 1.57079
18.400, -0.38051, 0.30449, -1.02168, 0.71720, 1.57079
18.417, -0.38051, 0.30449, -1.02168, 0.71720, 1.57079
18.433, -0.38051, 0.30449, -1.02168, 0.71720, 1.57079
18.450, -0.38051, 0.30449, -1.02168, 0.71720, 1.57079
18.467, -0.38051, 0.30449, -1.02168, 0.71720, 1.57079
18.483, -0.38051, 0.30449, -1.02168, 0.71720, 1.57079
18.500, -0.38051, 0.30449, -1.02168, 0.71720, 1.57079
18.517, -0.38051, 0.30449, -1.02168, 0.71720, 1.57079
18.533, -0.38051, 0.30449, -1.02168, 0.71720, 1.57079
18.550, -0.38051, 0.30449, -1.02168, 0.71720, 1.57079
18.567, -0.38051, 0.30449, -1.02168, 0.71720, 1.57079
18.583, -0.38051, 0.30449, -1.02168, 0.71720, 1.57079
18.600, -0.38051, 0.30449, -1.02168, 0.71720, 1.57079
18.617, -0.38051, 0.30449, -1.02168, 0.71720, 1.57079
18.633, -0.38051, 0.30449, -1.02168, 0.71720, 1.57079
18.650, -0.38051, 0.30449, -1.02168, 0.71719, 1.57079
18.667, -0.38051, 0.30449, -1.02168, 0.71719, 1.57079
18.683, -0.38051, 0.30449, -1.02168, 0.71719, 1.57080
18.700, -0.38051, 0.30449, -1.02168, 0.71719, 1.57080
18.717, -0.38051, 0.30449, -1.02168, 0.71719, 1.57080
18.733, -0.38051, 0.30449, -1.02168, 0.71719, 1.57080
18.750, -0.38051, 0.30449, -1.02168, 0.71719, 1.57080
18.767, -0.38051, 0.30449, -1.02168, 0.71719, 1.57080
18.783, -0.38051, 0.30449, -1.02168, 0.71719, 1.57080
18.800, -0.38051, 0.30449, -1.02168, 0.71719, 1.57080
18.817, -0.38051, 0.30449, -1.02168, 0.71719, 1.57081
18.833, -0.38051, 0.30450, -1.02166, 0.71717, 1.57083
18.850, -0.38051, 0.30451, -1.02162, 0.71714, 1.57089
18.867, -0.38051, 0.30453, -1.02156, 0.71708, 1.57100
18.883, -0.38051, 0.30456, -1.02145, 0.71698, 1.57117
18.900, -0.38051, 0.30460, -1.02130, 0.71685, 1.57142
18.917, -0.38051, 0.30466, -1.02108, 0.71666, 1.57175
18.933, -0.38051, 0.30474, -1.02080, 0.71642, 1.57219
18.950, -0.38051, 0.30485, -1.02044, 0.71612, 1.57274
18.967, -0.38051, 0.30497, -1.02000, 0.71574, 1.57343
18.983, -0.38051, 0.30512, -1.01945, 0.71529, 1.57426
19.000, -0.38051, 0.30530, -1.01881, 0.71476, 1.57525
19.017, -0.38051, 0.30552, -1.01805, 0.71413, 1.57641
19.033, -0.38051, 0.30576, -1.01717, 0.71340, 1.57776
19.050, -0.38051, 0.30604, -1.01616, 0.71256, 1.57931
19.067, -0.38051, 0.30637, -1.01500, 0.71160, 1.58107
19.083, -0.38051, 0.30673, -1.01369, 0.71053, 1.58306
19.100, -0.38051, 0.30714, -1.01223, 0.70932, 1.58529
19.117, -0.38051, 0.30759, -1.01059, 0.70798, 1.58778
19.133, -0.38051, 0.30809, -1.00877, 0.70649, 1.59054
19.150, -0.38051, 0.30865, -1.00677, 0.70485, 1.59358
19.167, -0.38051, 0.30926, -1.00457, 0.70305, 1.59692
19.183, -0.38051, 0.30992, -1.00218, 0.70109, 1.60057
19.200, -0.38051, 0.31065, -0.99960, 0.69895, 1.60454
19.217, -0.38051, 0.31143, -0.99681, 0.69663, 1.60885
19.233, -0.38051, 0.31229, -0.99384, 0.69412, 1.61352
19.250, -0.38051, 0.31320, -0.99067, 0.69141, 1.61855
19.267, -0.38051, 0.31419, -0.98731, 0.68850, 1.62397
19.283, -0.38051, 0.31525, -0.98375, 0.68538, 1.62977
19.300, -0.38051, 0.31638, -0.97999, 0.68203, 1.63596
19.317, -0.38051, 0.31759, -0.97605, 0.67847, 1.64253
19.333, -0.38051, 0.31888, -0.97192, 0.67467, 1.64950
19.350, -0.38051, 0.32025, -0.96763, 0.67063, 1.65685
19.367, -0.38051, 0.32171, -0.96316, 0.66634, 1.66460
19.383, -0.38051, 0.32324, -0.95854, 0.66179, 1.67273
19.400, -0.38051, 0.32486, -0.95378, 0.65699, 1.68125
19.417, -0.38051, 0.32656, -0.94888, 0.65194, 1.69015
19.433, -0.38051, 0.32834, -0.94385, 0.64663, 1.69942
19.450, -0.38051, 0.33020, -0.93871, 0.64106, 1.70904
19.467, -0.38051, 0.33214, -0.93346, 0.63524, 1.71899
19.483, -0.38051, 0.33417, -0.92811, 0.62916, 1.72928
19.500, -0.38051, 0.33627, -0.92267, 0.62282, 1.73987
19.517, -0.38051, 0.33846, -0.91714, 0.61624, 1.75077
19.533, -0.38051, 0.34073, -0.91155, 0.60939, 1.76194
19.550, -0.38051, 0.34309, -0.90590, 0.60229, 1.77339
19.567, -0.38051, 0.34552, -0.90019, 0.59495, 1.78509
19.583, -0.38051, 0.34804, -0.89444, 0.58737, 1.79703
19.600, -0.38051, 0.35063, -0.88865, 0.57955, 1.80920
19.617, -0.38051, 0.35330, -0.88284, 0.57152, 1.82159
19.633, -0.38051, 0.35604, -0.87701, 0.56326, 1.83418
19.650, -0.38051, 0.35886, -0.87118, 0.55480, 1.84695
19.667, -0.38051, 0.36174, -0.86535, 0.54614, 1.85989
19.683, -0.38051, 0.36469, -0.85951, 0.53728, 1.87300
19.700, -0.38051, 0.36771, -0.85368, 0.52824, 1.88625
19.717, -0.38051, 0.37078, -0.84785, 0.51901, 1.89963
19.733, -0.38051, 0.37391, -0.84201, 0.50962, 1.91312
19.750, -0.38051, 0.37710, -0.83618, 0.50006, 1.92673
19.767, -0.38051, 0.38035, -0.83035, 0.49034, 1.94042
19.783, -0.38051, 0.38364, -0.82451, 0.48048, 1.95418
19.800, -0.38051, 0.38698, -0.81868, 0.47047, 1.96801
19.817, -0.38051, 0.39037, -0.81285, 0.46032, 1.98188
19.833, -0.38051, 0.39380, -0.80701, 0.45005, 1.99579
19.850, -0.38051, 0.39727, -0.80118, 0.43966, 2.00972
19.867, -0.38051, 0.40078, -0.79535, 0.42916, 2.02366
19.883, -0.38051, 0.40433, -0.78951, 0.41855, 2.03760
19.900, -0.38051, 0.40791, -0.78368, 0.40784, 2.05153
19.917, -0.38051, 0.41152, -0.77785, 0.39705, 2.06547
19.933, -0.38051, 0.41516, -0.77201, 0.38617, 2.07941
19.950, -0.38051, 0.41882, -0.76618, 0.37521, 2.09334
19.967, -0.38051, 0.42251, -0.76035, 0.36419, 2.10728
19.983, -0.38051, 0.42622, -0.75451, 0.35310, 2.12121
20.000, -0.38051, 0.42994, -0.74868, 0.34196, 2.13515
20.017, -0.38051, 0.43369, -0.74285, 0.33078, 2.14909
20.033, -0.38051, 0.43744, -0.73701, 0.31956, 2.16302
20.050, -0.38051, 0.44121, -0.73118, 0.30830, 2.17696
20.067, -0.38051, 0.44498, -0.72535, 0.29702, 2.19090
20.083, -0.38051, 0.44876, -0.71951, 0.28573, 2.20483
20.100, -0.38051, 0.45254, -0.71368, 0.27443, 2.21877
20.117, -0.38051, 0.45632, -0.70785, 0.26312, 2.23270
20.133, -0.38051, 0.46011, -0.70201, 0.25182, 2.24664
20.150, -0.38051, 0.46389, -0.69618, 0.24051, 2.26058
20.167, -0.38051, 0.46767, -0.69035, 0.22920, 2.27451
20.183, -0.38051, 0.47145, -0.68451, 0.21790, 2.28845
20.200, -0.38051, 0.47524, -0.67868, 0.20659, 2.30239
20.217, -0.38051, 0.47902, -0.67285, 0.19529, 2.31632
20.233, -0.38051, 0.48280, -0.66701, 0.18398, 2.33026
20.250, -0.38051, 0.48659, -0.66118, 0.17268, 2.34419
20.267, -0.38051, 0.49037, -0.65535, 0.16137, 2.35813
20.283, -0.38051, 0.49415, -0.64951, 0.15007, 2.37207
20.300, -0.38051, 0.49793, -0.64368, 0.13876, 2.38600
20.317, -0.38051, 0.50172, -0.63785, 0.12746, 2.39994
20.333, -0.38051, 0.50550, -0.63201, 0.11615, 2.41388
20.350, -0.38051, 0.50928, -0.62618, 0.10484, 2.42781
20.367, -0.38051, 0.51306, -0.62035, 0.09354, 2.44175
20.383, -0.38051, 0.51685, -0.61451, 0.08223, 2.45569
20.400, -0.38051, 0.52063, -0.60868, 0.07093, 2.46962
20.417, -0.38051, 0.52441, -0.60285, 0.05962, 2.48356
20.433, -0.38051, 0.52820, -0.59701, 0.04832, 2.49749
20.450, -0.38051, 0.53198, -0.59118, 0.03702, 2.51143
20.467, -0.38051, 0.53575, -0.58535, 0.02574, 2.52537
20.483, -0.38051, 0.53953, -0.57951, 0.01449, 2.53930
20.500, -0.38051, 0.54329, -0.57368, 0.00326, 2.55324
20.517, -0.38051, 0.54704, -0.56785, -0.00793, 2.56718
20.533, -0.38051, 0.55078, -0.56201, -0.01907, 2.58111
20.550, -0.38051, 0.55450, -0.55618, -0.03017, 2.59505
20.567, -0.38051, 0.55820, -0.55035, -0.04120, 2.60898
20.583, -0.38051, 0.56188, -0.54451, -0.05216, 2.62292
20.600, -0.38051, 0.56554, -0.53868, -0.06305, 2.63686
20.617, -0.38051, 0.56917, -0.53285, -0.07386, 2.65079
20.633, -0.38051, 0.57277, -0.52701, -0.08457, 2.66473
20.650, -0.38051, 0.57634, -0.52118, -0.09519, 2.67867
20.667, -0.38051, 0.57988, -0.51535, -0.10571, 2.69260
20.683, -0.38051, 0.58338, -0.50951, -0.11611, 2.70654
20.700, -0.38051, 0.58684, -0.50368, -0.12640, 2.72046
20.717, -0.38051, 0.59025, -0.49785, -0.13655, 2.73437
20.733, -0.38051, 0.59363, -0.49201, -0.14658, 2.74823
20.750, -0.38051, 0.59696, -0.48618, -0.15646, 2.76204
20.767, -0.38051, 0.60024, -0.48035, -0.16619, 2.77579
20.783, -0.38051, 0.60346, -0.47451, -0.17577, 2.78945
20.800, -0.38051, 0.60663, -0.46868, -0.18519, 2.80303
20.817, -0.38051, 0.60975, -0.46285, -0.19443, 2.81649
20.833, -0.38051, 0.61281, -0.45701, -0.20349, 2.82984
20.850, -0.38051, 0.61580, -0.45118, -0.21237, 2.84305
20.867, -0.38051, 0.61873, -0.44535, -0.22106, 2.85611
20.883, -0.38051, 0.62160, -0.43951, -0.22954, 2.86901
20.900, -0.38051, 0.62439, -0.43368, -0.23782, 2.88173
20.917, -0.38051, 0.62711, -0.42786, -0.24588, 2.89426
20.933, -0.38051, 0.62976, -0.42205, -0.25372, 2.90659
20.950, -0.38051, 0.63233, -0.41628, -0.26133, 2.91870
20.967, -0.38051, 0.63482, -0.41054, -0.26870, 2.93058
20.983, -0.38051, 0.63723, -0.40484, -0.27583, 2.94221
21.000, -0.38051, 0.63956, -0.39921, -0.28270, 2.95358
21.017, -0.38051, 0.64181, -0.39363, -0.28932, 2.96468
21.033, -0.38051, 0.64397, -0.38813, -0.29568, 2.97549
21.050, -0.38051, 0.64605, -0.38272, -0.30179, 2.98600
21.067, -0.38051, 0.64806, -0.37739, -0.30764, 2.99620
21.083, -0.38051, 0.64997, -0.37217, -0.31323, 3.00606
21.100, -0.38051, 0.65181, -0.36706, -0.31857, 3.01558
21.117, -0.38051, 0.65357, -0.36207, -0.32366, 3.02475
21.133, -0.38051, 0.65524, -0.35721, -0.32849, 3.03355
21.150, -0.38051, 0.65683, -0.35249, -0.33306, 3.04196
21.167, -0.38051, 0.65834, -0.34791, -0.33738, 3.04998
21.183, -0.38051, 0.65977, -0.34350, -0.34145, 3.05762
21.200, -0.38051, 0.66112, -0.33925, -0.34527, 3.06486
21.217, -0.38051, 0.66239, -0.33517, -0.34887, 3.07172
21.233, -0.38051, 0.66357, -0.33128, -0.35223, 3.07819
21.250, -0.38051, 0.66468, -0.32759, -0.35538, 3.08427
21.267, -0.38051, 0.66572, -0.32409, -0.35831, 3.08997
21.283, -0.38051, 0.66669, -0.32078, -0.36104, 3.09527
21.300, -0.38051, 0.66758, -0.31767, -0.36357, 3.10020
21.317, -0.38051, 0.66842, -0.31475, -0.36592, 3.10477
21.333, -0.38051, 0.66918, -0.31202, -0.36808, 3.10899
21.350, -0.38051, 0.66989, -0.30949, -0.37006, 3.11287
21.367, -0.38051, 0.67054, -0.30716, -0.37188, 3.11643
21.383, -0.38051, 0.67113, -0.30502, -0.37354, 3.11968
21.400, -0.38051, 0.67167, -0.30307, -0.37504, 3.12264
21.417, -0.38051, 0.67216, -0.30131, -0.37640, 3.12533
21.433, -0.38051, 0.67260, -0.29972, -0.37762, 3.12774
21.450, -0.38051, 0.67299, -0.29830, -0.37871, 3.12991
21.467, -0.38051, 0.67334, -0.29704, -0.37968, 3.13183
21.483, -0.38051, 0.67365, -0.29593, -0.38053, 3.13353
21.500, -0.38051, 0.67393, -0.29495, -0.38127, 3.13502
21.517, -0.38051, 0.67416, -0.29411, -0.38191, 3.13632
21.533, -0.38051, 0.67436, -0.29338, -0.38246, 3.13743
21.550, -0.38051, 0.67454, -0.29277, -0.38292, 3.13838
21.567, -0.38051, 0.67468, -0.29226, -0.38330, 3.13916
21.583, -0.38051, 0.67480, -0.29184, -0.38361, 3.13981
21.600, -0.38051, 0.67489, -0.29150, -0.38386, 3.14033
21.617, -0.38051, 0.67497, -0.29124, -0.38405, 3.14074
21.633, -0.38051, 0.67502, -0.29104, -0.38419, 3.14105
21.650, -0.38051, 0.67506, -0.29090, -0.38429, 3.14127
21.667, -0.38051, 0.67509, -0.29081, -0.38435, 3.14142
21.683, -0.38051, 0.67511, -0.29075, -0.38439, 3.14152
21.700, -0.38051, 0.67512, -0.29072, -0.38440, 3.14157
21.717, -0.38051, 0.67512, -0.29071, -0.38441, 3.14159
21.733, -0.38051, 0.67512, -0.29071, -0.38441, 3.14159
21.750, -0.38051, 0.67512, -0.29071, -0.38441, 3.14159
21.767, -0.38051, 0.67512, -0.29071, -0.38441, 3.14159
21.783, -0.38051, 0.67512, -0.29071, -0.38441, 3.14159
21.800, -0.38051, 0.67512, -0.29071, -0.38441, 3.14159
21.817, -0.38051, 0.67512, -0.29071, -0.38441, 3.14159
21.833, -0.38051, 0.67512, -0.29071, -0.38441, 3.14159
21.850, -0.38051, 0.67512, -0.29071, -0.38441, 3.14159
21.867, -0.38051, 0.67512, -0.29071, -0.38441, 3.14159
21.883, -0.38051, 0.67512, -0.29071, -0.38441, 3.14159
21.900, -0.38051, 0.67512, -0.29071, -0.38441, 3.14159
21.917, -0.38051, 0.67512, -0.29071, -0.38441, 3.14160
21.933, -0.38051, 0.67512, -0.29071, -0.38441, 3.14160
21.950, -0.38051, 0.67512, -0.29071, -0.38441, 3.14160
21.967, -0.38051, 0.67512, -0.29071, -0.38441, 3.14160
21.983, -0.38051, 0.67512, -0.29071, -0.38441, 3.14160
22.000, -0.38051, 0.67512, -0.29071, -0.38441, 3.14160
22.017, -0.38051, 0.67512, -0.29071, -0.38441, 3.14160
22.033, -0.38051, 0.67512, -0.29071, -0.38441, 3.14160
22.050, -0.38051, 0.67512, -0.29071, -0.38441, 3.14160
22.067, -0.38051, 0.67512, -0.29071, -0.38441, 3.14160
22.083, -0.38051, 0.67512, -0.29071, -0.38441, 3.14160
22.100, -0.38051, 0.67512, -0.29071, -0.38440, 3.14160
22.117, -0.38051, 0.67512, -0.29071, -0.38440, 3.14160
22.133, -0.38051, 0.67512, -0.29071, -0.38440, 3.14160
22.150, -0.38051, 0.67512, -0.29071, -0.38440, 3.14160
22.167, -0.38051, 0.67512, -0.29071, -0.38440, 3.14160
22.183, -0.38051, 0.67512, -0.29071, -0.38440, 3.14160
22.200, -0.38051, 0.67512, -0.29071, -0.38440, 3.14160
22.217, -0.38051, 0.67512, -0.29071, -0.38440, 3.14160
22.233, -0.38051, 0.67512, -0.29071, -0.38440, 3.14160
22.250, -0.38051, 0.67512, -0.29071, -0.38440, 3.14160
22.267, -0.38051, 0.67512, -0.29071, -0.38440, 3.14160
22.283, -0.38051, 0.67512, -0.29071, -0.38440, 3.14160
22.300, -0.38051, 0.67512, -0.29071, -0.38440, 3.14160
22.317, -0.38051, 0.67512, -0.29071, -0.38440, 3.14160
22.333, -0.38051, 0.67512, -0.29071, -0.38440, 3.14160
22.350, -0.38051, 0.67512, -0.29071, -0.38440, 3.14160
22.367, -0.38051, 0.67512, -0.29071, -0.38440, 3.14160
22.383, -0.38051, 0.67512, -0.29071, -0.38440, 3.14160
22.400, -0.38051, 0.67512, -0.29071, -0.38440, 3.14160
22.417, -0.38051, 0.67512, -0.29071, -0.38440, 3.14160
22.433, -0.38051, 0.67512, -0.29071, -0.38440, 3.14160
22.450, -0.38051, 0.67512, -0.29071, -0.38440, 3.14160
22.467, -0.38051, 0.67512, -0.29071, -0.38441, 3.14160
22.483, -0.38051, 0.67512, -0.29071, -0.38441, 3.14160
22.500, -0.38051, 0.67512, -0.29071, -0.38441, 3.14160
22.517, -0.38051, 0.67512, -0.29071, -0.38441, 3.14160
22.533, -0.38051, 0.67512, -0.29071, -0.38441, 3.14160
22.550, -0.38051, 0.67512, -0.29071, -0.38441, 3.14160
22.567, -0.38051, 0.67512, -0.29071, -0.38441, 3.14160
22.583, -0.38051, 0.67512, -0.29071, -0.38441, 3.14160
22.600, -0.38051, 0.67512, -0.29071, -0.38441, 3.14160
22.617, -0.38051, 0.67512, -0.29071, -0.38441, 3.14160
22.633, -0.38051, 0.67512, -0.29071, -0.38441, 3.14159
22.650, -0.38051, 0.67512, -0.29071, -0.38441, 3.14159
22.667, -0.38051, 0.67512, -0.29071, -0.38441, 3.14159
22.683, -0.38051, 0.67512, -0.29071, -0.38441, 3.14159
22.700, -0.38051, 0.67512, -0.29071, -0.38441, 3.14159
22.717, -0.38051, 0.67512, -0.29071, -0.38441, 3.14159
22.733, -0.38051, 0.67512, -0.29071, -0.38441, 3.14159
22.750, -0.38051, 0.67513, -0.29071, -0.38441, 3.14158
22.767, -0.38051, 0.67514, -0.29073, -0.38442, 3.14155
22.783, -0.38050, 0.67519, -0.29077, -0.38443, 3.14149
22.800, -0.38049, 0.67526, -0.29084, -0.38445, 3.14137
22.817, -0.38048, 0.67538, -0.29094, -0.38447, 3.14120
22.833, -0.38046, 0.67554, -0.29109, -0.38451, 3.14095
22.850, -0.38044, 0.67577, -0.29130, -0.38456, 3.14062
22.867, -0.38041, 0.67607, -0.29157, -0.38462, 3.14018
22.883, -0.38038, 0.67644, -0.29191, -0.38470, 3.13963
22.900, -0.38033, 0.67690, -0.29233, -0.38480, 3.13896
22.917, -0.38028, 0.67747, -0.29284, -0.38492, 3.13815
22.933, -0.38021, 0.67813, -0.29344, -0.38505, 3.13718
22.950, -0.38014, 0.67892, -0.29415, -0.38521, 3.13605
22.967, -0.38005, 0.67982, -0.29498, -0.38540, 3.13474
22.983, -0.37995, 0.68086, -0.29592, -0.38561, 3.13324
23.000, -0.37984, 0.68205, -0.29700, -0.38584, 3.13154
23.017, -0.37971, 0.68339, -0.29821, -0.38611, 3.12962
23.033, -0.37957, 0.68489, -0.29957, -0.38641, 3.12746
23.050, -0.37941, 0.68656, -0.30108, -0.38674, 3.12507
23.067, -0.37923, 0.68841, -0.30276, -0.38711, 3.12241
23.083, -0.37904, 0.69045, -0.30461, -0.38751, 3.11949
23.100, -0.37883, 0.69269, -0.30664, -0.38795, 3.11629
23.117, -0.37860, 0.69512, -0.30886, -0.38843, 3.11279
23.133, -0.37835, 0.69775, -0.31125, -0.38895, 3.10898
23.150, -0.37808, 0.70056, -0.31383, -0.38952, 3.10484
23.167, -0.37778, 0.70358, -0.31658, -0.39013, 3.10038
23.183, -0.37747, 0.70679, -0.31952, -0.39078, 3.09556
23.200, -0.37713, 0.71019, -0.32265, -0.39149, 3.09038
23.217, -0.37677, 0.71379, -0.32595, -0.39224, 3.08484
23.233, -0.37638, 0.71758, -0.32944, -0.39305, 3.07891
23.250, -0.37598, 0.72156, -0.33310, -0.39391, 3.07262
23.267, -0.37555, 0.72572, -0.33695, -0.39483, 3.06595
23.283, -0.37510, 0.73005, -0.34096, -0.39580, 3.05891
23.300, -0.37462, 0.73455, -0.34514, -0.39683, 3.05149
23.317, -0.37413, 0.73920, -0.34947, -0.39793, 3.04370
23.333, -0.37361, 0.74399, -0.35394, -0.39908, 3.03554
23.350, -0.37307, 0.74892, -0.35855, -0.40030, 3.02701
23.367, -0.37251, 0.75397, -0.36329, -0.40159, 3.01812
23.383, -0.37192, 0.75913, -0.36814, -0.40294, 3.00888
23.400, -0.37131, 0.76440, -0.37311, -0.40436, 2.99931
23.417, -0.37068, 0.76978, -0.37818, -0.40585, 2.98941
23.433, -0.37003, 0.77523, -0.38334, -0.40742, 2.97921
23.450, -0.36935, 0.78077, -0.38859, -0.40906, 2.96872
23.467, -0.36865, 0.78638, -0.39391, -0.41077, 2.95794
23.483, -0.36793, 0.79204, -0.39931, -0.41257, 2.94690
23.500, -0.36719, 0.79776, -0.40476, -0.41444, 2.93560
23.517, -0.36642, 0.80352, -0.41027, -0.41639, 2.92406
23.533, -0.36563, 0.80931, -0.41582, -0.41843, 2.91229
23.550, -0.36482, 0.81512, -0.42140, -0.42055, 2.90031
23.567, -0.36399, 0.82095, -0.42702, -0.42276, 2.88812
23.583, -0.36313, 0.82679, -0.43265, -0.42506, 2.87574
23.600, -0.36225, 0.83262, -0.43829, -0.42744, 2.86319
23.617, -0.36135, 0.83845, -0.44393, -0.42992, 2.85047
23.633, -0.36043, 0.84429, -0.44957, -0.43249, 2.83760
23.650, -0.35948, 0.85012, -0.45522, -0.43516, 2.82460
23.667, -0.35851, 0.85595, -0.46086, -0.43792, 2.81147
23.683, -0.35752, 0.86179, -0.46650, -0.44078, 2.79823
23.700, -0.35651, 0.86762, -0.47215, -0.44374, 2.78489
23.717, -0.35547, 0.87345, -0.47779, -0.44679, 2.77146
23.733, -0.35441, 0.87929, -0.48343, -0.44994, 2.75796
23.750, -0.35333, 0.88512, -0.48908, -0.45319, 2.74441
23.767, -0.35223, 0.89095, -0.49472, -0.45653, 2.73081
23.783, -0.35110, 0.89679, -0.50036, -0.45997, 2.71717
23.800, -0.34995, 0.90262, -0.50601, -0.46351, 2.70351
23.817, -0.34878, 0.90845, -0.51165, -0.46715, 2.68985
23.833, -0.34759, 0.91429, -0.51729, -0.47088, 2.67619
23.850, -0.34637, 0.92012, -0.52294, -0.47471, 2.66253
23.867, -0.34513, 0.92595, -0.52858, -0.47863, 2.64886
23.883, -0.34387, 0.93179, -0.53422, -0.48265, 2.63520
23.900, -0.34259, 0.93762, -0.53987, -0.48677, 2.62154
23.917, -0.34128, 0.94345, -0.54551, -0.49099, 2.60788
23.933, -0.33995, 0.94929, -0.55115, -0.49530, 2.59421
23.950, -0.33860, 0.95512, -0.55680, -0.49971, 2.58055
23.967, -0.33723, 0.96095, -0.56244, -0.50421, 2.56689
23.983, -0.33583, 0.96679, -0.56808, -0.50880, 2.55323
24.000, -0.33441, 0.97262, -0.57373, -0.51348, 2.53956
24.017, -0.33297, 0.97845, -0.57937, -0.51825, 2.52590
24.033, -0.33150, 0.98429, -0.58501, -0.52310, 2.51224
24.050, -0.33002, 0.99012, -0.59066, -0.52804, 2.49858
24.067, -0.32851, 0.99595, -0.59630, -0.53306, 2.48491
24.083, -0.32698, 1.00179, -0.60194, -0.53816, 2.47125
24.100, -0.32542, 1.00762, -0.60758, -0.54334, 2.45759
24.117, -0.32385, 1.01345, -0.61323, -0.54860, 2.44392
24.133, -0.32225, 1.01929, -0.61887, -0.55394, 2.43026
24.150, -0.32063, 1.02512, -0.62451, -0.55935, 2.41660
24.167, -0.31898, 1.03095, -0.63016, -0.56483, 2.40294
24.183, -0.31732, 1.03679, -0.63580, -0.57038, 2.38927
24.200, -0.31563, 1.04262, -0.64144, -0.57600, 2.37561
24.217, -0.31392, 1.04845, -0.64709, -0.58169, 2.36195
24.233, -0.31218, 1.05429, -0.65273, -0.58744, 2.34829
24.250, -0.31042, 1.06012, -0.65837, -0.59326, 2.33462
24.267, -0.30865, 1.06595, -0.66402, -0.59913, 2.32096
24.283, -0.30684, 1.07179, -0.66966, -0.60507, 2.30730
24.300, -0.30502, 1.07762, -0.67530, -0.61107, 2.29364
24.317, -0.30317, 1.08345, -0.68095, -0.61712, 2.27997
24.333, -0.30130, 1.08929, -0.68659, -0.62323, 2.26631
24.350, -0.29941, 1.09512, -0.69223, -0.62939, 2.25265
24.367, -0.29750, 1.10095, -0.69788, -0.63561, 2.23899
24.383, -0.29556, 1.10679, -0.70352, -0.64187, 2.22532
24.400, -0.29360, 1.11262, -0.70916, -0.64818, 2.21166
24.417, -0.29162, 1.11845, -0.71481, -0.65454, 2.19800
24.433, -0.28962, 1.12429, -0.72045, -0.66094, 2.18434
24.450, -0.28760, 1.13012, -0.72609, -0.66739, 2.17067
24.467, -0.28556, 1.13595, -0.73174, -0.67388, 2.15701
24.483, -0.28350, 1.14179, -0.73738, -0.68040, 2.14335
24.500, -0.28142, 1.14762, -0.74302, -0.68697, 2.12969
24.517, -0.27933, 1.15345, -0.74867, -0.69357, 2.11602
24.533, -0.27722, 1.15929, -0.75431, -0.70020, 2.10236
24.550, -0.27509, 1.16512, -0.75995, -0.70687, 2.08870
24.567, -0.27295, 1.17095, -0.76560, -0.71357, 2.07503
24.583, -0.27080, 1.17679, -0.77124, -0.72029, 2.06137
24.600, -0.26864, 1.18262, -0.77688, -0.72705, 2.04771
24.617, -0.26646, 1.18845, -0.78253, -0.73383, 2.03405
24.633, -0.26427, 1.19429, -0.78817, -0.74063, 2.02038
24.650, -0.26208, 1.20012, -0.79381, -0.74746, 2.00672
24.667, -0.25987, 1.20595, -0.79946, -0.75430, 1.99306
24.683, -0.25766, 1.21179, -0.80510, -0.76117, 1.97940
24.700, -0.25543, 1.21762, -0.81074, -0.76805, 1.96573
24.717, -0.25321, 1.22345, -0.81638, -0.77495, 1.95207
24.733, -0.25097, 1.22929, -0.82203, -0.78186, 1.93841
24.750, -0.24873, 1.23512, -0.82767, -0.78879, 1.92475
24.767, -0.24649, 1.24095, -0.83331, -0.79572, 1.91108
24.783, -0.24424, 1.24679, -0.83896, -0.80266, 1.89742
24.800, -0.24200, 1.25262, -0.84460, -0.80961, 1.88376
24.817, -0.23975, 1.25845, -0.85024, -0.81656, 1.87010
24.833, -0.23750, 1.26429, -0.85589, -0.82352, 1.85643
24.850, -0.23525, 1.27012, -0.86153, -0.83048, 1.84277
24.867, -0.23299, 1.27595, -0.86717, -0.83744, 1.82911
24.883, -0.23074, 1.28179, -0.87282, -0.84440, 1.81545
24.900, -0.22849, 1.28762, -0.87846, -0.85136, 1.80178
24.917, -0.22624, 1.29345, -0.88410, -0.85831, 1.78812
24.933, -0.22399, 1.29929, -0.88975, -0.86527, 1.77446
24.950, -0.22174, 1.30512, -0.89539, -0.87223, 1.76080
24.967, -0.21949, 1.31095, -0.90103, -0.87919, 1.74713
24.983, -0.21724, 1.31679, -0.90668, -0.88615, 1.73347
25.000, -0.21499, 1.32262, -0.91232, -0.89311, 1.71981
25.017, -0.21274, 1.32845, -0.91796, -0.90007, 1.70614
25.033, -0.21049, 1.33429, -0.92361, -0.90702, 1.69248
25.050, -0.20824, 1.34012, -0.92925, -0.91398, 1.67882
25.067, -0.20599, 1.34595, -0.93489, -0.92094, 1.66516
25.083, -0.20374, 1.35179, -0.94054, -0.92790, 1.65149
25.100, -0.20149, 1.35762, -0.94618, -0.93486, 1.63783
25.117, -0.19924, 1.36345, -0.95182, -0.94182, 1.62417
25.133, -0.19699, 1.36929, -0.95747, -0.94878, 1.61051
25.150, -0.19474, 1.37512, -0.96311, -0.95573, 1.59684
25.167, -0.19249, 1.38095, -0.96875, -0.96269, 1.58318
25.183, -0.19024, 1.38679, -0.97440, -0.96965, 1.56952
25.200, -0.18798, 1.39262, -0.98004, -0.97661, 1.55586
25.217, -0.18573, 1.39845, -0.98568, -0.98357, 1.54219
25.233, -0.18348, 1.40429, -0.99133, -0.99053, 1.52853
25.250, -0.18123, 1.41012, -0.99697, -0.99749, 1.51487
25.267, -0.17898, 1.41595, -1.00261, -1.00444, 1.50121
25.283, -0.17673, 1.42179, -1.00826, -1.01140, 1.48754
25.300, -0.17448, 1.42762, -1.01390, -1.01836, 1.47388
25.317, -0.17223, 1.43345, -1.01954, -1.02532, 1.46022
25.333, -0.16998, 1.43929, -1.02518, -1.03228, 1.44656
25.350, -0.16773, 1.44512, -1.03083, -1.03924, 1.43289
25.367, -0.16548, 1.45095, -1.03647, -1.04620, 1.41923
25.383, -0.16323, 1.45679, -1.04211, -1.05315, 1.40557
25.400, -0.16098, 1.46262, -1.04776, -1.06011, 1.39191
25.417, -0.15873, 1.46845, -1.05340, -1.06707, 1.37824
25.433, -0.15648, 1.47429, -1.05904, -1.07403, 1.36458
25.450, -0.15423, 1.48012, -1.06469, -1.08099, 1.35092
25.467, -0.15198, 1.48595, -1.07033, -1.08795, 1.33725
25.483, -0.14973, 1.49179, -1.07597, -1.09491, 1.32359
25.500, -0.14748, 1.49762, -1.08162, -1.10186, 1.30993
25.517, -0.14522, 1.50345, -1.08726, -1.10882, 1.29627
25.533, -0.14297, 1.50929, -1.09290, -1.11578, 1.28260
25.550, -0.14072, 1.51512, -1.09855, -1.12274, 1.26894
25.567, -0.13847, 1.52095, -1.10419, -1.12969, 1.25528
25.583, -0.13623, 1.52679, -1.10983, -1.13663, 1.24162
25.600, -0.13398, 1.53262, -1.11548, -1.14357, 1.22795
25.617, -0.13174, 1.53845, -1.12112, -1.15049, 1.21429
25.633, -0.12950, 1.54429, -1.12676, -1.15741, 1.20063
25.650, -0.12726, 1.55012, -1.13241, -1.16431, 1.18697
25.667, -0.12504, 1.55595, -1.13805, -1.17120, 1.17330
25.683, -0.12281, 1.56179, -1.14369, -1.17807, 1.15964
25.700, -0.12060, 1.56762, -1.14934, -1.18492, 1.14598
25.717, -0.11839, 1.57345, -1.15498, -1.19175, 1.13232
25.733, -0.11620, 1.57929, -1.16062, -1.19856, 1.11865
25.750, -0.11401, 1.58512, -1.16627, -1.20535, 1.10499
25.767, -0.11184, 1.59095, -1.17191, -1.21211, 1.09133
25.783, -0.10967, 1.59679, -1.17755, -1.21885, 1.07767
25.800, -0.10752, 1.60262, -1.18320, -1.22556, 1.06400
25.817, -0.10538, 1.60845, -1.18884, -1.23223, 1.05034
25.833, -0.10326, 1.61429, -1.19448, -1.23888, 1.03668
25.850, -0.10115, 1.62012, -1.20013, -1.24549, 1.02302
25.867, -0.09905, 1.62595, -1.20577, -1.25206, 1.00935
25.883, -0.09698, 1.63179, -1.21141, -1.25860, 0.99569
25.900, -0.09492, 1.63762, -1.21706, -1.26510, 0.98203
25.917, -0.09288, 1.64345, -1.22270, -1.27155, 0.96836
25.933, -0.09086, 1.64929, -1.22834, -1.27797, 0.95470
25.950, -0.08885, 1.65512, -1.23398, -1.28434, 0.94104
25.967, -0.08687, 1.66095, -1.23963, -1.29066, 0.92738
25.983, -0.08491, 1.66679, -1.24527, -1.29694, 0.91371
26.000, -0.08298, 1.67262, -1.25091, -1.30317, 0.90005
26.017, -0.08106, 1.67845, -1.25656, -1.30935, 0.88639
26.033, -0.07917, 1.68429, -1.26220, -1.31547, 0.87273
26.050, -0.07730, 1.69012, -1.26784, -1.32154, 0.85906
26.067, -0.07546, 1.69595, -1.27349, -1.32755, 0.84540
26.083, -0.07363, 1.70179, -1.27913, -1.33351, 0.83174
26.100, -0.07183, 1.70762, -1.28477, -1.33941, 0.81808
26.117, -0.07005, 1.71345, -1.29042, -1.34524, 0.80441
26.133, -0.06830, 1.71929, -1.29606, -1.35101, 0.79075
26.150, -0.06656, 1.72512, -1.30170, -1.35672, 0.77709
26.167, -0.06485, 1.73095, -1.30735, -1.36236, 0.76343
26.183, -0.06316, 1.73679, -1.31299, -1.36793, 0.74976
26.200, -0.06150, 1.74262, -1.31863, -1.37343, 0.73610
26.217, -0.05985, 1.74845, -1.32428, -1.37886, 0.72244
26.233, -0.05823, 1.75429, -1.32992, -1.38422, 0.70878
26.250, -0.05663, 1.76012, -1.33556, -1.38950, 0.69511
26.267, -0.05506, 1.76595, -1.34121, -1.39470, 0.68145
26.283, -0.05351, 1.77179, -1.34685, -1.39983, 0.66779
26.300, -0.05197, 1.77762, -1.35249, -1.40487, 0.65413
26.317, -0.05047, 1.78345, -1.35814, -1.40983, 0.64046
26.333, -0.04898, 1.78929, -1.36378, -1.41471, 0.62680
26.350, -0.04752, 1.79512, -1.36942, -1.41951, 0.61314
26.367, -0.04607, 1.80095, -1.37507, -1.42421, 0.59947
26.383, -0.04466, 1.80679, -1.38071, -1.42883, 0.58581
26.400, -0.04326, 1.81262, -1.38635, -1.43336, 0.57215
26.417, -0.04189, 1.81845, -1.39200, -1.43779, 0.55849
26.433, -0.04054, 1.82429, -1.39764, -1.44213, 0.54482
26.450, -0.03921, 1.83012, -1.40328, -1.44637, 0.53116
26.467, -0.03790, 1.83595, -1.40893, -1.45052, 0.51750
26.483, -0.03662, 1.84179, -1.41457, -1.45457, 0.50384
26.500, -0.03536, 1.84762, -1.42021, -1.45852, 0.49017
26.517, -0.03412, 1.85345, -1.42586, -1.46238, 0.47651
26.533, -0.03290, 1.85929, -1.43150, -1.46614, 0.46285
26.550, -0.03171, 1.86512, -1.43714, -1.46980, 0.44919
26.567, -0.03054, 1.87095, -1.44279, -1.47337, 0.43552
26.583, -0.02939, 1.87679, -1.44843, -1.47684, 0.42187
26.600, -0.02826, 1.88262, -1.45407, -1.48021, 0.40824
26.617, -0.02716, 1.88845, -1.45971, -1.48348, 0.39465
26.633, -0.02608, 1.89429, -1.46536, -1.48666, 0.38110
26.650, -0.02502, 1.90012, -1.47100, -1.48974, 0.36761
26.667, -0.02398, 1.90595, -1.47664, -1.49273, 0.35420
26.683, -0.02297, 1.91179, -1.48229, -1.49561, 0.34088
26.700, -0.02198, 1.91762, -1.48793, -1.49841, 0.32766
26.717, -0.02101, 1.92345, -1.49357, -1.50110, 0.31455
26.733, -0.02007, 1.92929, -1.49922, -1.50370, 0.30157
26.750, -0.01914, 1.93512, -1.50486, -1.50620, 0.28873
26.767, -0.01824, 1.94095, -1.51050, -1.50862, 0.27604
26.783, -0.01736, 1.94679, -1.51615, -1.51094, 0.26352
26.800, -0.01651, 1.95262, -1.52178, -1.51317, 0.25118
26.817, -0.01567, 1.95845, -1.52739, -1.51532, 0.23903
26.833, -0.01486, 1.96427, -1.53298, -1.51738, 0.22708
26.850, -0.01408, 1.97006, -1.53853, -1.51936, 0.21535
26.867, -0.01331, 1.97583, -1.54404, -1.52125, 0.20386
26.883, -0.01257, 1.98155, -1.54950, -1.52307, 0.19261
26.900, -0.01185, 1.98722, -1.55490, -1.52481, 0.18161
26.917, -0.01115, 1.99284, -1.56023, -1.52647, 0.17089
26.933, -0.01047, 1.99839, -1.56548, -1.52805, 0.16045
26.950, -0.00982, 2.00385, -1.57065, -1.52957, 0.15030
26.967, -0.00919, 2.00924, -1.57572, -1.53101, 0.14047
26.983, -0.00858, 2.01452, -1.58069, -1.53238, 0.13096
27.000, -0.00799, 2.01971, -1.58556, -1.53369, 0.12178
27.017, -0.00743, 2.02477, -1.59030, -1.53492, 0.11296
27.033, -0.00689, 2.02972, -1.59492, -1.53610, 0.10449
27.050, -0.00637, 2.03453, -1.59940, -1.53721, 0.09640
27.067, -0.00588, 2.03919, -1.60374, -1.53826, 0.08868
27.083, -0.00540, 2.04371, -1.60792, -1.53925, 0.08134
27.100, -0.00495, 2.04807, -1.61195, -1.54018, 0.07437
27.117, -0.00452, 2.05225, -1.61580, -1.54106, 0.06777
27.133, -0.00412, 2.05626, -1.61948, -1.54188, 0.06154
27.150, -0.00374, 2.06008, -1.62298, -1.54265, 0.05569
27.167, -0.00338, 2.06370, -1.62630, -1.54337, 0.05021
27.183, -0.00304, 2.06713, -1.62943, -1.54404, 0.04510
27.200, -0.00272, 2.07036, -1.63238, -1.54466, 0.04035
27.217, -0.00243, 2.07340, -1.63515, -1.54524, 0.03595
27.233, -0.00216, 2.07625, -1.63774, -1.54578, 0.03188
27.250, -0.00191, 2.07890, -1.64014, -1.54627, 0.02813
27.267, -0.00168, 2.08136, -1.64237, -1.54672, 0.02468
27.283, -0.00147, 2.08362, -1.64441, -1.54713, 0.02153
27.300, -0.00127, 2.08569, -1.64627, -1.54751, 0.01866
27.317, -0.00110, 2.08757, -1.64796, -1.54785, 0.01606
27.333, -0.00094, 2.08926, -1.64948, -1.54816, 0.01371
27.350, -0.00080, 2.09079, -1.65085, -1.54843, 0.01160
27.367, -0.00067, 2.09215, -1.65207, -1.54868, 0.00972
27.383, -0.00056, 2.09335, -1.65316, -1.54890, 0.00805
27.400, -0.00046, 2.09441, -1.65411, -1.54909, 0.00659
27.417, -0.00037, 2.09534, -1.65494, -1.54925, 0.00531
27.433, -0.00030, 2.09614, -1.65566, -1.54940, 0.00422
27.450, -0.00023, 2.09682, -1.65627, -1.54952, 0.00328
27.467, -0.00018, 2.09739, -1.65678, -1.54962, 0.00249
27.483, -0.00013, 2.09787, -1.65721, -1.54970, 0.00184
27.500, -0.00010, 2.09826, -1.65755, -1.54977, 0.00132
27.517, -0.00007, 2.09856, -1.65782, -1.54983, 0.00090
27.533, -0.00004, 2.09880, -1.65803, -1.54987, 0.00059
27.550, -0.00003, 2.09897, -1.65819, -1.54990, 0.00035
27.567, -0.00002, 2.09910, -1.65830, -1.54992, 0.00019
27.583, -0.00001, 2.09918, -1.65837, -1.54993, 0.00009
27.600, -0.00000, 2.09922, -1.65841, -1.54994, 0.00003
27.617, -0.00000, 2.09924, -1.65842, -1.54994, 0.00001
27.633, -0.00000, 2.09925, -1.65843, -1.54994, 0.00000
