kutzer/Scor6AxisToolbox/Scor6AxisToolbox Example SCRIPTS/ScorBotBoxData_sCurve/BSEPR_Velocity_100Hz.csv
Time_(s), Base_Joint_Velocity_(rad/s), Shoulder_Joint_Velocity_(rad/s), Elbow_Joint_Velocity_(rad/s), Wrist_Pitch_Joint_Velocity_(rad/s), Wrist_Roll_Joint_Velocity_(rad/s)
0.000, -0.00001, -0.00002, 0.00002, 0.00003, -0.00005
0.010, -0.00004, -0.00022, 0.00020, 0.00010, -0.00041
0.020, -0.00008, -0.00062, 0.00057, 0.00021, -0.00105
0.030, -0.00015, -0.00122, 0.00111, 0.00036, -0.00197
0.040, -0.00023, -0.00202, 0.00184, 0.00055, -0.00317
0.050, -0.00034, -0.00302, 0.00275, 0.00077, -0.00466
0.060, -0.00046, -0.00422, 0.00384, 0.00103, -0.00642
0.070, -0.00060, -0.00562, 0.00511, 0.00133, -0.00847
0.080, -0.00075, -0.00722, 0.00656, 0.00167, -0.01080
0.090, -0.00093, -0.00902, 0.00819, 0.00204, -0.01341
0.100, -0.00112, -0.01102, 0.01001, 0.00245, -0.01631
0.110, -0.00133, -0.01322, 0.01200, 0.00290, -0.01948
0.120, -0.00156, -0.01562, 0.01418, 0.00338, -0.02294
0.130, -0.00181, -0.01822, 0.01653, 0.00390, -0.02668
0.140, -0.00208, -0.02102, 0.01907, 0.00446, -0.03071
0.150, -0.00236, -0.02402, 0.02179, 0.00506, -0.03501
0.160, -0.00267, -0.02722, 0.02469, 0.00569, -0.03960
0.170, -0.00299, -0.03062, 0.02777, 0.00636, -0.04447
0.180, -0.00333, -0.03422, 0.03104, 0.00707, -0.04962
0.190, -0.00368, -0.03802, 0.03448, 0.00781, -0.05505
0.200, -0.00406, -0.04202, 0.03810, 0.00860, -0.06077
0.210, -0.00445, -0.04622, 0.04191, 0.00942, -0.06676
0.220, -0.00487, -0.05062, 0.04590, 0.01027, -0.07304
0.230, -0.00530, -0.05522, 0.05006, 0.01117, -0.07960
0.240, -0.00575, -0.06002, 0.05441, 0.01210, -0.08645
0.250, -0.00621, -0.06502, 0.05894, 0.01307, -0.09357
0.260, -0.00670, -0.07022, 0.06365, 0.01407, -0.10098
0.270, -0.00720, -0.07562, 0.06855, 0.01512, -0.10867
0.280, -0.00772, -0.08122, 0.07362, 0.01620, -0.11664
0.290, -0.00826, -0.08702, 0.07887, 0.01731, -0.12489
0.300, -0.00882, -0.09302, 0.08431, 0.01847, -0.13343
0.310, -0.00940, -0.09922, 0.08993, 0.01966, -0.14224
0.320, -0.00999, -0.10561, 0.09572, 0.02089, -0.15134
0.330, -0.01061, -0.11222, 0.10170, 0.02216, -0.16073
0.340, -0.01124, -0.11903, 0.10786, 0.02346, -0.17039
0.350, -0.01189, -0.12599, 0.11421, 0.02480, -0.18034
0.360, -0.01255, -0.13300, 0.12071, 0.02618, -0.19056
0.370, -0.01324, -0.14000, 0.12727, 0.02760, -0.20107
0.380, -0.01394, -0.14700, 0.13383, 0.02905, -0.21186
0.390, -0.01467, -0.15400, 0.14037, 0.03054, -0.22294
0.400, -0.01541, -0.16100, 0.14693, 0.03207, -0.23429
0.410, -0.01617, -0.16800, 0.15348, 0.03364, -0.24593
0.420, -0.01695, -0.17500, 0.16003, 0.03524, -0.25785
0.430, -0.01774, -0.18200, 0.16658, 0.03688, -0.27006
0.440, -0.01855, -0.18900, 0.17313, 0.03855, -0.28254
0.450, -0.01936, -0.19600, 0.17968, 0.04027, -0.29530
0.460, -0.02017, -0.20300, 0.18623, 0.04202, -0.30836
0.470, -0.02098, -0.21000, 0.19279, 0.04381, -0.32167
0.480, -0.02179, -0.21700, 0.19934, 0.04563, -0.33515
0.490, -0.02260, -0.22402, 0.20588, 0.04750, -0.34859
0.500, -0.02341, -0.23097, 0.21244, 0.04940, -0.36203
0.510, -0.02422, -0.23779, 0.21900, 0.05133, -0.37547
0.520, -0.02504, -0.24439, 0.22548, 0.05331, -0.38891
0.530, -0.02585, -0.25078, 0.23180, 0.05532, -0.40235
0.540, -0.02666, -0.25698, 0.23793, 0.05737, -0.41579
0.550, -0.02747, -0.26298, 0.24387, 0.05946, -0.42923
0.560, -0.02828, -0.26878, 0.24964, 0.06158, -0.44267
0.570, -0.02909, -0.27438, 0.25523, 0.06374, -0.45611
0.580, -0.02990, -0.27978, 0.26063, 0.06594, -0.46954
0.590, -0.03071, -0.28498, 0.26585, 0.06818, -0.48299
0.600, -0.03152, -0.28998, 0.27090, 0.07045, -0.49645
0.610, -0.03233, -0.29478, 0.27576, 0.07276, -0.50979
0.620, -0.03314, -0.29938, 0.28044, 0.07511, -0.52290
0.630, -0.03395, -0.30378, 0.28494, 0.07749, -0.53570
0.640, -0.03476, -0.30798, 0.28925, 0.07991, -0.54821
0.650, -0.03557, -0.31198, 0.29339, 0.08237, -0.56045
0.660, -0.03638, -0.31578, 0.29735, 0.08487, -0.57240
0.670, -0.03719, -0.31938, 0.30112, 0.08740, -0.58408
0.680, -0.03800, -0.32278, 0.30472, 0.08997, -0.59547
0.690, -0.03881, -0.32598, 0.30813, 0.09258, -0.60657
0.700, -0.03962, -0.32898, 0.31136, 0.09523, -0.61740
0.710, -0.04043, -0.33178, 0.31441, 0.09791, -0.62794
0.720, -0.04124, -0.33438, 0.31728, 0.10063, -0.63820
0.730, -0.04205, -0.33678, 0.31997, 0.10339, -0.64818
0.740, -0.04286, -0.33898, 0.32248, 0.10618, -0.65788
0.750, -0.04367, -0.34098, 0.32480, 0.10902, -0.66730
0.760, -0.04448, -0.34278, 0.32695, 0.11189, -0.67643
0.770, -0.04529, -0.34438, 0.32891, 0.11479, -0.68528
0.780, -0.04610, -0.34578, 0.33069, 0.11774, -0.69385
0.790, -0.04692, -0.34698, 0.33230, 0.12072, -0.70214
0.800, -0.04773, -0.34798, 0.33372, 0.12373, -0.71014
0.810, -0.04854, -0.34878, 0.33496, 0.12679, -0.71787
0.820, -0.04935, -0.34938, 0.33601, 0.12988, -0.72531
0.830, -0.05016, -0.34979, 0.33689, 0.13301, -0.73247
0.840, -0.05097, -0.34997, 0.33759, 0.13618, -0.73934
0.850, -0.05178, -0.35001, 0.33810, 0.13938, -0.74594
0.860, -0.05259, -0.35000, 0.33844, 0.14263, -0.75225
0.870, -0.05340, -0.35000, 0.33858, 0.14590, -0.75828
0.880, -0.05421, -0.35000, 0.33860, 0.14922, -0.76403
0.890, -0.05502, -0.35000, 0.33859, 0.15258, -0.76950
0.900, -0.05583, -0.35000, 0.33859, 0.15597, -0.77468
0.910, -0.05664, -0.35000, 0.33860, 0.15940, -0.77959
0.920, -0.05745, -0.35000, 0.33859, 0.16286, -0.78421
0.930, -0.05826, -0.35000, 0.33859, 0.16635, -0.78855
0.940, -0.05907, -0.35000, 0.33859, 0.16985, -0.79260
0.950, -0.05988, -0.35000, 0.33859, 0.17334, -0.79638
0.960, -0.06069, -0.35000, 0.33859, 0.17682, -0.79987
0.970, -0.06150, -0.35000, 0.33859, 0.18031, -0.80308
0.980, -0.06231, -0.35000, 0.33859, 0.18379, -0.80601
0.990, -0.06312, -0.35000, 0.33859, 0.18728, -0.80866
1.000, -0.06393, -0.35000, 0.33859, 0.19077, -0.81102
1.010, -0.06474, -0.35000, 0.33859, 0.19425, -0.81310
1.020, -0.06555, -0.35000, 0.33859, 0.19774, -0.81490
1.030, -0.06636, -0.35000, 0.33859, 0.20122, -0.81642
1.040, -0.06717, -0.35000, 0.33859, 0.20471, -0.81766
1.050, -0.06798, -0.35000, 0.33859, 0.20820, -0.81861
1.060, -0.06879, -0.35000, 0.33859, 0.21168, -0.81928
1.070, -0.06961, -0.35000, 0.33859, 0.21517, -0.81967
1.080, -0.07042, -0.35000, 0.33859, 0.21866, -0.81979
1.090, -0.07123, -0.35000, 0.33859, 0.22214, -0.81975
1.100, -0.07204, -0.35000, 0.33859, 0.22563, -0.81975
1.110, -0.07285, -0.35000, 0.33859, 0.22912, -0.81976
1.120, -0.07366, -0.35000, 0.33859, 0.23260, -0.81976
1.130, -0.07447, -0.35000, 0.33859, 0.23609, -0.81976
1.140, -0.07528, -0.35000, 0.33859, 0.23957, -0.81976
1.150, -0.07609, -0.35000, 0.33859, 0.24306, -0.81976
1.160, -0.07690, -0.35000, 0.33859, 0.24655, -0.81976
1.170, -0.07771, -0.35000, 0.33859, 0.25004, -0.81976
1.180, -0.07852, -0.35000, 0.33859, 0.25353, -0.81976
1.190, -0.07933, -0.35000, 0.33859, 0.25700, -0.81976
1.200, -0.08014, -0.35000, 0.33859, 0.26044, -0.81976
1.210, -0.08095, -0.35000, 0.33859, 0.26385, -0.81976
1.220, -0.08176, -0.35000, 0.33859, 0.26722, -0.81976
1.230, -0.08257, -0.35000, 0.33859, 0.27055, -0.81976
1.240, -0.08338, -0.35000, 0.33859, 0.27384, -0.81976
1.250, -0.08419, -0.35000, 0.33859, 0.27709, -0.81976
1.260, -0.08500, -0.35000, 0.33859, 0.28031, -0.81976
1.270, -0.08581, -0.35000, 0.33859, 0.28349, -0.81976
1.280, -0.08662, -0.35000, 0.33859, 0.28663, -0.81976
1.290, -0.08743, -0.35000, 0.33859, 0.28973, -0.81976
1.300, -0.08824, -0.35000, 0.33859, 0.29280, -0.81976
1.310, -0.08905, -0.35000, 0.33859, 0.29583, -0.81976
1.320, -0.08986, -0.35000, 0.33859, 0.29883, -0.81976
1.330, -0.09067, -0.35000, 0.33859, 0.30178, -0.81976
1.340, -0.09149, -0.35000, 0.33859, 0.30470, -0.81976
1.350, -0.09230, -0.35000, 0.33859, 0.30758, -0.81976
1.360, -0.09311, -0.35000, 0.33859, 0.31042, -0.81976
1.370, -0.09392, -0.35000, 0.33859, 0.31323, -0.81976
1.380, -0.09473, -0.35000, 0.33859, 0.31600, -0.81976
1.390, -0.09554, -0.35000, 0.33859, 0.31873, -0.81976
1.400, -0.09635, -0.35000, 0.33859, 0.32143, -0.81976
1.410, -0.09716, -0.35000, 0.33859, 0.32409, -0.81976
1.420, -0.09797, -0.35000, 0.33859, 0.32671, -0.81976
1.430, -0.09878, -0.35000, 0.33859, 0.32929, -0.81976
1.440, -0.09959, -0.35000, 0.33859, 0.33183, -0.81976
1.450, -0.10040, -0.35000, 0.33859, 0.33434, -0.81976
1.460, -0.10121, -0.35000, 0.33859, 0.33681, -0.81976
1.470, -0.10202, -0.35000, 0.33859, 0.33925, -0.81976
1.480, -0.10283, -0.35000, 0.33859, 0.34164, -0.81976
1.490, -0.10364, -0.35000, 0.33859, 0.34400, -0.81976
1.500, -0.10445, -0.35000, 0.33859, 0.34633, -0.81976
1.510, -0.10526, -0.35000, 0.33859, 0.34861, -0.81976
1.520, -0.10607, -0.35000, 0.33859, 0.35086, -0.81976
1.530, -0.10688, -0.35000, 0.33859, 0.35307, -0.81976
1.540, -0.10769, -0.35000, 0.33859, 0.35524, -0.81976
1.550, -0.10850, -0.35000, 0.33859, 0.35738, -0.81976
1.560, -0.10931, -0.35000, 0.33859, 0.35948, -0.81976
1.570, -0.11012, -0.35000, 0.33859, 0.36154, -0.81976
1.580, -0.11093, -0.35000, 0.33859, 0.36356, -0.81976
1.590, -0.11174, -0.35000, 0.33859, 0.36555, -0.81976
1.600, -0.11256, -0.35000, 0.33859, 0.36750, -0.81976
1.610, -0.11337, -0.35000, 0.33859, 0.36941, -0.81976
1.620, -0.11417, -0.35000, 0.33859, 0.37129, -0.81976
1.630, -0.11499, -0.35000, 0.33859, 0.37312, -0.81976
1.640, -0.11580, -0.35000, 0.33859, 0.37493, -0.81976
1.650, -0.11661, -0.35000, 0.33859, 0.37669, -0.81976
1.660, -0.11742, -0.35000, 0.33859, 0.37841, -0.81976
1.670, -0.11821, -0.35000, 0.33859, 0.38010, -0.81976
1.680, -0.11899, -0.35000, 0.33859, 0.38175, -0.81976
1.690, -0.11974, -0.35000, 0.33859, 0.38337, -0.81976
1.700, -0.12048, -0.35000, 0.33859, 0.38495, -0.81976
1.710, -0.12120, -0.35000, 0.33859, 0.38649, -0.81976
1.720, -0.12190, -0.35000, 0.33859, 0.38799, -0.81976
1.730, -0.12258, -0.35000, 0.33859, 0.38945, -0.81976
1.740, -0.12325, -0.35000, 0.33859, 0.39088, -0.81976
1.750, -0.12389, -0.35000, 0.33859, 0.39227, -0.81976
1.760, -0.12452, -0.35000, 0.33859, 0.39362, -0.81976
1.770, -0.12513, -0.35000, 0.33859, 0.39494, -0.81976
1.780, -0.12572, -0.35000, 0.33859, 0.39622, -0.81976
1.790, -0.12630, -0.35000, 0.33859, 0.39746, -0.81976
1.800, -0.12685, -0.35000, 0.33859, 0.39867, -0.81976
1.810, -0.12739, -0.35000, 0.33859, 0.39983, -0.81976
1.820, -0.12791, -0.35000, 0.33859, 0.40096, -0.81976
1.830, -0.12841, -0.35000, 0.33859, 0.40206, -0.81976
1.840, -0.12889, -0.35000, 0.33859, 0.40311, -0.81976
1.850, -0.12936, -0.35000, 0.33859, 0.40413, -0.81976
1.860, -0.12980, -0.35000, 0.33859, 0.40511, -0.81976
1.870, -0.13023, -0.35000, 0.33859, 0.40605, -0.81976
1.880, -0.13064, -0.35000, 0.33859, 0.40696, -0.81976
1.890, -0.13103, -0.35000, 0.33859, 0.40783, -0.81976
1.900, -0.13140, -0.35000, 0.33859, 0.40866, -0.81976
1.910, -0.13176, -0.35000, 0.33859, 0.40945, -0.81976
1.920, -0.13210, -0.35000, 0.33859, 0.41021, -0.81976
1.930, -0.13241, -0.35000, 0.33859, 0.41093, -0.81976
1.940, -0.13271, -0.35000, 0.33859, 0.41161, -0.81976
1.950, -0.13300, -0.35000, 0.33859, 0.41226, -0.81976
1.960, -0.13326, -0.35000, 0.33859, 0.41287, -0.81976
1.970, -0.13350, -0.35000, 0.33859, 0.41344, -0.81976
1.980, -0.13373, -0.35000, 0.33859, 0.41397, -0.81976
1.990, -0.13394, -0.35000, 0.33859, 0.41447, -0.81976
2.000, -0.13413, -0.35000, 0.33859, 0.41493, -0.81976
2.010, -0.13430, -0.35000, 0.33859, 0.41535, -0.81976
2.020, -0.13446, -0.35000, 0.33859, 0.41573, -0.81976
2.030, -0.13459, -0.35000, 0.33859, 0.41608, -0.81976
2.040, -0.13471, -0.35000, 0.33859, 0.41639, -0.81976
2.050, -0.13481, -0.35000, 0.33859, 0.41666, -0.81976
2.060, -0.13489, -0.35000, 0.33859, 0.41690, -0.81976
2.070, -0.13496, -0.35000, 0.33859, 0.41710, -0.81976
2.080, -0.13500, -0.35000, 0.33859, 0.41726, -0.81976
2.090, -0.13502, -0.35000, 0.33859, 0.41738, -0.81976
2.100, -0.13503, -0.35000, 0.33859, 0.41746, -0.81976
2.110, -0.13503, -0.35000, 0.33859, 0.41752, -0.81976
2.120, -0.13503, -0.35000, 0.33859, 0.41753, -0.81976
2.130, -0.13503, -0.35000, 0.33859, 0.41752, -0.81976
2.140, -0.13503, -0.35000, 0.33859, 0.41751, -0.81976
2.150, -0.13503, -0.35000, 0.33859, 0.41751, -0.81976
2.160, -0.13503, -0.35000, 0.33859, 0.41751, -0.81976
2.170, -0.13503, -0.35000, 0.33859, 0.41752, -0.81976
2.180, -0.13503, -0.35000, 0.33859, 0.41752, -0.81976
2.190, -0.13503, -0.35000, 0.33859, 0.41752, -0.81976
2.200, -0.13503, -0.35000, 0.33859, 0.41752, -0.81976
2.210, -0.13503, -0.35000, 0.33859, 0.41751, -0.81976
2.220, -0.13503, -0.35000, 0.33859, 0.41752, -0.81976
2.230, -0.13503, -0.35000, 0.33859, 0.41752, -0.81976
2.240, -0.13503, -0.35000, 0.33859, 0.41752, -0.81976
2.250, -0.13503, -0.35000, 0.33859, 0.41752, -0.81976
2.260, -0.13503, -0.35000, 0.33859, 0.41752, -0.81976
2.270, -0.13503, -0.35000, 0.33859, 0.41752, -0.81976
2.280, -0.13503, -0.35000, 0.33859, 0.41752, -0.81976
2.290, -0.13503, -0.35000, 0.33859, 0.41752, -0.81976
2.300, -0.13503, -0.35000, 0.33859, 0.41752, -0.81976
2.310, -0.13503, -0.35000, 0.33859, 0.41752, -0.81976
2.320, -0.13503, -0.35000, 0.33859, 0.41752, -0.81976
2.330, -0.13503, -0.35000, 0.33859, 0.41752, -0.81976
2.340, -0.13503, -0.35000, 0.33859, 0.41752, -0.81976
2.350, -0.13503, -0.35000, 0.33859, 0.41752, -0.81976
2.360, -0.13503, -0.35000, 0.33859, 0.41752, -0.81976
2.370, -0.13503, -0.35000, 0.33859, 0.41752, -0.81976
2.380, -0.13503, -0.35000, 0.33859, 0.41752, -0.81976
2.390, -0.13503, -0.35000, 0.33859, 0.41752, -0.81976
2.400, -0.13503, -0.35000, 0.33859, 0.41752, -0.81976
2.410, -0.13503, -0.35000, 0.33859, 0.41752, -0.81976
2.420, -0.13503, -0.35000, 0.33859, 0.41752, -0.81976
2.430, -0.13503, -0.35000, 0.33859, 0.41752, -0.81976
2.440, -0.13503, -0.35000, 0.33859, 0.41752, -0.81976
2.450, -0.13503, -0.35000, 0.33859, 0.41752, -0.81976
2.460, -0.13503, -0.35000, 0.33859, 0.41752, -0.81976
2.470, -0.13503, -0.35000, 0.33859, 0.41752, -0.81976
2.480, -0.13503, -0.35000, 0.33859, 0.41752, -0.81976
2.490, -0.13503, -0.35000, 0.33859, 0.41752, -0.81976
2.500, -0.13503, -0.35000, 0.33859, 0.41752, -0.81976
2.510, -0.13503, -0.35000, 0.33859, 0.41752, -0.81976
2.520, -0.13503, -0.35000, 0.33859, 0.41752, -0.81976
2.530, -0.13503, -0.35000, 0.33859, 0.41752, -0.81976
2.540, -0.13503, -0.35000, 0.33859, 0.41752, -0.81976
2.550, -0.13503, -0.35000, 0.33859, 0.41752, -0.81976
2.560, -0.13503, -0.35000, 0.33859, 0.41752, -0.81976
2.570, -0.13503, -0.35000, 0.33859, 0.41752, -0.81976
2.580, -0.13503, -0.35000, 0.33859, 0.41752, -0.81976
2.590, -0.13503, -0.35000, 0.33859, 0.41752, -0.81976
2.600, -0.13503, -0.35000, 0.33859, 0.41752, -0.81976
2.610, -0.13503, -0.35000, 0.33859, 0.41752, -0.81976
2.620, -0.13503, -0.35000, 0.33859, 0.41752, -0.81976
2.630, -0.13503, -0.35000, 0.33859, 0.41752, -0.81976
2.640, -0.13503, -0.35000, 0.33859, 0.41752, -0.81976
2.650, -0.13503, -0.35000, 0.33859, 0.41752, -0.81976
2.660, -0.13503, -0.35000, 0.33859, 0.41752, -0.81976
2.670, -0.13503, -0.35000, 0.33859, 0.41752, -0.81976
2.680, -0.13503, -0.35000, 0.33859, 0.41752, -0.81976
2.690, -0.13503, -0.35000, 0.33859, 0.41752, -0.81976
2.700, -0.13503, -0.35000, 0.33859, 0.41752, -0.81976
2.710, -0.13503, -0.35000, 0.33859, 0.41752, -0.81976
2.720, -0.13503, -0.35000, 0.33859, 0.41751, -0.81976
2.730, -0.13503, -0.35000, 0.33859, 0.41751, -0.81976
2.740, -0.13503, -0.35000, 0.33859, 0.41751, -0.81976
2.750, -0.13503, -0.35000, 0.33859, 0.41752, -0.81976
2.760, -0.13503, -0.35000, 0.33859, 0.41752, -0.81976
2.770, -0.13503, -0.35000, 0.33859, 0.41752, -0.81976
2.780, -0.13503, -0.35000, 0.33859, 0.41751, -0.81976
2.790, -0.13503, -0.35000, 0.33859, 0.41749, -0.81976
2.800, -0.13503, -0.35000, 0.33859, 0.41743, -0.81976
2.810, -0.13503, -0.35000, 0.33859, 0.41733, -0.81976
2.820, -0.13502, -0.35000, 0.33859, 0.41718, -0.81976
2.830, -0.13499, -0.35000, 0.33859, 0.41700, -0.81976
2.840, -0.13493, -0.35000, 0.33859, 0.41678, -0.81976
2.850, -0.13486, -0.35000, 0.33859, 0.41653, -0.81976
2.860, -0.13478, -0.35000, 0.33859, 0.41623, -0.81976
2.870, -0.13467, -0.35000, 0.33859, 0.41590, -0.81976
2.880, -0.13455, -0.35000, 0.33859, 0.41554, -0.81976
2.890, -0.13440, -0.35000, 0.33859, 0.41513, -0.81976
2.900, -0.13424, -0.35000, 0.33859, 0.41469, -0.81976
2.910, -0.13406, -0.35000, 0.33859, 0.41421, -0.81976
2.920, -0.13387, -0.35000, 0.33859, 0.41370, -0.81976
2.930, -0.13365, -0.35000, 0.33859, 0.41315, -0.81976
2.940, -0.13342, -0.35000, 0.33859, 0.41256, -0.81976
2.950, -0.13317, -0.35000, 0.33859, 0.41193, -0.81976
2.960, -0.13290, -0.35000, 0.33859, 0.41126, -0.81976
2.970, -0.13261, -0.35000, 0.33859, 0.41056, -0.81976
2.980, -0.13230, -0.35000, 0.33859, 0.40982, -0.81976
2.990, -0.13198, -0.35000, 0.33859, 0.40905, -0.81976
3.000, -0.13163, -0.35000, 0.33859, 0.40823, -0.81976
3.010, -0.13127, -0.35000, 0.33859, 0.40738, -0.81976
3.020, -0.13089, -0.35000, 0.33859, 0.40649, -0.81976
3.030, -0.13049, -0.35000, 0.33859, 0.40557, -0.81976
3.040, -0.13008, -0.35000, 0.33859, 0.40460, -0.81976
3.050, -0.12964, -0.35000, 0.33859, 0.40360, -0.81976
3.060, -0.12919, -0.35000, 0.33859, 0.40257, -0.81976
3.070, -0.12872, -0.35000, 0.33859, 0.40149, -0.81976
3.080, -0.12823, -0.35000, 0.33859, 0.40038, -0.81976
3.090, -0.12772, -0.35000, 0.33859, 0.39923, -0.81976
3.100, -0.12720, -0.35000, 0.33859, 0.39804, -0.81976
3.110, -0.12665, -0.35000, 0.33859, 0.39682, -0.81976
3.120, -0.12609, -0.35000, 0.33859, 0.39556, -0.81976
3.130, -0.12551, -0.35000, 0.33859, 0.39426, -0.81976
3.140, -0.12491, -0.35000, 0.33859, 0.39293, -0.81976
3.150, -0.12430, -0.35000, 0.33859, 0.39155, -0.81976
3.160, -0.12366, -0.35000, 0.33859, 0.39014, -0.81976
3.170, -0.12301, -0.35000, 0.33859, 0.38870, -0.81976
3.180, -0.12234, -0.35000, 0.33859, 0.38721, -0.81976
3.190, -0.12165, -0.35000, 0.33859, 0.38569, -0.81976
3.200, -0.12094, -0.35000, 0.33859, 0.38413, -0.81976
3.210, -0.12021, -0.35000, 0.33859, 0.38253, -0.81976
3.220, -0.11947, -0.35000, 0.33859, 0.38090, -0.81976
3.230, -0.11871, -0.35000, 0.33859, 0.37923, -0.81976
3.240, -0.11792, -0.35000, 0.33859, 0.37752, -0.81976
3.250, -0.11712, -0.35000, 0.33859, 0.37578, -0.81976
3.260, -0.11631, -0.35000, 0.33859, 0.37399, -0.81976
3.270, -0.11550, -0.35000, 0.33859, 0.37217, -0.81976
3.280, -0.11469, -0.35000, 0.33859, 0.37032, -0.81976
3.290, -0.11388, -0.35000, 0.33859, 0.36842, -0.81976
3.300, -0.11307, -0.35000, 0.33859, 0.36649, -0.81976
3.310, -0.11226, -0.35000, 0.33859, 0.36452, -0.81976
3.320, -0.11145, -0.35000, 0.33859, 0.36252, -0.81976
3.330, -0.11064, -0.35000, 0.33859, 0.36047, -0.81976
3.340, -0.10983, -0.35000, 0.33859, 0.35839, -0.81976
3.350, -0.10902, -0.35000, 0.33859, 0.35627, -0.81976
3.360, -0.10821, -0.35000, 0.33859, 0.35412, -0.81976
3.370, -0.10740, -0.35000, 0.33859, 0.35193, -0.81976
3.380, -0.10659, -0.35000, 0.33859, 0.34970, -0.81976
3.390, -0.10578, -0.35000, 0.33859, 0.34743, -0.81976
3.400, -0.10497, -0.35000, 0.33859, 0.34512, -0.81976
3.410, -0.10416, -0.35000, 0.33859, 0.34278, -0.81976
3.420, -0.10335, -0.35000, 0.33859, 0.34040, -0.81976
3.430, -0.10254, -0.35000, 0.33859, 0.33799, -0.81976
3.440, -0.10173, -0.35000, 0.33859, 0.33553, -0.81976
3.450, -0.10092, -0.35000, 0.33859, 0.33304, -0.81976
3.460, -0.10011, -0.35000, 0.33859, 0.33052, -0.81976
3.470, -0.09929, -0.35000, 0.33859, 0.32795, -0.81976
3.480, -0.09848, -0.35000, 0.33859, 0.32535, -0.81976
3.490, -0.09767, -0.35000, 0.33859, 0.32271, -0.81976
3.500, -0.09686, -0.35000, 0.33859, 0.32003, -0.81976
3.510, -0.09605, -0.35000, 0.33859, 0.31732, -0.81976
3.520, -0.09524, -0.35000, 0.33859, 0.31457, -0.81976
3.530, -0.09443, -0.35000, 0.33859, 0.31178, -0.81976
3.540, -0.09362, -0.35000, 0.33859, 0.30895, -0.81976
3.550, -0.09281, -0.35000, 0.33859, 0.30609, -0.81976
3.560, -0.09200, -0.35000, 0.33859, 0.30319, -0.81976
3.570, -0.09119, -0.35000, 0.33859, 0.30025, -0.81976
3.580, -0.09038, -0.35000, 0.33859, 0.29727, -0.81976
3.590, -0.08957, -0.35000, 0.33859, 0.29426, -0.81976
3.600, -0.08876, -0.35000, 0.33859, 0.29121, -0.81976
3.610, -0.08795, -0.35000, 0.33859, 0.28813, -0.81976
3.620, -0.08714, -0.35000, 0.33859, 0.28500, -0.81976
3.630, -0.08633, -0.35000, 0.33859, 0.28184, -0.81976
3.640, -0.08552, -0.35000, 0.33859, 0.27864, -0.81976
3.650, -0.08471, -0.35000, 0.33859, 0.27541, -0.81976
3.660, -0.08390, -0.35000, 0.33859, 0.27213, -0.81976
3.670, -0.08309, -0.35000, 0.33859, 0.26882, -0.81976
3.680, -0.08228, -0.35000, 0.33859, 0.26548, -0.81976
3.690, -0.08147, -0.35000, 0.33859, 0.26209, -0.81976
3.700, -0.08066, -0.35000, 0.33859, 0.25867, -0.81976
3.710, -0.07985, -0.35000, 0.33859, 0.25520, -0.81976
3.720, -0.07904, -0.35000, 0.33859, 0.25171, -0.81976
3.730, -0.07823, -0.35000, 0.33859, 0.24822, -0.81976
3.740, -0.07741, -0.35000, 0.33859, 0.24473, -0.81976
3.750, -0.07660, -0.35000, 0.33859, 0.24125, -0.81976
3.760, -0.07579, -0.35000, 0.33859, 0.23776, -0.81976
3.770, -0.07498, -0.35000, 0.33859, 0.23428, -0.81976
3.780, -0.07417, -0.35000, 0.33859, 0.23079, -0.81976
3.790, -0.07336, -0.35000, 0.33859, 0.22730, -0.81976
3.800, -0.07255, -0.35000, 0.33859, 0.22382, -0.81975
3.810, -0.07174, -0.35000, 0.33859, 0.22033, -0.81976
3.820, -0.07093, -0.35000, 0.33859, 0.21684, -0.81976
3.830, -0.07012, -0.35000, 0.33859, 0.21336, -0.81973
3.840, -0.06931, -0.35000, 0.33859, 0.20987, -0.81946
3.850, -0.06850, -0.35000, 0.33859, 0.20639, -0.81888
3.860, -0.06769, -0.35000, 0.33859, 0.20290, -0.81803
3.870, -0.06688, -0.35000, 0.33859, 0.19941, -0.81689
3.880, -0.06607, -0.35000, 0.33859, 0.19593, -0.81547
3.890, -0.06526, -0.35000, 0.33859, 0.19244, -0.81377
3.900, -0.06445, -0.35000, 0.33859, 0.18895, -0.81179
3.910, -0.06364, -0.35000, 0.33859, 0.18547, -0.80953
3.920, -0.06283, -0.35000, 0.33859, 0.18198, -0.80698
3.930, -0.06202, -0.35000, 0.33859, 0.17850, -0.80415
3.940, -0.06121, -0.35000, 0.33859, 0.17501, -0.80104
3.950, -0.06040, -0.35000, 0.33859, 0.17152, -0.79765
3.960, -0.05959, -0.35000, 0.33859, 0.16803, -0.79398
3.970, -0.05878, -0.35000, 0.33859, 0.16455, -0.79002
3.980, -0.05797, -0.35000, 0.33859, 0.16107, -0.78578
3.990, -0.05716, -0.35000, 0.33859, 0.15761, -0.78126
4.000, -0.05635, -0.35000, 0.33860, 0.15420, -0.77646
4.010, -0.05554, -0.35000, 0.33859, 0.15082, -0.77137
4.020, -0.05472, -0.35000, 0.33859, 0.14749, -0.76601
4.030, -0.05391, -0.35000, 0.33861, 0.14420, -0.76036
4.040, -0.05310, -0.35000, 0.33856, 0.14094, -0.75443
4.050, -0.05229, -0.35000, 0.33838, 0.13771, -0.74822
4.060, -0.05148, -0.35002, 0.33800, 0.13453, -0.74172
4.070, -0.05067, -0.34996, 0.33744, 0.13138, -0.73494
4.080, -0.04986, -0.34975, 0.33671, 0.12827, -0.72788
4.090, -0.04905, -0.34933, 0.33579, 0.12520, -0.72054
4.100, -0.04824, -0.34871, 0.33469, 0.12216, -0.71292
4.110, -0.04743, -0.34789, 0.33341, 0.11916, -0.70502
4.120, -0.04662, -0.34687, 0.33194, 0.11620, -0.69683
4.130, -0.04581, -0.34564, 0.33030, 0.11328, -0.68836
4.140, -0.04500, -0.34422, 0.32847, 0.11039, -0.67961
4.150, -0.04419, -0.34260, 0.32647, 0.10754, -0.67057
4.160, -0.04338, -0.34078, 0.32428, 0.10473, -0.66126
4.170, -0.04257, -0.33876, 0.32191, 0.10195, -0.65166
4.180, -0.04176, -0.33654, 0.31937, 0.09921, -0.64178
4.190, -0.04095, -0.33412, 0.31663, 0.09651, -0.63162
4.200, -0.04014, -0.33150, 0.31372, 0.09385, -0.62118
4.210, -0.03933, -0.32868, 0.31063, 0.09122, -0.61045
4.220, -0.03852, -0.32565, 0.30736, 0.08863, -0.59944
4.230, -0.03771, -0.32243, 0.30390, 0.08608, -0.58815
4.240, -0.03690, -0.31901, 0.30027, 0.08357, -0.57658
4.250, -0.03609, -0.31539, 0.29645, 0.08109, -0.56473
4.260, -0.03528, -0.31157, 0.29245, 0.07865, -0.55259
4.270, -0.03447, -0.30755, 0.28828, 0.07625, -0.54017
4.280, -0.03366, -0.30333, 0.28392, 0.07388, -0.52748
4.290, -0.03284, -0.29891, 0.27938, 0.07155, -0.51450
4.300, -0.03203, -0.29429, 0.27465, 0.06926, -0.50121
4.310, -0.03122, -0.28946, 0.26975, 0.06701, -0.48776
4.320, -0.03041, -0.28444, 0.26467, 0.06479, -0.47432
4.330, -0.02960, -0.27922, 0.25940, 0.06261, -0.46088
4.340, -0.02879, -0.27380, 0.25395, 0.06047, -0.44744
4.350, -0.02798, -0.26818, 0.24833, 0.05837, -0.43400
4.360, -0.02717, -0.26236, 0.24252, 0.05630, -0.42056
4.370, -0.02636, -0.25634, 0.23653, 0.05427, -0.40712
4.380, -0.02555, -0.25011, 0.23036, 0.05228, -0.39368
4.390, -0.02474, -0.24370, 0.22400, 0.05032, -0.38024
4.400, -0.02393, -0.23708, 0.21749, 0.04840, -0.36680
4.410, -0.02312, -0.23024, 0.21093, 0.04652, -0.35337
4.420, -0.02231, -0.22327, 0.20438, 0.04468, -0.33992
4.430, -0.02150, -0.21626, 0.19783, 0.04287, -0.32648
4.440, -0.02069, -0.20926, 0.19128, 0.04110, -0.31307
4.450, -0.01988, -0.20226, 0.18472, 0.03937, -0.29990
4.460, -0.01907, -0.19526, 0.17817, 0.03768, -0.28704
4.470, -0.01825, -0.18826, 0.17162, 0.03602, -0.27446
4.480, -0.01745, -0.18126, 0.16507, 0.03440, -0.26216
4.490, -0.01666, -0.17426, 0.15852, 0.03282, -0.25014
4.500, -0.01589, -0.16726, 0.15197, 0.03127, -0.23840
4.510, -0.01514, -0.16026, 0.14542, 0.02976, -0.22694
4.520, -0.01440, -0.15326, 0.13887, 0.02829, -0.21577
4.530, -0.01369, -0.14626, 0.13232, 0.02686, -0.20488
4.540, -0.01299, -0.13926, 0.12576, 0.02546, -0.19427
4.550, -0.01231, -0.13226, 0.11920, 0.02410, -0.18394
4.560, -0.01165, -0.12524, 0.11273, 0.02278, -0.17389
4.570, -0.01101, -0.11830, 0.10642, 0.02150, -0.16413
4.580, -0.01038, -0.11151, 0.10031, 0.02025, -0.15465
4.590, -0.00978, -0.10493, 0.09437, 0.01904, -0.14545
4.600, -0.00919, -0.09855, 0.08862, 0.01787, -0.13653
4.610, -0.00862, -0.09237, 0.08304, 0.01673, -0.12789
4.620, -0.00807, -0.08639, 0.07765, 0.01563, -0.11954
4.630, -0.00753, -0.08062, 0.07243, 0.01457, -0.11147
4.640, -0.00702, -0.07504, 0.06740, 0.01355, -0.10368
4.650, -0.00652, -0.06966, 0.06255, 0.01256, -0.09617
4.660, -0.00604, -0.06448, 0.05788, 0.01161, -0.08894
4.670, -0.00558, -0.05950, 0.05339, 0.01070, -0.08200
4.680, -0.00514, -0.05472, 0.04909, 0.00982, -0.07534
4.690, -0.00471, -0.05014, 0.04496, 0.00899, -0.06896
4.700, -0.00431, -0.04576, 0.04102, 0.00818, -0.06286
4.710, -0.00392, -0.04158, 0.03725, 0.00742, -0.05705
4.720, -0.00355, -0.03761, 0.03367, 0.00670, -0.05152
4.730, -0.00320, -0.03383, 0.03027, 0.00601, -0.04626
4.740, -0.00287, -0.03025, 0.02705, 0.00536, -0.04130
4.750, -0.00255, -0.02687, 0.02401, 0.00474, -0.03661
4.760, -0.00226, -0.02369, 0.02115, 0.00417, -0.03220
4.770, -0.00198, -0.02071, 0.01847, 0.00363, -0.02808
4.780, -0.00172, -0.01793, 0.01597, 0.00312, -0.02424
4.790, -0.00148, -0.01535, 0.01366, 0.00266, -0.02068
4.800, -0.00125, -0.01297, 0.01153, 0.00223, -0.01740
4.810, -0.00105, -0.01080, 0.00957, 0.00184, -0.01441
4.820, -0.00086, -0.00882, 0.00780, 0.00149, -0.01170
4.830, -0.00069, -0.00704, 0.00621, 0.00117, -0.00927
4.840, -0.00054, -0.00546, 0.00480, 0.00089, -0.00712
4.850, -0.00041, -0.00408, 0.00357, 0.00065, -0.00525
4.860, -0.00030, -0.00290, 0.00252, 0.00045, -0.00367
4.870, -0.00020, -0.00192, 0.00166, 0.00028, -0.00236
4.880, -0.00012, -0.00114, 0.00097, 0.00015, -0.00134
4.890, -0.00007, -0.00056, 0.00047, 0.00006, -0.00061
4.900, -0.00002, -0.00019, 0.00014, 0.00000, -0.00015
4.910, -0.00000, -0.00001, -0.00000, -0.00001, 0.00003
4.920, -0.00000, -0.00001, -0.00000, -0.00001, 0.00002
4.930, -0.00000, -0.00001, -0.00000, -0.00001, 0.00002
4.940, -0.00000, -0.00001, -0.00000, -0.00001, 0.00002
4.950, -0.00000, -0.00001, -0.00000, -0.00001, 0.00002
4.960, -0.00000, -0.00001, -0.00000, -0.00001, 0.00002
4.970, -0.00000, -0.00001, -0.00000, -0.00001, 0.00001
4.980, -0.00000, -0.00001, -0.00000, -0.00001, 0.00001
4.990, -0.00000, -0.00001, -0.00000, -0.00001, 0.00001
5.000, -0.00000, -0.00000, -0.00000, -0.00001, 0.00001
5.010, -0.00000, -0.00000, -0.00000, -0.00001, 0.00001
5.020, -0.00000, -0.00000, -0.00000, -0.00001, 0.00001
5.030, -0.00000, -0.00000, -0.00000, -0.00001, 0.00001
5.040, -0.00000, -0.00000, -0.00000, -0.00001, 0.00000
5.050, -0.00000, -0.00000, -0.00000, -0.00001, 0.00000
5.060, -0.00000, -0.00000, -0.00000, -0.00001, 0.00000
5.070, -0.00000, -0.00000, -0.00000, -0.00001, -0.00000
5.080, -0.00000, -0.00000, -0.00000, -0.00001, -0.00000
5.090, -0.00000, -0.00000, -0.00000, -0.00001, -0.00000
5.100, -0.00000, -0.00000, -0.00000, -0.00000, -0.00000
5.110, -0.00001, -0.00000, -0.00000, -0.00000, -0.00001
5.120, -0.00001, -0.00000, -0.00000, -0.00000, -0.00001
5.130, -0.00001, -0.00000, -0.00000, -0.00000, -0.00001
5.140, -0.00001, -0.00000, -0.00000, -0.00000, -0.00001
5.150, -0.00001, -0.00000, -0.00000, -0.00000, -0.00001
5.160, -0.00001, -0.00000, -0.00000, -0.00000, -0.00001
5.170, -0.00001, -0.00000, -0.00000, -0.00000, -0.00001
5.180, -0.00001, -0.00000, -0.00000, -0.00000, -0.00001
5.190, -0.00001, -0.00000, -0.00000, -0.00000, -0.00001
5.200, -0.00001, -0.00000, -0.00000, -0.00000, -0.00001
5.210, -0.00001, -0.00000, -0.00000, -0.00000, -0.00001
5.220, -0.00001, -0.00000, -0.00000, -0.00000, -0.00001
5.230, -0.00001, -0.00000, -0.00000, -0.00000, -0.00001
5.240, -0.00001, -0.00000, -0.00000, -0.00000, -0.00002
5.250, -0.00001, 0.00000, 0.00000, 0.00000, -0.00002
5.260, -0.00001, 0.00000, 0.00000, 0.00000, -0.00002
5.270, -0.00001, 0.00000, 0.00000, 0.00000, -0.00002
5.280, -0.00001, 0.00000, 0.00000, 0.00000, -0.00002
5.290, -0.00001, 0.00000, 0.00000, 0.00000, -0.00002
5.300, -0.00001, 0.00000, 0.00000, 0.00000, -0.00002
5.310, -0.00001, 0.00000, 0.00000, 0.00000, -0.00002
5.320, -0.00001, 0.00000, 0.00000, 0.00000, -0.00002
5.330, -0.00000, 0.00000, 0.00000, 0.00000, -0.00002
5.340, -0.00000, 0.00000, 0.00000, 0.00000, -0.00002
5.350, -0.00000, 0.00000, 0.00000, 0.00000, -0.00002
5.360, -0.00000, 0.00000, 0.00000, 0.00000, -0.00002
5.370, -0.00000, 0.00000, 0.00000, 0.00000, -0.00002
5.380, -0.00000, 0.00000, 0.00000, 0.00000, -0.00002
5.390, -0.00000, 0.00000, 0.00000, 0.00000, -0.00002
5.400, -0.00000, 0.00000, 0.00000, 0.00000, -0.00002
5.410, -0.00000, 0.00000, 0.00000, 0.00000, -0.00002
5.420, -0.00000, 0.00000, 0.00000, 0.00000, -0.00002
5.430, -0.00000, 0.00000, 0.00000, 0.00000, -0.00002
5.440, -0.00000, 0.00000, 0.00000, 0.00000, -0.00002
5.450, -0.00000, 0.00000, 0.00000, 0.00000, -0.00002
5.460, -0.00000, 0.00000, 0.00000, 0.00000, -0.00002
5.470, -0.00000, 0.00000, 0.00000, 0.00000, -0.00002
5.480, -0.00000, 0.00000, 0.00000, 0.00000, -0.00002
5.490, -0.00000, 0.00000, 0.00000, 0.00000, -0.00001
5.500, -0.00000, 0.00000, 0.00000, 0.00000, -0.00001
5.510, -0.00000, 0.00000, 0.00000, 0.00000, -0.00001
5.520, -0.00000, 0.00000, 0.00000, 0.00000, -0.00001
5.530, -0.00000, 0.00000, 0.00000, 0.00000, -0.00001
5.540, -0.00000, 0.00000, 0.00000, 0.00000, -0.00001
5.550, -0.00000, 0.00000, 0.00000, 0.00000, -0.00001
5.560, -0.00000, 0.00000, 0.00000, 0.00000, -0.00001
5.570, 0.00000, 0.00000, 0.00000, 0.00000, -0.00001
5.580, 0.00000, 0.00000, 0.00000, 0.00000, -0.00001
5.590, 0.00000, 0.00000, 0.00000, 0.00000, -0.00001
5.600, 0.00000, 0.00000, 0.00000, 0.00000, -0.00001
5.610, 0.00000, 0.00000, 0.00000, 0.00000, -0.00001
5.620, 0.00000, 0.00000, 0.00000, 0.00000, -0.00000
5.630, 0.00000, 0.00000, 0.00000, 0.00000, -0.00000
5.640, 0.00000, 0.00000, 0.00000, 0.00000, -0.00000
5.650, 0.00000, 0.00000, 0.00000, 0.00000, -0.00000
5.660, 0.00000, 0.00000, 0.00000, 0.00000, 0.00000
5.670, 0.00000, 0.00000, 0.00000, 0.00000, 0.00000
5.680, 0.00000, 0.00000, 0.00000, 0.00000, 0.00000
5.690, 0.00000, 0.00000, 0.00000, 0.00000, 0.00000
5.700, 0.00001, 0.00000, 0.00000, 0.00000, 0.00001
5.710, 0.00001, 0.00000, 0.00000, 0.00000, 0.00001
5.720, 0.00001, 0.00000, 0.00000, 0.00000, 0.00001
5.730, 0.00001, 0.00000, 0.00000, 0.00000, 0.00001
5.740, 0.00001, 0.00000, 0.00000, 0.00000, 0.00001
5.750, 0.00001, 0.00000, 0.00000, 0.00000, 0.00001
5.760, 0.00001, 0.00000, 0.00000, 0.00000, 0.00002
5.770, 0.00001, 0.00000, 0.00000, 0.00000, 0.00002
5.780, 0.00001, 0.00000, 0.00000, 0.00000, 0.00002
5.790, 0.00001, 0.00000, 0.00000, 0.00000, 0.00002
5.800, 0.00001, 0.00000, 0.00000, 0.00000, 0.00002
5.810, 0.00001, 0.00000, 0.00000, 0.00000, 0.00003
5.820, 0.00001, 0.00000, 0.00000, 0.00000, 0.00003
5.830, 0.00001, 0.00000, 0.00000, 0.00000, 0.00003
5.840, 0.00001, 0.00000, 0.00000, 0.00000, 0.00003
5.850, 0.00001, 0.00000, 0.00000, 0.00000, 0.00003
5.860, 0.00001, 0.00000, 0.00000, 0.00000, 0.00004
5.870, 0.00001, 0.00000, 0.00000, 0.00000, 0.00004
5.880, 0.00001, 0.00000, 0.00000, 0.00000, 0.00004
5.890, 0.00002, 0.00000, 0.00000, 0.00000, 0.00004
5.900, 0.00002, 0.00000, 0.00000, 0.00000, 0.00004
5.910, 0.00002, 0.00000, 0.00000, 0.00000, 0.00005
5.920, 0.00022, 0.00000, 0.00000, 0.00000, 0.00029
5.930, 0.00062, 0.00000, 0.00000, 0.00000, 0.00072
5.940, 0.00122, 0.00000, 0.00000, 0.00000, 0.00133
5.950, 0.00202, 0.00000, 0.00000, 0.00000, 0.00211
5.960, 0.00302, 0.00000, 0.00000, 0.00000, 0.00307
5.970, 0.00422, 0.00000, 0.00000, 0.00000, 0.00421
5.980, 0.00562, 0.00000, 0.00000, 0.00000, 0.00553
5.990, 0.00722, 0.00000, 0.00000, 0.00000, 0.00703
6.000, 0.00902, 0.00000, 0.00000, 0.00000, 0.00871
6.010, 0.01102, 0.00000, 0.00000, 0.00000, 0.01057
6.020, 0.01322, 0.00000, 0.00000, 0.00000, 0.01260
6.030, 0.01562, 0.00000, 0.00000, 0.00000, 0.01481
6.040, 0.01822, 0.00000, 0.00000, 0.00000, 0.01721
6.050, 0.02102, 0.00000, 0.00000, 0.00000, 0.01978
6.060, 0.02402, 0.00000, 0.00000, 0.00000, 0.02253
6.070, 0.02722, 0.00000, 0.00000, 0.00000, 0.02545
6.080, 0.03062, 0.00000, 0.00000, 0.00000, 0.02856
6.090, 0.03422, 0.00000, 0.00000, 0.00000, 0.03184
6.100, 0.03802, 0.00000, 0.00000, 0.00000, 0.03531
6.110, 0.04200, 0.00000, 0.00000, 0.00000, 0.03895
6.120, 0.04600, 0.00000, 0.00000, 0.00000, 0.04277
6.130, 0.05000, 0.00000, 0.00000, 0.00000, 0.04677
6.140, 0.05400, 0.00000, 0.00000, 0.00000, 0.05095
6.150, 0.05800, 0.00000, 0.00000, 0.00000, 0.05531
6.160, 0.06200, 0.00000, 0.00000, 0.00000, 0.05984
6.170, 0.06600, 0.00000, 0.00000, 0.00000, 0.06456
6.180, 0.07000, 0.00000, 0.00000, 0.00000, 0.06945
6.190, 0.07400, 0.00000, 0.00000, 0.00000, 0.07452
6.200, 0.07800, 0.00000, 0.00000, 0.00000, 0.07977
6.210, 0.08200, 0.00000, 0.00000, 0.00000, 0.08520
6.220, 0.08600, 0.00000, 0.00000, 0.00000, 0.09081
6.230, 0.09000, 0.00000, 0.00000, 0.00000, 0.09660
6.240, 0.09400, 0.00000, 0.00000, 0.00000, 0.10256
6.250, 0.09800, 0.00000, 0.00000, 0.00000, 0.10871
6.260, 0.10200, 0.00000, 0.00000, 0.00000, 0.11503
6.270, 0.10600, 0.00000, 0.00000, 0.00000, 0.12153
6.280, 0.11000, 0.00000, 0.00000, 0.00000, 0.12821
6.290, 0.11400, 0.00000, 0.00000, 0.00000, 0.13507
6.300, 0.11800, 0.00000, 0.00000, 0.00000, 0.14210
6.310, 0.12200, 0.00000, 0.00000, 0.00000, 0.14932
6.320, 0.12600, 0.00000, 0.00000, 0.00000, 0.15671
6.330, 0.13000, 0.00000, 0.00000, 0.00000, 0.16429
6.340, 0.13400, 0.00000, 0.00000, 0.00000, 0.17204
6.350, 0.13800, 0.00000, 0.00000, 0.00000, 0.17997
6.360, 0.14200, 0.00000, 0.00000, 0.00000, 0.18808
6.370, 0.14600, 0.00000, 0.00000, 0.00000, 0.19637
6.380, 0.15000, 0.00000, 0.00000, 0.00000, 0.20483
6.390, 0.15400, 0.00000, 0.00000, 0.00000, 0.21348
6.400, 0.15800, 0.00000, 0.00000, 0.00000, 0.22230
6.410, 0.16200, 0.00000, 0.00000, 0.00000, 0.23130
6.420, 0.16600, 0.00000, 0.00000, 0.00000, 0.24048
6.430, 0.17000, 0.00000, 0.00000, 0.00000, 0.24984
6.440, 0.17400, 0.00000, 0.00000, 0.00000, 0.25939
6.450, 0.17800, 0.00000, 0.00000, 0.00000, 0.26910
6.460, 0.18200, 0.00000, 0.00000, 0.00000, 0.27898
6.470, 0.18600, 0.00000, 0.00000, 0.00000, 0.28892
6.480, 0.19000, 0.00000, 0.00000, 0.00000, 0.29883
6.490, 0.19400, 0.00000, 0.00000, 0.00000, 0.30874
6.500, 0.19800, 0.00000, 0.00000, 0.00000, 0.31866
6.510, 0.20200, 0.00000, 0.00000, 0.00000, 0.32857
6.520, 0.20600, 0.00000, 0.00000, 0.00000, 0.33848
6.530, 0.21000, 0.00000, 0.00000, 0.00000, 0.34840
6.540, 0.21400, 0.00000, 0.00000, 0.00000, 0.35831
6.550, 0.21800, 0.00000, 0.00000, 0.00000, 0.36822
6.560, 0.22200, 0.00000, 0.00000, 0.00000, 0.37813
6.570, 0.22600, 0.00000, 0.00000, 0.00000, 0.38805
6.580, 0.23000, 0.00000, 0.00000, 0.00000, 0.39796
6.590, 0.23400, 0.00000, 0.00000, 0.00000, 0.40787
6.600, 0.23800, 0.00000, 0.00000, 0.00000, 0.41780
6.610, 0.24200, 0.00000, 0.00000, 0.00000, 0.42772
6.620, 0.24600, 0.00000, 0.00000, 0.00000, 0.43755
6.630, 0.25000, 0.00000, 0.00000, 0.00000, 0.44724
6.640, 0.25400, 0.00000, 0.00000, 0.00000, 0.45673
6.650, 0.25800, 0.00000, 0.00000, 0.00000, 0.46604
6.660, 0.26198, 0.00000, 0.00000, 0.00000, 0.47517
6.670, 0.26578, 0.00000, 0.00000, 0.00000, 0.48413
6.680, 0.26938, 0.00000, 0.00000, 0.00000, 0.49290
6.690, 0.27278, 0.00000, 0.00000, 0.00000, 0.50150
6.700, 0.27598, 0.00000, 0.00000, 0.00000, 0.50992
6.710, 0.27898, 0.00000, 0.00000, 0.00000, 0.51815
6.720, 0.28178, 0.00000, 0.00000, 0.00000, 0.52622
6.730, 0.28438, 0.00000, 0.00000, 0.00000, 0.53410
6.740, 0.28678, 0.00000, 0.00000, 0.00000, 0.54180
6.750, 0.28898, 0.00000, 0.00000, 0.00000, 0.54933
6.760, 0.29098, 0.00000, 0.00000, 0.00000, 0.55667
6.770, 0.29278, 0.00000, 0.00000, 0.00000, 0.56384
6.780, 0.29438, 0.00000, 0.00000, 0.00000, 0.57083
6.790, 0.29578, 0.00000, 0.00000, 0.00000, 0.57764
6.800, 0.29698, 0.00000, 0.00000, 0.00000, 0.58427
6.810, 0.29798, 0.00000, 0.00000, 0.00000, 0.59072
6.820, 0.29878, 0.00000, 0.00000, 0.00000, 0.59700
6.830, 0.29939, 0.00000, 0.00000, 0.00000, 0.60309
6.840, 0.29979, 0.00000, 0.00000, 0.00000, 0.60901
6.850, 0.29997, 0.00000, 0.00000, 0.00000, 0.61475
6.860, 0.30001, 0.00000, 0.00000, 0.00000, 0.62031
6.870, 0.30001, 0.00000, 0.00000, 0.00000, 0.62569
6.880, 0.30000, 0.00000, 0.00000, 0.00000, 0.63089
6.890, 0.30000, 0.00000, 0.00000, 0.00000, 0.63591
6.900, 0.30000, 0.00000, 0.00000, 0.00000, 0.64076
6.910, 0.30000, 0.00000, 0.00000, 0.00000, 0.64542
6.920, 0.30000, 0.00000, 0.00000, 0.00000, 0.64991
6.930, 0.30000, 0.00000, 0.00000, 0.00000, 0.65422
6.940, 0.30000, 0.00000, 0.00000, 0.00000, 0.65835
6.950, 0.30000, 0.00000, 0.00000, 0.00000, 0.66230
6.960, 0.30000, 0.00000, 0.00000, 0.00000, 0.66607
6.970, 0.30000, 0.00000, 0.00000, 0.00000, 0.66967
6.980, 0.30000, 0.00000, 0.00000, 0.00000, 0.67308
6.990, 0.30000, 0.00000, 0.00000, 0.00000, 0.67632
7.000, 0.30000, 0.00000, 0.00000, 0.00000, 0.67938
7.010, 0.30000, 0.00000, 0.00000, 0.00000, 0.68226
7.020, 0.30000, 0.00000, 0.00000, 0.00000, 0.68496
7.030, 0.30000, 0.00000, 0.00000, 0.00000, 0.68748
7.040, 0.30000, 0.00000, 0.00000, 0.00000, 0.68983
7.050, 0.30000, 0.00000, 0.00000, 0.00000, 0.69199
7.060, 0.30000, 0.00000, 0.00000, 0.00000, 0.69398
7.070, 0.30000, 0.00000, 0.00000, 0.00000, 0.69578
7.080, 0.30000, 0.00000, 0.00000, 0.00000, 0.69741
7.090, 0.30000, 0.00000, 0.00000, 0.00000, 0.69886
7.100, 0.30000, 0.00000, 0.00000, 0.00000, 0.70013
7.110, 0.30000, 0.00000, 0.00000, 0.00000, 0.70123
7.120, 0.30000, 0.00000, 0.00000, 0.00000, 0.70214
7.130, 0.30000, 0.00000, 0.00000, 0.00000, 0.70288
7.140, 0.30000, 0.00000, 0.00000, 0.00000, 0.70344
7.150, 0.30000, 0.00000, 0.00000, 0.00000, 0.70381
7.160, 0.30000, 0.00000, 0.00000, 0.00000, 0.70401
7.170, 0.30000, 0.00000, 0.00000, 0.00000, 0.70405
7.180, 0.30000, 0.00000, 0.00000, 0.00000, 0.70402
7.190, 0.30000, 0.00000, 0.00000, 0.00000, 0.70402
7.200, 0.30000, 0.00000, 0.00000, 0.00000, 0.70403
7.210, 0.30000, 0.00000, 0.00000, 0.00000, 0.70402
7.220, 0.30000, 0.00000, 0.00000, 0.00000, 0.70402
7.230, 0.30000, 0.00000, 0.00000, 0.00000, 0.70402
7.240, 0.30000, 0.00000, 0.00000, 0.00000, 0.70402
7.250, 0.30000, 0.00000, 0.00000, 0.00000, 0.70402
7.260, 0.30000, 0.00000, 0.00000, 0.00000, 0.70402
7.270, 0.30000, 0.00000, 0.00000, 0.00000, 0.70402
7.280, 0.30000, 0.00000, 0.00000, 0.00000, 0.70402
7.290, 0.30000, 0.00000, 0.00000, 0.00000, 0.70402
7.300, 0.30000, 0.00000, 0.00000, 0.00000, 0.70402
7.310, 0.30000, 0.00000, 0.00000, 0.00000, 0.70402
7.320, 0.30000, 0.00000, 0.00000, 0.00000, 0.70402
7.330, 0.30000, 0.00000, 0.00000, 0.00000, 0.70402
7.340, 0.30000, 0.00000, 0.00000, 0.00000, 0.70402
7.350, 0.30000, 0.00000, 0.00000, 0.00000, 0.70402
7.360, 0.30000, 0.00000, 0.00000, 0.00000, 0.70402
7.370, 0.30000, 0.00000, 0.00000, 0.00000, 0.70402
7.380, 0.30000, 0.00000, 0.00000, 0.00000, 0.70402
7.390, 0.30000, 0.00000, 0.00000, 0.00000, 0.70402
7.400, 0.30000, 0.00000, 0.00000, 0.00000, 0.70402
7.410, 0.30000, 0.00000, 0.00000, 0.00000, 0.70402
7.420, 0.30000, 0.00000, 0.00000, 0.00000, 0.70402
7.430, 0.30000, 0.00000, 0.00000, 0.00000, 0.70402
7.440, 0.30000, 0.00000, 0.00000, 0.00000, 0.70402
7.450, 0.30000, 0.00000, 0.00000, 0.00000, 0.70402
7.460, 0.30000, 0.00000, 0.00000, 0.00000, 0.70402
7.470, 0.30000, 0.00000, 0.00000, 0.00000, 0.70402
7.480, 0.30000, 0.00000, 0.00000, 0.00000, 0.70402
7.490, 0.30000, 0.00000, 0.00000, 0.00000, 0.70402
7.500, 0.30000, 0.00000, 0.00000, 0.00000, 0.70402
7.510, 0.30000, 0.00000, 0.00000, 0.00000, 0.70402
7.520, 0.30000, 0.00000, 0.00000, 0.00000, 0.70402
7.530, 0.30000, 0.00000, 0.00000, 0.00000, 0.70402
7.540, 0.30000, 0.00000, 0.00000, 0.00000, 0.70402
7.550, 0.30000, 0.00000, 0.00000, 0.00000, 0.70402
7.560, 0.30000, 0.00000, 0.00000, 0.00000, 0.70402
7.570, 0.30000, 0.00000, 0.00000, 0.00000, 0.70402
7.580, 0.30000, 0.00000, 0.00000, 0.00000, 0.70402
7.590, 0.30000, 0.00000, 0.00000, 0.00000, 0.70402
7.600, 0.30000, 0.00000, 0.00000, 0.00000, 0.70402
7.610, 0.30000, 0.00000, 0.00000, 0.00000, 0.70402
7.620, 0.30000, 0.00000, 0.00000, 0.00000, 0.70402
7.630, 0.30000, 0.00000, 0.00000, 0.00000, 0.70402
7.640, 0.30000, 0.00000, 0.00000, 0.00000, 0.70402
7.650, 0.30000, 0.00000, 0.00000, 0.00000, 0.70402
7.660, 0.30000, 0.00000, 0.00000, 0.00000, 0.70402
7.670, 0.30000, 0.00000, 0.00000, 0.00000, 0.70402
7.680, 0.30000, 0.00000, 0.00000, 0.00000, 0.70402
7.690, 0.30000, 0.00000, 0.00000, 0.00000, 0.70402
7.700, 0.30000, 0.00000, 0.00000, 0.00000, 0.70402
7.710, 0.30000, 0.00000, 0.00000, 0.00000, 0.70402
7.720, 0.30000, 0.00000, 0.00000, 0.00000, 0.70402
7.730, 0.30000, 0.00000, 0.00000, 0.00000, 0.70402
7.740, 0.30000, 0.00000, 0.00000, 0.00000, 0.70402
7.750, 0.30000, 0.00000, 0.00000, 0.00000, 0.70402
7.760, 0.30000, 0.00000, 0.00000, 0.00000, 0.70402
7.770, 0.30000, 0.00000, 0.00000, 0.00000, 0.70402
7.780, 0.30000, 0.00000, 0.00000, 0.00000, 0.70402
7.790, 0.30000, 0.00000, 0.00000, 0.00000, 0.70402
7.800, 0.30000, 0.00000, 0.00000, 0.00000, 0.70402
7.810, 0.30000, 0.00000, 0.00000, 0.00000, 0.70402
7.820, 0.30000, 0.00000, 0.00000, 0.00000, 0.70402
7.830, 0.30000, 0.00000, 0.00000, 0.00000, 0.70402
7.840, 0.30000, 0.00000, 0.00000, 0.00000, 0.70402
7.850, 0.30000, 0.00000, 0.00000, 0.00000, 0.70402
7.860, 0.30000, 0.00000, 0.00000, 0.00000, 0.70402
7.870, 0.30000, 0.00000, 0.00000, 0.00000, 0.70402
7.880, 0.30000, 0.00000, 0.00000, 0.00000, 0.70402
7.890, 0.30000, 0.00000, 0.00000, 0.00000, 0.70402
7.900, 0.30000, 0.00000, 0.00000, 0.00000, 0.70402
7.910, 0.30000, 0.00000, 0.00000, 0.00000, 0.70402
7.920, 0.30000, 0.00000, 0.00000, 0.00000, 0.70402
7.930, 0.30000, 0.00000, 0.00000, 0.00000, 0.70402
7.940, 0.30000, 0.00000, 0.00000, 0.00000, 0.70402
7.950, 0.30000, 0.00000, 0.00000, 0.00000, 0.70402
7.960, 0.30000, 0.00000, 0.00000, 0.00000, 0.70402
7.970, 0.30000, 0.00000, 0.00000, 0.00000, 0.70402
7.980, 0.30000, 0.00000, 0.00000, 0.00000, 0.70402
7.990, 0.30000, 0.00000, 0.00000, 0.00000, 0.70402
8.000, 0.30000, 0.00000, 0.00000, 0.00000, 0.70402
8.010, 0.30000, 0.00000, 0.00000, 0.00000, 0.70402
8.020, 0.30000, 0.00000, 0.00000, 0.00000, 0.70402
8.030, 0.30000, 0.00000, 0.00000, 0.00000, 0.70402
8.040, 0.30000, 0.00000, 0.00000, 0.00000, 0.70402
8.050, 0.30000, 0.00000, 0.00000, 0.00000, 0.70402
8.060, 0.30000, 0.00000, 0.00000, 0.00000, 0.70402
8.070, 0.30000, 0.00000, 0.00000, 0.00000, 0.70402
8.080, 0.30000, 0.00000, 0.00000, 0.00000, 0.70402
8.090, 0.30000, 0.00000, 0.00000, 0.00000, 0.70402
8.100, 0.30000, 0.00000, 0.00000, 0.00000, 0.70402
8.110, 0.30000, 0.00000, 0.00000, 0.00000, 0.70402
8.120, 0.30000, 0.00000, 0.00000, 0.00000, 0.70402
8.130, 0.30000, 0.00000, 0.00000, 0.00000, 0.70405
8.140, 0.30000, 0.00000, 0.00000, 0.00000, 0.70399
8.150, 0.30000, 0.00000, 0.00000, 0.00000, 0.70377
8.160, 0.30000, 0.00000, 0.00000, 0.00000, 0.70336
8.170, 0.30000, 0.00000, 0.00000, 0.00000, 0.70278
8.180, 0.30000, 0.00000, 0.00000, 0.00000, 0.70201
8.190, 0.30000, 0.00000, 0.00000, 0.00000, 0.70107
8.200, 0.30000, 0.00000, 0.00000, 0.00000, 0.69995
8.210, 0.30000, 0.00000, 0.00000, 0.00000, 0.69865
8.220, 0.30000, 0.00000, 0.00000, 0.00000, 0.69717
8.230, 0.30000, 0.00000, 0.00000, 0.00000, 0.69552
8.240, 0.30000, 0.00000, 0.00000, 0.00000, 0.69368
8.250, 0.30000, 0.00000, 0.00000, 0.00000, 0.69167
8.260, 0.30000, 0.00000, 0.00000, 0.00000, 0.68948
8.270, 0.30000, 0.00000, 0.00000, 0.00000, 0.68710
8.280, 0.30000, 0.00000, 0.00000, 0.00000, 0.68455
8.290, 0.30000, 0.00000, 0.00000, 0.00000, 0.68183
8.300, 0.30000, 0.00000, 0.00000, 0.00000, 0.67892
8.310, 0.30000, 0.00000, 0.00000, 0.00000, 0.67583
8.320, 0.30000, 0.00000, 0.00000, 0.00000, 0.67257
8.330, 0.30000, 0.00000, 0.00000, 0.00000, 0.66913
8.340, 0.30000, 0.00000, 0.00000, 0.00000, 0.66550
8.350, 0.30000, 0.00000, 0.00000, 0.00000, 0.66170
8.360, 0.30000, 0.00000, 0.00000, 0.00000, 0.65772
8.370, 0.30000, 0.00000, 0.00000, 0.00000, 0.65357
8.380, 0.30000, 0.00000, 0.00000, 0.00000, 0.64923
8.390, 0.30000, 0.00000, 0.00000, 0.00000, 0.64472
8.400, 0.30000, 0.00000, 0.00000, 0.00000, 0.64002
8.410, 0.30000, 0.00000, 0.00000, 0.00000, 0.63515
8.420, 0.30000, 0.00000, 0.00000, 0.00000, 0.63010
8.430, 0.30001, 0.00000, 0.00000, 0.00000, 0.62487
8.440, 0.30001, 0.00000, 0.00000, 0.00000, 0.61946
8.450, 0.29993, 0.00000, 0.00000, 0.00000, 0.61387
8.460, 0.29968, 0.00000, 0.00000, 0.00000, 0.60811
8.470, 0.29921, 0.00000, 0.00000, 0.00000, 0.60216
8.480, 0.29854, 0.00000, 0.00000, 0.00000, 0.59604
8.490, 0.29768, 0.00000, 0.00000, 0.00000, 0.58974
8.500, 0.29661, 0.00000, 0.00000, 0.00000, 0.58326
8.510, 0.29535, 0.00000, 0.00000, 0.00000, 0.57660
8.520, 0.29388, 0.00000, 0.00000, 0.00000, 0.56976
8.530, 0.29222, 0.00000, 0.00000, 0.00000, 0.56275
8.540, 0.29035, 0.00000, 0.00000, 0.00000, 0.55555
8.550, 0.28829, 0.00000, 0.00000, 0.00000, 0.54818
8.560, 0.28602, 0.00000, 0.00000, 0.00000, 0.54063
8.570, 0.28356, 0.00000, 0.00000, 0.00000, 0.53289
8.580, 0.28089, 0.00000, 0.00000, 0.00000, 0.52498
8.590, 0.27803, 0.00000, 0.00000, 0.00000, 0.51690
8.600, 0.27496, 0.00000, 0.00000, 0.00000, 0.50863
8.610, 0.27170, 0.00000, 0.00000, 0.00000, 0.50018
8.620, 0.26823, 0.00000, 0.00000, 0.00000, 0.49156
8.630, 0.26456, 0.00000, 0.00000, 0.00000, 0.48276
8.640, 0.26070, 0.00000, 0.00000, 0.00000, 0.47377
8.650, 0.25670, 0.00000, 0.00000, 0.00000, 0.46461
8.660, 0.25269, 0.00000, 0.00000, 0.00000, 0.45528
8.670, 0.24869, 0.00000, 0.00000, 0.00000, 0.44576
8.680, 0.24469, 0.00000, 0.00000, 0.00000, 0.43604
8.690, 0.24069, 0.00000, 0.00000, 0.00000, 0.42618
8.700, 0.23669, 0.00000, 0.00000, 0.00000, 0.41627
8.710, 0.23269, 0.00000, 0.00000, 0.00000, 0.40634
8.720, 0.22869, 0.00000, 0.00000, 0.00000, 0.39643
8.730, 0.22469, 0.00000, 0.00000, 0.00000, 0.38652
8.740, 0.22069, 0.00000, 0.00000, 0.00000, 0.37661
8.750, 0.21669, 0.00000, 0.00000, 0.00000, 0.36669
8.760, 0.21269, 0.00000, 0.00000, 0.00000, 0.35678
8.770, 0.20869, 0.00000, 0.00000, 0.00000, 0.34687
8.780, 0.20469, 0.00000, 0.00000, 0.00000, 0.33695
8.790, 0.20069, 0.00000, 0.00000, 0.00000, 0.32704
8.800, 0.19669, 0.00000, 0.00000, 0.00000, 0.31713
8.810, 0.19269, 0.00000, 0.00000, 0.00000, 0.30721
8.820, 0.18869, 0.00000, 0.00000, 0.00000, 0.29731
8.830, 0.18469, 0.00000, 0.00000, 0.00000, 0.28739
8.840, 0.18069, 0.00000, 0.00000, 0.00000, 0.27745
8.850, 0.17669, 0.00000, 0.00000, 0.00000, 0.26759
8.860, 0.17269, 0.00000, 0.00000, 0.00000, 0.25790
8.870, 0.16869, 0.00000, 0.00000, 0.00000, 0.24839
8.880, 0.16469, 0.00000, 0.00000, 0.00000, 0.23906
8.890, 0.16069, 0.00000, 0.00000, 0.00000, 0.22991
8.900, 0.15669, 0.00000, 0.00000, 0.00000, 0.22093
8.910, 0.15269, 0.00000, 0.00000, 0.00000, 0.21213
8.920, 0.14869, 0.00000, 0.00000, 0.00000, 0.20352
8.930, 0.14469, 0.00000, 0.00000, 0.00000, 0.19508
8.940, 0.14069, 0.00000, 0.00000, 0.00000, 0.18682
8.950, 0.13669, 0.00000, 0.00000, 0.00000, 0.17874
8.960, 0.13269, 0.00000, 0.00000, 0.00000, 0.17083
8.970, 0.12869, 0.00000, 0.00000, 0.00000, 0.16311
8.980, 0.12469, 0.00000, 0.00000, 0.00000, 0.15556
8.990, 0.12069, 0.00000, 0.00000, 0.00000, 0.14820
9.000, 0.11669, 0.00000, 0.00000, 0.00000, 0.14101
9.010, 0.11269, 0.00000, 0.00000, 0.00000, 0.13400
9.020, 0.10869, 0.00000, 0.00000, 0.00000, 0.12717
9.030, 0.10469, 0.00000, 0.00000, 0.00000, 0.12052
9.040, 0.10069, 0.00000, 0.00000, 0.00000, 0.11404
9.050, 0.09669, 0.00000, 0.00000, 0.00000, 0.10775
9.060, 0.09269, 0.00000, 0.00000, 0.00000, 0.10163
9.070, 0.08869, 0.00000, 0.00000, 0.00000, 0.09569
9.080, 0.08469, 0.00000, 0.00000, 0.00000, 0.08993
9.090, 0.08069, 0.00000, 0.00000, 0.00000, 0.08435
9.100, 0.07669, 0.00000, 0.00000, 0.00000, 0.07895
9.110, 0.07269, 0.00000, 0.00000, 0.00000, 0.07373
9.120, 0.06869, 0.00000, 0.00000, 0.00000, 0.06869
9.130, 0.06469, 0.00000, 0.00000, 0.00000, 0.06382
9.140, 0.06069, 0.00000, 0.00000, 0.00000, 0.05913
9.150, 0.05669, 0.00000, 0.00000, 0.00000, 0.05462
9.160, 0.05269, 0.00000, 0.00000, 0.00000, 0.05030
9.170, 0.04869, 0.00000, 0.00000, 0.00000, 0.04614
9.180, 0.04469, 0.00000, 0.00000, 0.00000, 0.04217
9.190, 0.04070, 0.00000, 0.00000, 0.00000, 0.03838
9.200, 0.03676, 0.00000, 0.00000, 0.00000, 0.03476
9.210, 0.03301, 0.00000, 0.00000, 0.00000, 0.03133
9.220, 0.02948, 0.00000, 0.00000, 0.00000, 0.02807
9.230, 0.02615, 0.00000, 0.00000, 0.00000, 0.02499
9.240, 0.02301, 0.00000, 0.00000, 0.00000, 0.02209
9.250, 0.02008, 0.00000, 0.00000, 0.00000, 0.01937
9.260, 0.01735, 0.00000, 0.00000, 0.00000, 0.01683
9.270, 0.01481, 0.00000, 0.00000, 0.00000, 0.01446
9.280, 0.01248, 0.00000, 0.00000, 0.00000, 0.01228
9.290, 0.01034, 0.00000, 0.00000, 0.00000, 0.01027
9.300, 0.00841, 0.00000, 0.00000, 0.00000, 0.00844
9.310, 0.00667, 0.00000, 0.00000, 0.00000, 0.00679
9.320, 0.00514, 0.00000, 0.00000, 0.00000, 0.00532
9.330, 0.00380, 0.00000, 0.00000, 0.00000, 0.00403
9.340, 0.00267, 0.00000, 0.00000, 0.00000, 0.00291
9.350, 0.00173, 0.00000, 0.00000, 0.00000, 0.00198
9.360, 0.00100, 0.00000, 0.00000, 0.00000, 0.00122
9.370, 0.00046, 0.00000, 0.00000, 0.00000, 0.00064
9.380, 0.00013, 0.00000, 0.00000, 0.00000, 0.00025
9.390, -0.00001, 0.00000, 0.00000, 0.00000, 0.00002
9.400, -0.00001, 0.00000, 0.00000, -0.00000, 0.00002
9.410, -0.00000, 0.00000, 0.00000, -0.00000, 0.00002
9.420, -0.00000, 0.00000, 0.00000, -0.00000, 0.00002
9.430, -0.00000, 0.00000, 0.00000, -0.00000, 0.00002
9.440, -0.00000, 0.00000, 0.00000, -0.00000, 0.00001
9.450, -0.00000, 0.00000, 0.00000, -0.00000, 0.00001
9.460, -0.00000, 0.00000, 0.00000, -0.00001, 0.00001
9.470, -0.00000, 0.00000, 0.00000, -0.00001, 0.00001
9.480, -0.00000, 0.00000, 0.00000, -0.00001, 0.00001
9.490, -0.00000, 0.00000, 0.00000, -0.00001, 0.00001
9.500, -0.00000, 0.00000, 0.00000, -0.00001, 0.00000
9.510, -0.00000, 0.00000, 0.00000, -0.00001, 0.00000
9.520, -0.00000, 0.00000, 0.00000, -0.00001, 0.00000
9.530, -0.00000, 0.00000, 0.00000, -0.00001, -0.00000
9.540, -0.00000, 0.00000, 0.00000, -0.00001, -0.00000
9.550, -0.00000, 0.00000, 0.00000, -0.00001, -0.00000
9.560, -0.00000, 0.00000, 0.00000, -0.00001, -0.00000
9.570, -0.00000, 0.00000, 0.00000, -0.00001, -0.00001
9.580, -0.00000, 0.00000, 0.00000, -0.00001, -0.00001
9.590, -0.00000, 0.00000, 0.00000, -0.00001, -0.00001
9.600, -0.00000, 0.00000, 0.00000, -0.00001, -0.00001
9.610, -0.00000, 0.00000, 0.00000, -0.00001, -0.00001
9.620, -0.00000, 0.00000, 0.00001, -0.00001, -0.00001
9.630, -0.00000, 0.00000, 0.00001, -0.00001, -0.00001
9.640, -0.00000, 0.00000, 0.00001, -0.00001, -0.00001
9.650, -0.00000, 0.00000, 0.00001, -0.00001, -0.00001
9.660, -0.00000, 0.00000, 0.00001, -0.00001, -0.00001
9.670, -0.00000, 0.00000, 0.00001, -0.00001, -0.00002
9.680, -0.00000, 0.00000, 0.00001, -0.00001, -0.00002
9.690, -0.00000, 0.00000, 0.00001, -0.00001, -0.00002
9.700, -0.00000, 0.00000, 0.00001, -0.00002, -0.00002
9.710, -0.00000, 0.00000, 0.00001, -0.00002, -0.00002
9.720, -0.00000, 0.00000, 0.00001, -0.00002, -0.00002
9.730, 0.00000, 0.00000, 0.00001, -0.00002, -0.00002
9.740, 0.00000, 0.00000, 0.00001, -0.00002, -0.00002
9.750, 0.00000, 0.00000, 0.00001, -0.00001, -0.00002
9.760, 0.00000, 0.00000, 0.00001, -0.00001, -0.00002
9.770, 0.00000, 0.00000, 0.00001, -0.00001, -0.00002
9.780, 0.00000, 0.00000, 0.00001, -0.00001, -0.00002
9.790, 0.00000, 0.00000, 0.00001, -0.00001, -0.00002
9.800, 0.00000, 0.00000, 0.00001, -0.00001, -0.00002
9.810, 0.00000, 0.00000, 0.00001, -0.00001, -0.00002
9.820, 0.00000, 0.00000, 0.00001, -0.00001, -0.00002
9.830, 0.00000, 0.00000, 0.00000, -0.00001, -0.00002
9.840, 0.00000, 0.00000, 0.00000, -0.00001, -0.00002
9.850, 0.00000, 0.00000, 0.00000, -0.00001, -0.00002
9.860, 0.00000, 0.00000, 0.00000, -0.00001, -0.00002
9.870, 0.00000, 0.00000, 0.00000, -0.00001, -0.00002
9.880, 0.00000, 0.00000, 0.00000, -0.00001, -0.00002
9.890, 0.00000, 0.00000, 0.00000, -0.00001, -0.00002
9.900, 0.00000, 0.00000, 0.00000, -0.00001, -0.00002
9.910, 0.00000, 0.00000, 0.00000, -0.00001, -0.00002
9.920, 0.00000, 0.00000, 0.00000, -0.00001, -0.00002
9.930, 0.00000, 0.00000, 0.00000, -0.00001, -0.00002
9.940, 0.00000, 0.00000, 0.00000, -0.00001, -0.00002
9.950, 0.00000, 0.00000, 0.00000, -0.00001, -0.00002
9.960, 0.00000, 0.00000, 0.00000, -0.00001, -0.00002
9.970, 0.00000, 0.00000, 0.00000, -0.00001, -0.00002
9.980, 0.00000, 0.00000, 0.00000, -0.00001, -0.00002
9.990, 0.00000, 0.00000, 0.00000, -0.00001, -0.00001
10.000, 0.00000, 0.00000, 0.00000, -0.00000, -0.00001
10.010, 0.00000, 0.00000, 0.00000, -0.00000, -0.00001
10.020, 0.00000, 0.00000, 0.00000, -0.00000, -0.00001
10.030, 0.00000, 0.00000, 0.00000, -0.00000, -0.00001
10.040, 0.00000, 0.00000, 0.00000, -0.00000, -0.00001
10.050, 0.00000, 0.00000, 0.00000, -0.00000, -0.00001
10.060, 0.00000, -0.00000, -0.00000, 0.00000, -0.00001
10.070, 0.00000, -0.00000, -0.00000, 0.00000, -0.00001
10.080, 0.00000, -0.00000, -0.00000, 0.00000, -0.00001
10.090, 0.00000, -0.00000, -0.00000, 0.00000, -0.00000
10.100, 0.00000, -0.00000, -0.00000, 0.00000, -0.00000
10.110, 0.00000, -0.00000, -0.00000, 0.00001, -0.00000
10.120, 0.00000, -0.00000, -0.00000, 0.00001, -0.00000
10.130, 0.00000, -0.00000, -0.00000, 0.00001, 0.00000
10.140, 0.00000, -0.00000, -0.00000, 0.00001, 0.00000
10.150, 0.00000, -0.00000, -0.00000, 0.00001, 0.00000
10.160, 0.00000, -0.00000, -0.00000, 0.00001, 0.00001
10.170, 0.00000, -0.00000, -0.00000, 0.00001, 0.00001
10.180, 0.00000, -0.00000, -0.00000, 0.00001, 0.00001
10.190, 0.00000, -0.00000, -0.00001, 0.00001, 0.00001
10.200, 0.00000, -0.00000, -0.00001, 0.00002, 0.00001
10.210, 0.00000, -0.00000, -0.00001, 0.00002, 0.00001
10.220, 0.00000, -0.00000, -0.00001, 0.00002, 0.00002
10.230, 0.00000, -0.00000, -0.00001, 0.00002, 0.00002
10.240, 0.00000, -0.00001, -0.00001, 0.00002, 0.00002
10.250, 0.00000, -0.00001, -0.00001, 0.00002, 0.00002
10.260, 0.00000, -0.00001, -0.00001, 0.00002, 0.00002
10.270, 0.00000, -0.00001, -0.00001, 0.00003, 0.00003
10.280, 0.00000, -0.00001, -0.00001, 0.00003, 0.00003
10.290, 0.00000, -0.00001, -0.00001, 0.00003, 0.00003
10.300, 0.00000, -0.00001, -0.00001, 0.00003, 0.00003
10.310, 0.00000, -0.00001, -0.00001, 0.00003, 0.00004
10.320, 0.00000, -0.00001, -0.00001, 0.00003, 0.00004
10.330, 0.00000, -0.00001, -0.00001, 0.00003, 0.00004
10.340, 0.00000, -0.00001, -0.00001, 0.00004, 0.00004
10.350, 0.00000, -0.00001, -0.00001, 0.00004, 0.00005
10.360, 0.00000, -0.00001, -0.00001, 0.00004, 0.00005
10.370, 0.00000, -0.00001, -0.00002, 0.00004, 0.00005
10.380, 0.00000, -0.00001, -0.00002, 0.00004, 0.00005
10.390, 0.00000, -0.00001, -0.00002, 0.00005, 0.00006
10.400, 0.00000, -0.00008, -0.00022, 0.00027, 0.00043
10.410, 0.00000, -0.00020, -0.00062, 0.00066, 0.00110
10.420, 0.00000, -0.00038, -0.00122, 0.00121, 0.00207
10.430, 0.00000, -0.00062, -0.00202, 0.00191, 0.00335
10.440, 0.00000, -0.00090, -0.00302, 0.00278, 0.00492
10.450, 0.00000, -0.00124, -0.00422, 0.00381, 0.00679
10.460, 0.00000, -0.00164, -0.00562, 0.00499, 0.00896
10.470, 0.00000, -0.00209, -0.00722, 0.00634, 0.01142
10.480, 0.00000, -0.00260, -0.00902, 0.00784, 0.01419
10.490, 0.00000, -0.00316, -0.01102, 0.00951, 0.01726
10.500, 0.00000, -0.00377, -0.01322, 0.01133, 0.02063
10.510, 0.00000, -0.00444, -0.01562, 0.01332, 0.02429
10.520, 0.00000, -0.00517, -0.01822, 0.01546, 0.02826
10.530, 0.00000, -0.00594, -0.02102, 0.01777, 0.03252
10.540, 0.00000, -0.00678, -0.02402, 0.02023, 0.03709
10.550, 0.00000, -0.00766, -0.02722, 0.02286, 0.04195
10.560, 0.00000, -0.00861, -0.03062, 0.02564, 0.04711
10.570, 0.00000, -0.00960, -0.03422, 0.02858, 0.05258
10.580, 0.00000, -0.01065, -0.03802, 0.03169, 0.05834
10.590, 0.00000, -0.01176, -0.04202, 0.03495, 0.06440
10.600, 0.00000, -0.01292, -0.04622, 0.03837, 0.07076
10.610, 0.00000, -0.01413, -0.05062, 0.04196, 0.07742
10.620, 0.00000, -0.01540, -0.05522, 0.04570, 0.08438
10.630, 0.00000, -0.01673, -0.06002, 0.04960, 0.09164
10.640, 0.00000, -0.01810, -0.06502, 0.05367, 0.09919
10.650, 0.00000, -0.01954, -0.07022, 0.05789, 0.10705
10.660, 0.00000, -0.02102, -0.07562, 0.06227, 0.11521
10.670, 0.00000, -0.02257, -0.08122, 0.06681, 0.12366
10.680, 0.00000, -0.02416, -0.08702, 0.07151, 0.13242
10.690, 0.00000, -0.02581, -0.09302, 0.07637, 0.14147
10.700, 0.00000, -0.02752, -0.09922, 0.08140, 0.15082
10.710, 0.00000, -0.02928, -0.10562, 0.08658, 0.16048
10.720, 0.00000, -0.03109, -0.11222, 0.09192, 0.17043
10.730, 0.00000, -0.03296, -0.11902, 0.09742, 0.18068
10.740, 0.00000, -0.03489, -0.12600, 0.10308, 0.19123
10.750, 0.00000, -0.03686, -0.13300, 0.10890, 0.20208
10.760, 0.00000, -0.03890, -0.14000, 0.11488, 0.21323
10.770, 0.00000, -0.04098, -0.14700, 0.12102, 0.22468
10.780, 0.00000, -0.04313, -0.15400, 0.12732, 0.23643
10.790, 0.00000, -0.04532, -0.16100, 0.13378, 0.24848
10.800, 0.00000, -0.04757, -0.16800, 0.14040, 0.26082
10.810, 0.00000, -0.04988, -0.17500, 0.14718, 0.27347
10.820, 0.00000, -0.05224, -0.18200, 0.15412, 0.28642
10.830, 0.00000, -0.05465, -0.18900, 0.16121, 0.29966
10.840, 0.00000, -0.05712, -0.19600, 0.16847, 0.31321
10.850, 0.00000, -0.05964, -0.20300, 0.17589, 0.32704
10.860, 0.00000, -0.06222, -0.21000, 0.18347, 0.34106
10.870, 0.00000, -0.06486, -0.21700, 0.19121, 0.35505
10.880, 0.00000, -0.06754, -0.22400, 0.19911, 0.36903
10.890, 0.00000, -0.07028, -0.23098, 0.20716, 0.38301
10.900, 0.00000, -0.07308, -0.23778, 0.21538, 0.39700
10.910, 0.00000, -0.07593, -0.24438, 0.22376, 0.41098
10.920, 0.00000, -0.07884, -0.25078, 0.23229, 0.42496
10.930, 0.00000, -0.08178, -0.25698, 0.24099, 0.43895
10.940, 0.00000, -0.08473, -0.26298, 0.24985, 0.45293
10.950, 0.00000, -0.08767, -0.26878, 0.25887, 0.46692
10.960, 0.00000, -0.09061, -0.27438, 0.26804, 0.48089
10.970, 0.00000, -0.09356, -0.27978, 0.27725, 0.49489
10.980, 0.00000, -0.09650, -0.28498, 0.28646, 0.50888
10.990, 0.00000, -0.09945, -0.28998, 0.29566, 0.52273
11.000, 0.00000, -0.10239, -0.29478, 0.30486, 0.53630
11.010, 0.00000, -0.10533, -0.29938, 0.31407, 0.54954
11.020, 0.00000, -0.10828, -0.30378, 0.32327, 0.56249
11.030, 0.00000, -0.11122, -0.30798, 0.33247, 0.57515
11.040, 0.00000, -0.11416, -0.31198, 0.34167, 0.58750
11.050, 0.00000, -0.11711, -0.31578, 0.35088, 0.59955
11.060, 0.00000, -0.12005, -0.31938, 0.36008, 0.61130
11.070, 0.00000, -0.12299, -0.32278, 0.36928, 0.62276
11.080, 0.00000, -0.12594, -0.32598, 0.37848, 0.63391
11.090, 0.00000, -0.12888, -0.32898, 0.38768, 0.64477
11.100, 0.00000, -0.13182, -0.33178, 0.39689, 0.65532
11.110, 0.00000, -0.13477, -0.33438, 0.40611, 0.66558
11.120, 0.00000, -0.13771, -0.33678, 0.41530, 0.67554
11.130, 0.00000, -0.14065, -0.33898, 0.42439, 0.68520
11.140, 0.00000, -0.14360, -0.34098, 0.43333, 0.69455
11.150, 0.00000, -0.14655, -0.34278, 0.44211, 0.70361
11.160, 0.00000, -0.14947, -0.34438, 0.45071, 0.71237
11.170, 0.00000, -0.15236, -0.34578, 0.45916, 0.72083
11.180, 0.00000, -0.15519, -0.34698, 0.46745, 0.72899
11.190, 0.00000, -0.15795, -0.34798, 0.47558, 0.73686
11.200, 0.00000, -0.16067, -0.34878, 0.48355, 0.74442
11.210, 0.00000, -0.16333, -0.34939, 0.49136, 0.75168
11.220, 0.00000, -0.16594, -0.34979, 0.49901, 0.75865
11.230, 0.00000, -0.16849, -0.34997, 0.50650, 0.76531
11.240, 0.00000, -0.17099, -0.35002, 0.51383, 0.77168
11.250, 0.00000, -0.17344, -0.35000, 0.52101, 0.77774
11.260, 0.00000, -0.17582, -0.35000, 0.52802, 0.78351
11.270, 0.00000, -0.17816, -0.35000, 0.53487, 0.78898
11.280, 0.00000, -0.18044, -0.35000, 0.54156, 0.79414
11.290, 0.00000, -0.18266, -0.35000, 0.54809, 0.79901
11.300, 0.00000, -0.18484, -0.35000, 0.55447, 0.80358
11.310, 0.00000, -0.18695, -0.35000, 0.56068, 0.80785
11.320, 0.00000, -0.18901, -0.35000, 0.56673, 0.81182
11.330, 0.00000, -0.19102, -0.35000, 0.57262, 0.81549
11.340, 0.00000, -0.19297, -0.35000, 0.57836, 0.81886
11.350, 0.00000, -0.19487, -0.35000, 0.58393, 0.82194
11.360, 0.00000, -0.19672, -0.35000, 0.58934, 0.82471
11.370, 0.00000, -0.19851, -0.35000, 0.59460, 0.82718
11.380, 0.00000, -0.20024, -0.35000, 0.59969, 0.82936
11.390, 0.00000, -0.20192, -0.35000, 0.60463, 0.83123
11.400, 0.00000, -0.20355, -0.35000, 0.60940, 0.83281
11.410, 0.00000, -0.20512, -0.35000, 0.61401, 0.83408
11.420, 0.00000, -0.20663, -0.35000, 0.61847, 0.83506
11.430, 0.00000, -0.20810, -0.35000, 0.62276, 0.83574
11.440, 0.00000, -0.20950, -0.35000, 0.62690, 0.83611
11.450, 0.00000, -0.21086, -0.35000, 0.63087, 0.83621
11.460, 0.00000, -0.21215, -0.35000, 0.63469, 0.83617
11.470, 0.00000, -0.21340, -0.35000, 0.63835, 0.83618
11.480, 0.00000, -0.21459, -0.35000, 0.64184, 0.83618
11.490, 0.00000, -0.21572, -0.35000, 0.64518, 0.83618
11.500, 0.00000, -0.21680, -0.35000, 0.64835, 0.83618
11.510, 0.00000, -0.21783, -0.35000, 0.65137, 0.83618
11.520, 0.00000, -0.21880, -0.35000, 0.65423, 0.83618
11.530, 0.00000, -0.21972, -0.35000, 0.65692, 0.83618
11.540, 0.00000, -0.22058, -0.35000, 0.65946, 0.83618
11.550, 0.00000, -0.22139, -0.35000, 0.66184, 0.83618
11.560, 0.00000, -0.22214, -0.35000, 0.66405, 0.83618
11.570, 0.00000, -0.22284, -0.35000, 0.66611, 0.83618
11.580, 0.00000, -0.22348, -0.35000, 0.66801, 0.83618
11.590, 0.00000, -0.22407, -0.35000, 0.66975, 0.83618
11.600, 0.00000, -0.22461, -0.35000, 0.67133, 0.83618
11.610, 0.00000, -0.22509, -0.35000, 0.67274, 0.83618
11.620, 0.00000, -0.22551, -0.35000, 0.67400, 0.83618
11.630, 0.00000, -0.22588, -0.35000, 0.67510, 0.83618
11.640, 0.00000, -0.22620, -0.35000, 0.67604, 0.83618
11.650, 0.00000, -0.22646, -0.35000, 0.67682, 0.83618
11.660, 0.00000, -0.22667, -0.35000, 0.67744, 0.83618
11.670, 0.00000, -0.22682, -0.35000, 0.67790, 0.83618
11.680, 0.00000, -0.22692, -0.35000, 0.67820, 0.83618
11.690, 0.00000, -0.22696, -0.35000, 0.67833, 0.83618
11.700, 0.00000, -0.22697, -0.35000, 0.67835, 0.83618
11.710, 0.00000, -0.22696, -0.35000, 0.67832, 0.83618
11.720, 0.00000, -0.22696, -0.35000, 0.67832, 0.83618
11.730, 0.00000, -0.22696, -0.35000, 0.67833, 0.83618
11.740, 0.00000, -0.22696, -0.35000, 0.67833, 0.83618
11.750, 0.00000, -0.22696, -0.35000, 0.67833, 0.83618
11.760, 0.00000, -0.22696, -0.35000, 0.67833, 0.83618
11.770, 0.00000, -0.22696, -0.35000, 0.67833, 0.83618
11.780, 0.00000, -0.22696, -0.35000, 0.67833, 0.83618
11.790, 0.00000, -0.22696, -0.35000, 0.67833, 0.83618
11.800, 0.00000, -0.22696, -0.35000, 0.67833, 0.83618
11.810, 0.00000, -0.22696, -0.35000, 0.67833, 0.83618
11.820, 0.00000, -0.22696, -0.35000, 0.67833, 0.83618
11.830, 0.00000, -0.22696, -0.35000, 0.67833, 0.83618
11.840, 0.00000, -0.22696, -0.35000, 0.67833, 0.83618
11.850, 0.00000, -0.22696, -0.35000, 0.67833, 0.83618
11.860, 0.00000, -0.22696, -0.35000, 0.67833, 0.83618
11.870, 0.00000, -0.22696, -0.35000, 0.67833, 0.83618
11.880, 0.00000, -0.22696, -0.35000, 0.67833, 0.83618
11.890, 0.00000, -0.22696, -0.35000, 0.67833, 0.83618
11.900, 0.00000, -0.22696, -0.35000, 0.67833, 0.83618
11.910, 0.00000, -0.22696, -0.35000, 0.67833, 0.83618
11.920, 0.00000, -0.22696, -0.35000, 0.67833, 0.83618
11.930, 0.00000, -0.22696, -0.35000, 0.67833, 0.83618
11.940, 0.00000, -0.22696, -0.35000, 0.67833, 0.83618
11.950, 0.00000, -0.22696, -0.35000, 0.67833, 0.83618
11.960, 0.00000, -0.22696, -0.35000, 0.67833, 0.83618
11.970, 0.00000, -0.22696, -0.35000, 0.67833, 0.83618
11.980, 0.00000, -0.22696, -0.35000, 0.67832, 0.83618
11.990, 0.00000, -0.22696, -0.35000, 0.67833, 0.83618
12.000, 0.00000, -0.22696, -0.35000, 0.67834, 0.83618
12.010, 0.00000, -0.22697, -0.35000, 0.67831, 0.83618
12.020, 0.00000, -0.22696, -0.35000, 0.67816, 0.83618
12.030, 0.00000, -0.22691, -0.35000, 0.67785, 0.83618
12.040, 0.00000, -0.22680, -0.35000, 0.67736, 0.83618
12.050, 0.00000, -0.22664, -0.35000, 0.67671, 0.83618
12.060, 0.00000, -0.22642, -0.35000, 0.67591, 0.83618
12.070, 0.00000, -0.22615, -0.35000, 0.67495, 0.83618
12.080, 0.00000, -0.22583, -0.35000, 0.67383, 0.83618
12.090, 0.00000, -0.22545, -0.35000, 0.67255, 0.83618
12.100, 0.00000, -0.22501, -0.35000, 0.67111, 0.83618
12.110, 0.00000, -0.22452, -0.35000, 0.66950, 0.83618
12.120, 0.00000, -0.22398, -0.35000, 0.66774, 0.83618
12.130, 0.00000, -0.22338, -0.35000, 0.66582, 0.83618
12.140, 0.00000, -0.22273, -0.35000, 0.66374, 0.83618
12.150, 0.00000, -0.22202, -0.35000, 0.66150, 0.83618
12.160, 0.00000, -0.22126, -0.35000, 0.65910, 0.83618
12.170, 0.00000, -0.22044, -0.35000, 0.65654, 0.83618
12.180, 0.00000, -0.21957, -0.35000, 0.65382, 0.83618
12.190, 0.00000, -0.21864, -0.35000, 0.65094, 0.83618
12.200, 0.00000, -0.21766, -0.35000, 0.64790, 0.83618
12.210, 0.00000, -0.21663, -0.35000, 0.64470, 0.83618
12.220, 0.00000, -0.21554, -0.35000, 0.64134, 0.83618
12.230, 0.00000, -0.21440, -0.35000, 0.63782, 0.83618
12.240, 0.00000, -0.21320, -0.35000, 0.63414, 0.83618
12.250, 0.00000, -0.21195, -0.35000, 0.63030, 0.83617
12.260, 0.00000, -0.21064, -0.35000, 0.62630, 0.83621
12.270, 0.00000, -0.20928, -0.35000, 0.62215, 0.83608
12.280, 0.00000, -0.20786, -0.35000, 0.61783, 0.83567
12.290, 0.00000, -0.20639, -0.35000, 0.61335, 0.83495
12.300, 0.00000, -0.20486, -0.35000, 0.60871, 0.83394
12.310, 0.00000, -0.20328, -0.35000, 0.60391, 0.83262
12.320, 0.00000, -0.20165, -0.35000, 0.59896, 0.83101
12.330, 0.00000, -0.19996, -0.35000, 0.59384, 0.82909
12.340, 0.00000, -0.19822, -0.35000, 0.58856, 0.82688
12.350, 0.00000, -0.19642, -0.35000, 0.58313, 0.82437
12.360, 0.00000, -0.19457, -0.35000, 0.57753, 0.82156
12.370, 0.00000, -0.19266, -0.35000, 0.57177, 0.81845
12.380, 0.00000, -0.19070, -0.35000, 0.56586, 0.81504
12.390, 0.00000, -0.18868, -0.35000, 0.55978, 0.81133
12.400, 0.00000, -0.18661, -0.35000, 0.55354, 0.80732
12.410, 0.00000, -0.18449, -0.35000, 0.54715, 0.80301
12.420, 0.00000, -0.18231, -0.35000, 0.54059, 0.79840
12.430, 0.00000, -0.18007, -0.35000, 0.53388, 0.79350
12.440, 0.00000, -0.17778, -0.35000, 0.52700, 0.78829
12.450, 0.00000, -0.17544, -0.35000, 0.51997, 0.78278
12.460, 0.00000, -0.17304, -0.35000, 0.51277, 0.77698
12.470, 0.00000, -0.17059, -0.35002, 0.50542, 0.77087
12.480, 0.00000, -0.16808, -0.34996, 0.49790, 0.76447
12.490, 0.00000, -0.16552, -0.34974, 0.49023, 0.75777
12.500, 0.00000, -0.16290, -0.34931, 0.48240, 0.75077
12.510, 0.00000, -0.16023, -0.34867, 0.47440, 0.74346
12.520, 0.00000, -0.15751, -0.34784, 0.46625, 0.73586
12.530, 0.00000, -0.15473, -0.34681, 0.45794, 0.72796
12.540, 0.00000, -0.15189, -0.34558, 0.44946, 0.71976
12.550, 0.00000, -0.14900, -0.34415, 0.44083, 0.71126
12.560, 0.00000, -0.14606, -0.34252, 0.43204, 0.70246
12.570, 0.00000, -0.14312, -0.34069, 0.42308, 0.69337
12.580, 0.00000, -0.14017, -0.33866, 0.41397, 0.68397
12.590, 0.00000, -0.13723, -0.33643, 0.40475, 0.67427
12.600, 0.00000, -0.13429, -0.33400, 0.39553, 0.66428
12.610, 0.00000, -0.13134, -0.33137, 0.38634, 0.65398
12.620, 0.00000, -0.12840, -0.32854, 0.37714, 0.64339
12.630, 0.00000, -0.12546, -0.32551, 0.36794, 0.63249
12.640, 0.00000, -0.12251, -0.32228, 0.35873, 0.62130
12.650, 0.00000, -0.11957, -0.31885, 0.34953, 0.60981
12.660, 0.00000, -0.11663, -0.31522, 0.34033, 0.59802
12.670, 0.00000, -0.11368, -0.31139, 0.33113, 0.58593
12.680, 0.00000, -0.11074, -0.30736, 0.32192, 0.57354
12.690, 0.00000, -0.10780, -0.30313, 0.31272, 0.56084
12.700, 0.00000, -0.10485, -0.29870, 0.30352, 0.54786
12.710, 0.00000, -0.10191, -0.29407, 0.29432, 0.53458
12.720, 0.00000, -0.09897, -0.28924, 0.28511, 0.52097
12.730, 0.00000, -0.09602, -0.28421, 0.27590, 0.50708
12.740, 0.00000, -0.09308, -0.27898, 0.26670, 0.49309
12.750, 0.00000, -0.09013, -0.27355, 0.25756, 0.47910
12.760, 0.00000, -0.08719, -0.26792, 0.24853, 0.46512
12.770, 0.00000, -0.08425, -0.26209, 0.23971, 0.45114
12.780, 0.00000, -0.08130, -0.25606, 0.23104, 0.43715
12.790, 0.00000, -0.07836, -0.24983, 0.22252, 0.42317
12.800, 0.00000, -0.07546, -0.24340, 0.21417, 0.40918
12.810, 0.00000, -0.07262, -0.23676, 0.20597, 0.39520
12.820, 0.00000, -0.06983, -0.22993, 0.19794, 0.38122
12.830, 0.00000, -0.06710, -0.22294, 0.19007, 0.36723
12.840, 0.00000, -0.06442, -0.21594, 0.18235, 0.35325
12.850, 0.00000, -0.06180, -0.20894, 0.17480, 0.33927
12.860, 0.00000, -0.05923, -0.20194, 0.16740, 0.32525
12.870, 0.00000, -0.05672, -0.19494, 0.16017, 0.31145
12.880, 0.00000, -0.05426, -0.18794, 0.15309, 0.29794
12.890, 0.00000, -0.05185, -0.18094, 0.14618, 0.28474
12.900, 0.00000, -0.04950, -0.17394, 0.13942, 0.27183
12.910, 0.00000, -0.04720, -0.16694, 0.13282, 0.25922
12.920, 0.00000, -0.04496, -0.15994, 0.12639, 0.24691
12.930, 0.00000, -0.04277, -0.15294, 0.12011, 0.23490
12.940, 0.00000, -0.04064, -0.14594, 0.11399, 0.22319
12.950, 0.00000, -0.03856, -0.13894, 0.10804, 0.21178
12.960, 0.00000, -0.03654, -0.13194, 0.10224, 0.20067
12.970, 0.00000, -0.03457, -0.12494, 0.09660, 0.18986
12.980, 0.00000, -0.03265, -0.11798, 0.09113, 0.17935
12.990, 0.00000, -0.03079, -0.11120, 0.08581, 0.16913
13.000, 0.00000, -0.02899, -0.10464, 0.08065, 0.15922
13.010, 0.00000, -0.02724, -0.09827, 0.07565, 0.14961
13.020, 0.00000, -0.02554, -0.09210, 0.07082, 0.14029
13.030, 0.00000, -0.02390, -0.08613, 0.06614, 0.13127
13.040, 0.00000, -0.02231, -0.08036, 0.06162, 0.12256
13.050, 0.00000, -0.02078, -0.07479, 0.05726, 0.11414
13.060, 0.00000, -0.01930, -0.06942, 0.05306, 0.10602
13.070, 0.00000, -0.01788, -0.06425, 0.04902, 0.09820
13.080, 0.00000, -0.01651, -0.05928, 0.04514, 0.09069
13.090, 0.00000, -0.01519, -0.05451, 0.04142, 0.08347
13.100, 0.00000, -0.01393, -0.04994, 0.03786, 0.07655
13.110, 0.00000, -0.01273, -0.04557, 0.03446, 0.06992
13.120, 0.00000, -0.01158, -0.04140, 0.03122, 0.06360
13.130, 0.00000, -0.01048, -0.03743, 0.02814, 0.05758
13.140, 0.00000, -0.00944, -0.03366, 0.02522, 0.05186
13.150, 0.00000, -0.00845, -0.03009, 0.02246, 0.04643
13.160, 0.00000, -0.00752, -0.02672, 0.01986, 0.04131
13.170, 0.00000, -0.00664, -0.02355, 0.01742, 0.03648
13.180, 0.00000, -0.00581, -0.02058, 0.01514, 0.03196
13.190, 0.00000, -0.00504, -0.01781, 0.01302, 0.02773
13.200, 0.00000, -0.00433, -0.01524, 0.01106, 0.02381
13.210, 0.00000, -0.00367, -0.01287, 0.00925, 0.02018
13.220, 0.00000, -0.00306, -0.01070, 0.00761, 0.01685
13.230, 0.00000, -0.00251, -0.00873, 0.00613, 0.01382
13.240, 0.00000, -0.00202, -0.00696, 0.00481, 0.01109
13.250, 0.00000, -0.00157, -0.00539, 0.00365, 0.00866
13.260, 0.00000, -0.00119, -0.00402, 0.00264, 0.00653
13.270, 0.00000, -0.00085, -0.00285, 0.00180, 0.00470
13.280, 0.00000, -0.00057, -0.00188, 0.00112, 0.00317
13.290, 0.00000, -0.00035, -0.00111, 0.00059, 0.00193
13.300, 0.00000, -0.00018, -0.00054, 0.00023, 0.00100
13.310, 0.00000, -0.00007, -0.00017, 0.00003, 0.00036
13.320, 0.00000, -0.00000, -0.00000, -0.00002, 0.00003
13.330, 0.00000, -0.00000, -0.00000, -0.00002, 0.00003
13.340, 0.00000, -0.00000, -0.00000, -0.00002, 0.00003
13.350, 0.00000, -0.00000, -0.00000, -0.00002, 0.00002
13.360, 0.00000, -0.00000, -0.00000, -0.00002, 0.00002
13.370, 0.00000, -0.00000, -0.00000, -0.00001, 0.00002
13.380, 0.00000, -0.00000, -0.00000, -0.00001, 0.00002
13.390, 0.00000, -0.00000, -0.00000, -0.00001, 0.00002
13.400, 0.00000, -0.00000, -0.00000, -0.00001, 0.00001
13.410, 0.00000, -0.00000, -0.00000, -0.00001, 0.00001
13.420, 0.00000, -0.00000, -0.00000, -0.00001, 0.00001
13.430, 0.00000, -0.00000, -0.00000, -0.00001, 0.00001
13.440, 0.00000, -0.00000, -0.00000, -0.00001, 0.00001
13.450, 0.00000, -0.00000, -0.00000, -0.00001, 0.00001
13.460, 0.00000, -0.00000, -0.00000, -0.00001, 0.00000
13.470, 0.00000, -0.00000, -0.00000, -0.00001, 0.00000
13.480, 0.00000, -0.00000, -0.00000, -0.00001, 0.00000
13.490, 0.00000, -0.00000, -0.00000, -0.00001, 0.00000
13.500, 0.00000, -0.00000, -0.00000, -0.00001, -0.00000
13.510, 0.00000, -0.00000, -0.00000, -0.00001, -0.00000
13.520, 0.00000, -0.00000, -0.00000, -0.00001, -0.00000
13.530, 0.00000, -0.00000, -0.00000, -0.00001, -0.00000
13.540, 0.00000, -0.00000, -0.00000, -0.00000, -0.00001
13.550, 0.00001, -0.00000, -0.00000, -0.00000, -0.00001
13.560, 0.00001, -0.00000, -0.00000, -0.00000, -0.00001
13.570, 0.00001, -0.00000, -0.00000, -0.00000, -0.00001
13.580, 0.00001, -0.00000, -0.00000, -0.00000, -0.00001
13.590, 0.00001, -0.00000, -0.00000, -0.00000, -0.00001
13.600, 0.00001, -0.00000, -0.00000, -0.00000, -0.00001
13.610, 0.00001, -0.00000, -0.00000, -0.00000, -0.00001
13.620, 0.00001, -0.00000, -0.00000, -0.00000, -0.00001
13.630, 0.00001, -0.00000, -0.00000, -0.00000, -0.00001
13.640, 0.00001, -0.00000, -0.00000, -0.00000, -0.00001
13.650, 0.00001, -0.00000, -0.00000, -0.00000, -0.00002
13.660, 0.00001, 0.00000, 0.00000, 0.00000, -0.00002
13.670, 0.00001, 0.00000, 0.00000, 0.00000, -0.00002
13.680, 0.00001, 0.00000, 0.00000, 0.00000, -0.00002
13.690, 0.00001, 0.00000, 0.00000, 0.00000, -0.00002
13.700, 0.00001, 0.00000, 0.00000, 0.00000, -0.00002
13.710, 0.00001, 0.00000, 0.00000, 0.00000, -0.00002
13.720, 0.00001, 0.00000, 0.00000, 0.00000, -0.00002
13.730, 0.00001, 0.00000, 0.00000, 0.00000, -0.00002
13.740, 0.00001, 0.00000, 0.00000, 0.00000, -0.00002
13.750, 0.00001, 0.00000, 0.00000, 0.00000, -0.00002
13.760, 0.00000, 0.00000, 0.00000, 0.00000, -0.00002
13.770, 0.00000, 0.00000, 0.00000, 0.00000, -0.00002
13.780, 0.00000, 0.00000, 0.00000, 0.00000, -0.00002
13.790, 0.00000, 0.00000, 0.00000, 0.00000, -0.00002
13.800, 0.00000, 0.00000, 0.00000, 0.00000, -0.00002
13.810, 0.00000, 0.00000, 0.00000, 0.00000, -0.00002
13.820, 0.00000, 0.00000, 0.00000, 0.00000, -0.00002
13.830, 0.00000, 0.00000, 0.00000, 0.00000, -0.00002
13.840, 0.00000, 0.00000, 0.00000, 0.00000, -0.00002
13.850, 0.00000, 0.00000, 0.00000, 0.00001, -0.00002
13.860, 0.00000, 0.00000, 0.00000, 0.00001, -0.00002
13.870, 0.00000, 0.00000, 0.00000, 0.00001, -0.00002
13.880, 0.00000, 0.00000, 0.00000, 0.00001, -0.00002
13.890, 0.00000, 0.00000, 0.00000, 0.00001, -0.00002
13.900, 0.00000, 0.00000, 0.00000, 0.00001, -0.00002
13.910, 0.00000, 0.00000, 0.00000, 0.00001, -0.00002
13.920, 0.00000, 0.00000, 0.00000, 0.00001, -0.00002
13.930, 0.00000, 0.00000, 0.00000, 0.00001, -0.00001
13.940, 0.00000, 0.00000, 0.00000, 0.00001, -0.00001
13.950, 0.00000, 0.00000, 0.00000, 0.00001, -0.00001
13.960, 0.00000, 0.00000, 0.00000, 0.00001, -0.00001
13.970, 0.00000, 0.00000, 0.00000, 0.00001, -0.00001
13.980, 0.00000, 0.00000, 0.00000, 0.00001, -0.00001
13.990, -0.00000, 0.00000, 0.00000, 0.00001, -0.00001
14.000, -0.00000, 0.00000, 0.00000, 0.00001, -0.00001
14.010, -0.00000, 0.00000, 0.00000, 0.00001, -0.00001
14.020, -0.00000, 0.00000, 0.00000, 0.00001, -0.00001
14.030, -0.00000, 0.00000, 0.00000, 0.00001, -0.00001
14.040, -0.00000, 0.00000, 0.00000, 0.00001, -0.00000
14.050, -0.00000, 0.00000, 0.00000, 0.00001, -0.00000
14.060, -0.00000, 0.00000, 0.00000, 0.00001, -0.00000
14.070, -0.00000, 0.00000, 0.00000, 0.00001, -0.00000
14.080, -0.00000, 0.00000, 0.00000, 0.00001, 0.00000
14.090, -0.00000, 0.00000, 0.00000, 0.00001, 0.00000
14.100, -0.00000, 0.00000, 0.00000, 0.00001, 0.00000
14.110, -0.00000, 0.00000, 0.00000, 0.00001, 0.00001
14.120, -0.00001, 0.00000, 0.00000, 0.00001, 0.00001
14.130, -0.00001, 0.00000, 0.00000, 0.00001, 0.00001
14.140, -0.00001, 0.00000, 0.00000, 0.00000, 0.00001
14.150, -0.00001, 0.00000, 0.00000, 0.00000, 0.00001
14.160, -0.00001, 0.00000, 0.00000, 0.00000, 0.00001
14.170, -0.00001, 0.00000, 0.00000, 0.00000, 0.00002
14.180, -0.00001, 0.00000, 0.00000, 0.00000, 0.00002
14.190, -0.00001, 0.00000, 0.00000, 0.00000, 0.00002
14.200, -0.00001, 0.00000, 0.00000, 0.00000, 0.00002
14.210, -0.00001, 0.00000, 0.00000, 0.00000, 0.00002
14.220, -0.00001, 0.00000, 0.00000, 0.00000, 0.00002
14.230, -0.00001, 0.00000, 0.00000, 0.00000, 0.00003
14.240, -0.00001, 0.00000, 0.00000, 0.00000, 0.00003
14.250, -0.00001, 0.00000, 0.00000, 0.00000, 0.00003
14.260, -0.00001, 0.00000, 0.00000, 0.00000, 0.00003
14.270, -0.00001, 0.00000, 0.00000, 0.00000, 0.00004
14.280, -0.00001, 0.00000, 0.00000, 0.00000, 0.00004
14.290, -0.00001, 0.00000, 0.00000, 0.00000, 0.00004
14.300, -0.00002, 0.00000, 0.00000, 0.00000, 0.00004
14.310, -0.00002, 0.00000, 0.00000, 0.00000, 0.00004
14.320, -0.00002, 0.00000, 0.00000, 0.00000, 0.00005
14.330, -0.00022, 0.00000, 0.00000, 0.00000, 0.00029
14.340, -0.00062, 0.00000, 0.00000, 0.00000, 0.00072
14.350, -0.00122, 0.00000, 0.00000, 0.00000, 0.00133
14.360, -0.00202, 0.00000, 0.00000, 0.00000, 0.00211
14.370, -0.00302, 0.00000, 0.00000, 0.00000, 0.00307
14.380, -0.00422, 0.00000, 0.00000, 0.00000, 0.00421
14.390, -0.00562, 0.00000, 0.00000, 0.00000, 0.00553
14.400, -0.00722, 0.00000, 0.00000, 0.00000, 0.00703
14.410, -0.00902, 0.00000, 0.00000, 0.00000, 0.00871
14.420, -0.01102, 0.00000, 0.00000, 0.00000, 0.01057
14.430, -0.01322, 0.00000, 0.00000, 0.00000, 0.01260
14.440, -0.01562, 0.00000, 0.00000, 0.00000, 0.01481
14.450, -0.01822, 0.00000, 0.00000, 0.00000, 0.01721
14.460, -0.02102, 0.00000, 0.00000, 0.00000, 0.01978
14.470, -0.02402, 0.00000, 0.00000, 0.00000, 0.02253
14.480, -0.02722, 0.00000, 0.00000, 0.00000, 0.02545
14.490, -0.03062, 0.00000, 0.00000, 0.00000, 0.02856
14.500, -0.03422, 0.00000, 0.00000, 0.00000, 0.03184
14.510, -0.03802, 0.00000, 0.00000, 0.00000, 0.03531
14.520, -0.04200, 0.00000, 0.00000, 0.00000, 0.03895
14.530, -0.04600, 0.00000, 0.00000, 0.00000, 0.04277
14.540, -0.05000, 0.00000, 0.00000, 0.00000, 0.04677
14.550, -0.05400, 0.00000, 0.00000, 0.00000, 0.05095
14.560, -0.05800, 0.00000, 0.00000, 0.00000, 0.05531
14.570, -0.06200, 0.00000, 0.00000, 0.00000, 0.05984
14.580, -0.06600, 0.00000, 0.00000, 0.00000, 0.06456
14.590, -0.07000, 0.00000, 0.00000, 0.00000, 0.06945
14.600, -0.07400, 0.00000, 0.00000, 0.00000, 0.07452
14.610, -0.07800, 0.00000, 0.00000, 0.00000, 0.07977
14.620, -0.08200, 0.00000, 0.00000, 0.00000, 0.08520
14.630, -0.08600, 0.00000, 0.00000, 0.00000, 0.09081
14.640, -0.09000, 0.00000, 0.00000, 0.00000, 0.09660
14.650, -0.09400, 0.00000, 0.00000, 0.00000, 0.10256
14.660, -0.09800, 0.00000, 0.00000, 0.00000, 0.10871
14.670, -0.10200, 0.00000, 0.00000, 0.00000, 0.11503
14.680, -0.10600, 0.00000, 0.00000, 0.00000, 0.12153
14.690, -0.11000, 0.00000, 0.00000, 0.00000, 0.12821
14.700, -0.11400, 0.00000, 0.00000, 0.00000, 0.13507
14.710, -0.11800, 0.00000, 0.00000, 0.00000, 0.14210
14.720, -0.12200, 0.00000, 0.00000, 0.00000, 0.14932
14.730, -0.12600, 0.00000, 0.00000, 0.00000, 0.15671
14.740, -0.13000, 0.00000, 0.00000, 0.00000, 0.16429
14.750, -0.13400, 0.00000, 0.00000, 0.00000, 0.17204
14.760, -0.13800, 0.00000, 0.00000, 0.00000, 0.17997
14.770, -0.14200, 0.00000, 0.00000, 0.00000, 0.18808
14.780, -0.14600, 0.00000, 0.00000, 0.00000, 0.19637
14.790, -0.15000, 0.00000, 0.00000, 0.00000, 0.20483
14.800, -0.15400, 0.00000, 0.00000, 0.00000, 0.21348
14.810, -0.15800, 0.00000, 0.00000, 0.00000, 0.22230
14.820, -0.16200, 0.00000, 0.00000, 0.00000, 0.23130
14.830, -0.16600, 0.00000, 0.00000, 0.00000, 0.24048
14.840, -0.17000, 0.00000, 0.00000, 0.00000, 0.24984
14.850, -0.17400, 0.00000, 0.00000, 0.00000, 0.25939
14.860, -0.17800, 0.00000, 0.00000, 0.00000, 0.26910
14.870, -0.18200, 0.00000, 0.00000, 0.00000, 0.27898
14.880, -0.18600, 0.00000, 0.00000, 0.00000, 0.28892
14.890, -0.19000, 0.00000, 0.00000, 0.00000, 0.29883
14.900, -0.19400, 0.00000, 0.00000, 0.00000, 0.30874
14.910, -0.19800, 0.00000, 0.00000, 0.00000, 0.31866
14.920, -0.20200, 0.00000, 0.00000, 0.00000, 0.32857
14.930, -0.20600, 0.00000, 0.00000, 0.00000, 0.33848
14.940, -0.21000, 0.00000, 0.00000, 0.00000, 0.34840
14.950, -0.21400, 0.00000, 0.00000, 0.00000, 0.35831
14.960, -0.21800, 0.00000, 0.00000, 0.00000, 0.36822
14.970, -0.22200, 0.00000, 0.00000, 0.00000, 0.37813
14.980, -0.22600, 0.00000, 0.00000, 0.00000, 0.38805
14.990, -0.23000, 0.00000, 0.00000, 0.00000, 0.39796
15.000, -0.23400, 0.00000, 0.00000, 0.00000, 0.40787
15.010, -0.23800, 0.00000, 0.00000, 0.00000, 0.41780
15.020, -0.24200, 0.00000, 0.00000, 0.00000, 0.42772
15.030, -0.24600, 0.00000, 0.00000, 0.00000, 0.43755
15.040, -0.25000, 0.00000, 0.00000, 0.00000, 0.44724
15.050, -0.25400, 0.00000, 0.00000, 0.00000, 0.45673
15.060, -0.25800, 0.00000, 0.00000, 0.00000, 0.46604
15.070, -0.26198, 0.00000, 0.00000, 0.00000, 0.47517
15.080, -0.26578, 0.00000, 0.00000, 0.00000, 0.48413
15.090, -0.26938, 0.00000, 0.00000, 0.00000, 0.49290
15.100, -0.27278, 0.00000, 0.00000, 0.00000, 0.50150
15.110, -0.27598, 0.00000, 0.00000, 0.00000, 0.50992
15.120, -0.27898, 0.00000, 0.00000, 0.00000, 0.51815
15.130, -0.28178, 0.00000, 0.00000, 0.00000, 0.52622
15.140, -0.28438, 0.00000, 0.00000, 0.00000, 0.53410
15.150, -0.28678, 0.00000, 0.00000, 0.00000, 0.54180
15.160, -0.28898, 0.00000, 0.00000, 0.00000, 0.54933
15.170, -0.29098, 0.00000, 0.00000, 0.00000, 0.55667
15.180, -0.29278, 0.00000, 0.00000, 0.00000, 0.56384
15.190, -0.29438, 0.00000, 0.00000, 0.00000, 0.57083
15.200, -0.29578, 0.00000, 0.00000, 0.00000, 0.57764
15.210, -0.29698, 0.00000, 0.00000, 0.00000, 0.58427
15.220, -0.29798, 0.00000, 0.00000, 0.00000, 0.59072
15.230, -0.29878, 0.00000, 0.00000, 0.00000, 0.59700
15.240, -0.29939, 0.00000, 0.00000, 0.00000, 0.60309
15.250, -0.29979, 0.00000, 0.00000, 0.00000, 0.60901
15.260, -0.29997, 0.00000, 0.00000, 0.00000, 0.61475
15.270, -0.30001, 0.00000, 0.00000, 0.00000, 0.62031
15.280, -0.30001, 0.00000, 0.00000, 0.00000, 0.62569
15.290, -0.30000, 0.00000, 0.00000, 0.00000, 0.63089
15.300, -0.30000, 0.00000, 0.00000, 0.00000, 0.63591
15.310, -0.30000, 0.00000, 0.00000, 0.00000, 0.64076
15.320, -0.30000, 0.00000, 0.00000, 0.00000, 0.64542
15.330, -0.30000, 0.00000, 0.00000, 0.00000, 0.64991
15.340, -0.30000, 0.00000, 0.00000, 0.00000, 0.65422
15.350, -0.30000, 0.00000, 0.00000, 0.00000, 0.65835
15.360, -0.30000, 0.00000, 0.00000, 0.00000, 0.66230
15.370, -0.30000, 0.00000, 0.00000, 0.00000, 0.66607
15.380, -0.30000, 0.00000, 0.00000, 0.00000, 0.66967
15.390, -0.30000, 0.00000, 0.00000, 0.00000, 0.67308
15.400, -0.30000, 0.00000, 0.00000, 0.00000, 0.67632
15.410, -0.30000, 0.00000, 0.00000, 0.00000, 0.67938
15.420, -0.30000, 0.00000, 0.00000, 0.00000, 0.68226
15.430, -0.30000, 0.00000, 0.00000, 0.00000, 0.68496
15.440, -0.30000, 0.00000, 0.00000, 0.00000, 0.68748
15.450, -0.30000, 0.00000, 0.00000, 0.00000, 0.68983
15.460, -0.30000, 0.00000, 0.00000, 0.00000, 0.69199
15.470, -0.30000, 0.00000, 0.00000, 0.00000, 0.69398
15.480, -0.30000, 0.00000, 0.00000, 0.00000, 0.69578
15.490, -0.30000, 0.00000, 0.00000, 0.00000, 0.69741
15.500, -0.30000, 0.00000, 0.00000, 0.00000, 0.69886
15.510, -0.30000, 0.00000, 0.00000, 0.00000, 0.70013
15.520, -0.30000, 0.00000, 0.00000, 0.00000, 0.70123
15.530, -0.30000, 0.00000, 0.00000, 0.00000, 0.70214
15.540, -0.30000, 0.00000, 0.00000, 0.00000, 0.70288
15.550, -0.30000, 0.00000, 0.00000, 0.00000, 0.70344
15.560, -0.30000, 0.00000, 0.00000, 0.00000, 0.70381
15.570, -0.30000, 0.00000, 0.00000, 0.00000, 0.70401
15.580, -0.30000, 0.00000, 0.00000, 0.00000, 0.70405
15.590, -0.30000, 0.00000, 0.00000, 0.00000, 0.70402
15.600, -0.30000, 0.00000, 0.00000, 0.00000, 0.70402
15.610, -0.30000, 0.00000, 0.00000, 0.00000, 0.70403
15.620, -0.30000, 0.00000, 0.00000, 0.00000, 0.70402
15.630, -0.30000, 0.00000, 0.00000, 0.00000, 0.70402
15.640, -0.30000, 0.00000, 0.00000, 0.00000, 0.70402
15.650, -0.30000, 0.00000, 0.00000, 0.00000, 0.70402
15.660, -0.30000, 0.00000, 0.00000, 0.00000, 0.70402
15.670, -0.30000, 0.00000, 0.00000, 0.00000, 0.70402
15.680, -0.30000, 0.00000, 0.00000, 0.00000, 0.70402
15.690, -0.30000, 0.00000, 0.00000, 0.00000, 0.70402
15.700, -0.30000, 0.00000, 0.00000, 0.00000, 0.70402
15.710, -0.30000, 0.00000, 0.00000, 0.00000, 0.70402
15.720, -0.30000, 0.00000, 0.00000, 0.00000, 0.70402
15.730, -0.30000, 0.00000, 0.00000, 0.00000, 0.70402
15.740, -0.30000, 0.00000, 0.00000, 0.00000, 0.70402
15.750, -0.30000, 0.00000, 0.00000, 0.00000, 0.70402
15.760, -0.30000, 0.00000, 0.00000, 0.00000, 0.70402
15.770, -0.30000, 0.00000, 0.00000, 0.00000, 0.70402
15.780, -0.30000, 0.00000, 0.00000, 0.00000, 0.70402
15.790, -0.30000, 0.00000, 0.00000, 0.00000, 0.70402
15.800, -0.30000, 0.00000, 0.00000, 0.00000, 0.70402
15.810, -0.30000, 0.00000, 0.00000, 0.00000, 0.70402
15.820, -0.30000, 0.00000, 0.00000, 0.00000, 0.70402
15.830, -0.30000, 0.00000, 0.00000, 0.00000, 0.70402
15.840, -0.30000, 0.00000, 0.00000, 0.00000, 0.70402
15.850, -0.30000, 0.00000, 0.00000, 0.00000, 0.70402
15.860, -0.30000, 0.00000, 0.00000, 0.00000, 0.70402
15.870, -0.30000, 0.00000, 0.00000, 0.00000, 0.70402
15.880, -0.30000, 0.00000, 0.00000, 0.00000, 0.70402
15.890, -0.30000, 0.00000, 0.00000, 0.00000, 0.70402
15.900, -0.30000, 0.00000, 0.00000, 0.00000, 0.70402
15.910, -0.30000, 0.00000, 0.00000, 0.00000, 0.70402
15.920, -0.30000, 0.00000, 0.00000, 0.00000, 0.70402
15.930, -0.30000, 0.00000, 0.00000, 0.00000, 0.70402
15.940, -0.30000, 0.00000, 0.00000, 0.00000, 0.70402
15.950, -0.30000, 0.00000, 0.00000, 0.00000, 0.70402
15.960, -0.30000, 0.00000, 0.00000, 0.00000, 0.70402
15.970, -0.30000, 0.00000, 0.00000, 0.00000, 0.70402
15.980, -0.30000, 0.00000, 0.00000, 0.00000, 0.70402
15.990, -0.30000, 0.00000, 0.00000, 0.00000, 0.70402
16.000, -0.30000, 0.00000, 0.00000, 0.00000, 0.70402
16.010, -0.30000, 0.00000, 0.00000, 0.00000, 0.70402
16.020, -0.30000, 0.00000, 0.00000, 0.00000, 0.70402
16.030, -0.30000, 0.00000, 0.00000, 0.00000, 0.70402
16.040, -0.30000, 0.00000, 0.00000, 0.00000, 0.70402
16.050, -0.30000, 0.00000, 0.00000, 0.00000, 0.70402
16.060, -0.30000, 0.00000, 0.00000, 0.00000, 0.70402
16.070, -0.30000, 0.00000, 0.00000, 0.00000, 0.70402
16.080, -0.30000, 0.00000, 0.00000, 0.00000, 0.70402
16.090, -0.30000, 0.00000, 0.00000, 0.00000, 0.70402
16.100, -0.30000, 0.00000, 0.00000, 0.00000, 0.70402
16.110, -0.30000, 0.00000, 0.00000, 0.00000, 0.70402
16.120, -0.30000, 0.00000, 0.00000, 0.00000, 0.70402
16.130, -0.30000, 0.00000, 0.00000, 0.00000, 0.70402
16.140, -0.30000, 0.00000, 0.00000, 0.00000, 0.70402
16.150, -0.30000, 0.00000, 0.00000, 0.00000, 0.70402
16.160, -0.30000, 0.00000, 0.00000, 0.00000, 0.70402
16.170, -0.30000, 0.00000, 0.00000, 0.00000, 0.70402
16.180, -0.30000, 0.00000, 0.00000, 0.00000, 0.70402
16.190, -0.30000, 0.00000, 0.00000, 0.00000, 0.70402
16.200, -0.30000, 0.00000, 0.00000, 0.00000, 0.70402
16.210, -0.30000, 0.00000, 0.00000, 0.00000, 0.70402
16.220, -0.30000, 0.00000, 0.00000, 0.00000, 0.70402
16.230, -0.30000, 0.00000, 0.00000, 0.00000, 0.70402
16.240, -0.30000, 0.00000, 0.00000, 0.00000, 0.70402
16.250, -0.30000, 0.00000, 0.00000, 0.00000, 0.70402
16.260, -0.30000, 0.00000, 0.00000, 0.00000, 0.70402
16.270, -0.30000, 0.00000, 0.00000, 0.00000, 0.70402
16.280, -0.30000, 0.00000, 0.00000, 0.00000, 0.70402
16.290, -0.30000, 0.00000, 0.00000, 0.00000, 0.70402
16.300, -0.30000, 0.00000, 0.00000, 0.00000, 0.70402
16.310, -0.30000, 0.00000, 0.00000, 0.00000, 0.70402
16.320, -0.30000, 0.00000, 0.00000, 0.00000, 0.70402
16.330, -0.30000, 0.00000, 0.00000, 0.00000, 0.70402
16.340, -0.30000, 0.00000, 0.00000, 0.00000, 0.70402
16.350, -0.30000, 0.00000, 0.00000, 0.00000, 0.70402
16.360, -0.30000, 0.00000, 0.00000, 0.00000, 0.70402
16.370, -0.30000, 0.00000, 0.00000, 0.00000, 0.70402
16.380, -0.30000, 0.00000, 0.00000, 0.00000, 0.70402
16.390, -0.30000, 0.00000, 0.00000, 0.00000, 0.70402
16.400, -0.30000, 0.00000, 0.00000, 0.00000, 0.70402
16.410, -0.30000, 0.00000, 0.00000, 0.00000, 0.70402
16.420, -0.30000, 0.00000, 0.00000, 0.00000, 0.70402
16.430, -0.30000, 0.00000, 0.00000, 0.00000, 0.70402
16.440, -0.30000, 0.00000, 0.00000, 0.00000, 0.70402
16.450, -0.30000, 0.00000, 0.00000, 0.00000, 0.70402
16.460, -0.30000, 0.00000, 0.00000, 0.00000, 0.70402
16.470, -0.30000, 0.00000, 0.00000, 0.00000, 0.70402
16.480, -0.30000, 0.00000, 0.00000, 0.00000, 0.70402
16.490, -0.30000, 0.00000, 0.00000, 0.00000, 0.70402
16.500, -0.30000, 0.00000, 0.00000, 0.00000, 0.70402
16.510, -0.30000, 0.00000, 0.00000, 0.00000, 0.70402
16.520, -0.30000, 0.00000, 0.00000, 0.00000, 0.70402
16.530, -0.30000, 0.00000, 0.00000, 0.00000, 0.70402
16.540, -0.30000, 0.00000, 0.00000, 0.00000, 0.70405
16.550, -0.30000, 0.00000, 0.00000, 0.00000, 0.70399
16.560, -0.30000, 0.00000, 0.00000, 0.00000, 0.70377
16.570, -0.30000, 0.00000, 0.00000, 0.00000, 0.70336
16.580, -0.30000, 0.00000, 0.00000, 0.00000, 0.70278
16.590, -0.30000, 0.00000, 0.00000, 0.00000, 0.70201
16.600, -0.30000, 0.00000, 0.00000, 0.00000, 0.70107
16.610, -0.30000, 0.00000, 0.00000, 0.00000, 0.69995
16.620, -0.30000, 0.00000, 0.00000, 0.00000, 0.69865
16.630, -0.30000, 0.00000, 0.00000, 0.00000, 0.69718
16.640, -0.30000, 0.00000, 0.00000, 0.00000, 0.69552
16.650, -0.30000, 0.00000, 0.00000, 0.00000, 0.69368
16.660, -0.30000, 0.00000, 0.00000, 0.00000, 0.69167
16.670, -0.30000, 0.00000, 0.00000, 0.00000, 0.68948
16.680, -0.30000, 0.00000, 0.00000, 0.00000, 0.68711
16.690, -0.30000, 0.00000, 0.00000, 0.00000, 0.68456
16.700, -0.30000, 0.00000, 0.00000, 0.00000, 0.68183
16.710, -0.30000, 0.00000, 0.00000, 0.00000, 0.67892
16.720, -0.30000, 0.00000, 0.00000, 0.00000, 0.67584
16.730, -0.30000, 0.00000, 0.00000, 0.00000, 0.67257
16.740, -0.30000, 0.00000, 0.00000, 0.00000, 0.66913
16.750, -0.30000, 0.00000, 0.00000, 0.00000, 0.66551
16.760, -0.30000, 0.00000, 0.00000, 0.00000, 0.66171
16.770, -0.30000, 0.00000, 0.00000, 0.00000, 0.65773
16.780, -0.30000, 0.00000, 0.00000, 0.00000, 0.65357
16.790, -0.30000, 0.00000, 0.00000, 0.00000, 0.64924
16.800, -0.30000, 0.00000, 0.00000, 0.00000, 0.64472
16.810, -0.30000, 0.00000, 0.00000, 0.00000, 0.64003
16.820, -0.30000, 0.00000, 0.00000, 0.00000, 0.63516
16.830, -0.30000, 0.00000, 0.00000, 0.00000, 0.63011
16.840, -0.30001, 0.00000, 0.00000, 0.00000, 0.62488
16.850, -0.30001, 0.00000, 0.00000, 0.00000, 0.61947
16.860, -0.29993, 0.00000, 0.00000, 0.00000, 0.61388
16.870, -0.29968, 0.00000, 0.00000, 0.00000, 0.60812
16.880, -0.29921, 0.00000, 0.00000, 0.00000, 0.60217
16.890, -0.29854, 0.00000, 0.00000, 0.00000, 0.59605
16.900, -0.29768, 0.00000, 0.00000, 0.00000, 0.58975
16.910, -0.29661, 0.00000, 0.00000, 0.00000, 0.58327
16.920, -0.29535, 0.00000, 0.00000, 0.00000, 0.57661
16.930, -0.29388, 0.00000, 0.00000, 0.00000, 0.56977
16.940, -0.29222, 0.00000, 0.00000, 0.00000, 0.56276
16.950, -0.29035, 0.00000, 0.00000, 0.00000, 0.55556
16.960, -0.28829, 0.00000, 0.00000, 0.00000, 0.54819
16.970, -0.28602, 0.00000, 0.00000, 0.00000, 0.54064
16.980, -0.28356, 0.00000, 0.00000, 0.00000, 0.53291
16.990, -0.28089, 0.00000, 0.00000, 0.00000, 0.52500
17.000, -0.27803, 0.00000, 0.00000, 0.00000, 0.51691
17.010, -0.27496, 0.00000, 0.00000, 0.00000, 0.50864
17.020, -0.27170, 0.00000, 0.00000, 0.00000, 0.50020
17.030, -0.26823, 0.00000, 0.00000, 0.00000, 0.49157
17.040, -0.26456, 0.00000, 0.00000, 0.00000, 0.48277
17.050, -0.26070, 0.00000, 0.00000, 0.00000, 0.47379
17.060, -0.25670, 0.00000, 0.00000, 0.00000, 0.46463
17.070, -0.25269, 0.00000, 0.00000, 0.00000, 0.45529
17.080, -0.24869, 0.00000, 0.00000, 0.00000, 0.44578
17.090, -0.24469, 0.00000, 0.00000, 0.00000, 0.43605
17.100, -0.24069, 0.00000, 0.00000, 0.00000, 0.42620
17.110, -0.23669, 0.00000, 0.00000, 0.00000, 0.41628
17.120, -0.23269, 0.00000, 0.00000, 0.00000, 0.40636
17.130, -0.22869, 0.00000, 0.00000, 0.00000, 0.39645
17.140, -0.22469, 0.00000, 0.00000, 0.00000, 0.38653
17.150, -0.22069, 0.00000, 0.00000, 0.00000, 0.37662
17.160, -0.21669, 0.00000, 0.00000, 0.00000, 0.36671
17.170, -0.21269, 0.00000, 0.00000, 0.00000, 0.35679
17.180, -0.20869, 0.00000, 0.00000, 0.00000, 0.34688
17.190, -0.20469, 0.00000, 0.00000, 0.00000, 0.33697
17.200, -0.20069, 0.00000, 0.00000, 0.00000, 0.32706
17.210, -0.19669, 0.00000, 0.00000, 0.00000, 0.31714
17.220, -0.19269, 0.00000, 0.00000, 0.00000, 0.30723
17.230, -0.18869, 0.00000, 0.00000, 0.00000, 0.29732
17.240, -0.18469, 0.00000, 0.00000, 0.00000, 0.28741
17.250, -0.18069, 0.00000, 0.00000, 0.00000, 0.27747
17.260, -0.17669, 0.00000, 0.00000, 0.00000, 0.26761
17.270, -0.17269, 0.00000, 0.00000, 0.00000, 0.25792
17.280, -0.16869, 0.00000, 0.00000, 0.00000, 0.24840
17.290, -0.16469, 0.00000, 0.00000, 0.00000, 0.23907
17.300, -0.16069, 0.00000, 0.00000, 0.00000, 0.22992
17.310, -0.15669, 0.00000, 0.00000, 0.00000, 0.22094
17.320, -0.15269, 0.00000, 0.00000, 0.00000, 0.21215
17.330, -0.14869, 0.00000, 0.00000, 0.00000, 0.20353
17.340, -0.14469, 0.00000, 0.00000, 0.00000, 0.19509
17.350, -0.14069, 0.00000, 0.00000, 0.00000, 0.18683
17.360, -0.13669, 0.00000, 0.00000, 0.00000, 0.17875
17.370, -0.13269, 0.00000, 0.00000, 0.00000, 0.17084
17.380, -0.12869, 0.00000, 0.00000, 0.00000, 0.16312
17.390, -0.12469, 0.00000, 0.00000, 0.00000, 0.15557
17.400, -0.12069, 0.00000, 0.00000, 0.00000, 0.14821
17.410, -0.11669, 0.00000, 0.00000, 0.00000, 0.14102
17.420, -0.11269, 0.00000, 0.00000, 0.00000, 0.13401
17.430, -0.10869, 0.00000, 0.00000, 0.00000, 0.12718
17.440, -0.10469, 0.00000, 0.00000, 0.00000, 0.12053
17.450, -0.10069, 0.00000, 0.00000, 0.00000, 0.11405
17.460, -0.09669, 0.00000, 0.00000, 0.00000, 0.10776
17.470, -0.09269, 0.00000, 0.00000, 0.00000, 0.10164
17.480, -0.08869, 0.00000, 0.00000, 0.00000, 0.09570
17.490, -0.08469, 0.00000, 0.00000, 0.00000, 0.08994
17.500, -0.08069, 0.00000, 0.00000, 0.00000, 0.08436
17.510, -0.07669, 0.00000, 0.00000, 0.00000, 0.07896
17.520, -0.07269, 0.00000, 0.00000, 0.00000, 0.07374
17.530, -0.06869, 0.00000, 0.00000, 0.00000, 0.06869
17.540, -0.06469, 0.00000, 0.00000, 0.00000, 0.06383
17.550, -0.06069, 0.00000, 0.00000, 0.00000, 0.05914
17.560, -0.05669, 0.00000, 0.00000, 0.00000, 0.05463
17.570, -0.05269, 0.00000, 0.00000, 0.00000, 0.05030
17.580, -0.04869, 0.00000, 0.00000, 0.00000, 0.04615
17.590, -0.04469, 0.00000, 0.00000, 0.00000, 0.04218
17.600, -0.04070, 0.00000, 0.00000, 0.00000, 0.03838
17.610, -0.03676, 0.00000, 0.00000, 0.00000, 0.03477
17.620, -0.03301, 0.00000, 0.00000, 0.00000, 0.03133
17.630, -0.02948, 0.00000, 0.00000, 0.00000, 0.02807
17.640, -0.02615, 0.00000, 0.00000, 0.00000, 0.02499
17.650, -0.02301, 0.00000, 0.00000, 0.00000, 0.02209
17.660, -0.02008, 0.00000, 0.00000, 0.00000, 0.01937
17.670, -0.01735, 0.00000, 0.00000, 0.00000, 0.01683
17.680, -0.01481, 0.00000, 0.00000, 0.00000, 0.01446
17.690, -0.01248, 0.00000, 0.00000, 0.00000, 0.01228
17.700, -0.01034, 0.00000, 0.00000, 0.00000, 0.01027
17.710, -0.00841, 0.00000, 0.00000, 0.00000, 0.00844
17.720, -0.00667, 0.00000, 0.00000, 0.00000, 0.00679
17.730, -0.00514, 0.00000, 0.00000, 0.00000, 0.00532
17.740, -0.00380, 0.00000, 0.00000, 0.00000, 0.00403
17.750, -0.00267, 0.00000, 0.00000, 0.00000, 0.00291
17.760, -0.00173, 0.00000, 0.00000, 0.00000, 0.00198
17.770, -0.00100, 0.00000, 0.00000, 0.00000, 0.00122
17.780, -0.00046, 0.00000, 0.00000, 0.00000, 0.00064
17.790, -0.00013, 0.00000, 0.00000, 0.00000, 0.00025
17.800, 0.00001, 0.00000, 0.00000, 0.00000, 0.00002
17.810, 0.00001, -0.00000, -0.00000, 0.00000, 0.00002
17.820, 0.00000, -0.00000, -0.00000, 0.00000, 0.00002
17.830, 0.00000, -0.00000, -0.00000, 0.00000, 0.00002
17.840, 0.00000, -0.00000, -0.00000, 0.00000, 0.00002
17.850, 0.00000, -0.00000, -0.00000, 0.00000, 0.00001
17.860, 0.00000, -0.00000, -0.00000, 0.00000, 0.00001
17.870, 0.00000, -0.00000, -0.00000, 0.00001, 0.00001
17.880, 0.00000, -0.00000, -0.00000, 0.00001, 0.00001
17.890, 0.00000, -0.00000, -0.00000, 0.00001, 0.00001
17.900, 0.00000, -0.00000, -0.00000, 0.00001, 0.00001
17.910, 0.00000, -0.00000, -0.00000, 0.00001, 0.00000
17.920, 0.00000, -0.00000, -0.00000, 0.00001, 0.00000
17.930, 0.00000, -0.00000, -0.00000, 0.00001, 0.00000
17.940, 0.00000, -0.00000, -0.00000, 0.00001, 0.00000
17.950, 0.00000, -0.00000, -0.00000, 0.00001, -0.00000
17.960, 0.00000, -0.00000, -0.00000, 0.00001, -0.00000
17.970, 0.00000, -0.00000, -0.00000, 0.00001, -0.00000
17.980, 0.00000, -0.00000, -0.00000, 0.00001, -0.00001
17.990, 0.00000, -0.00000, -0.00000, 0.00001, -0.00001
18.000, 0.00000, -0.00000, -0.00000, 0.00001, -0.00001
18.010, 0.00000, -0.00000, -0.00000, 0.00001, -0.00001
18.020, 0.00000, -0.00000, -0.00000, 0.00001, -0.00001
18.030, 0.00000, -0.00000, -0.00001, 0.00001, -0.00001
18.040, 0.00000, -0.00000, -0.00001, 0.00001, -0.00001
18.050, 0.00000, -0.00000, -0.00001, 0.00001, -0.00001
18.060, 0.00000, -0.00000, -0.00001, 0.00001, -0.00001
18.070, 0.00000, -0.00000, -0.00001, 0.00001, -0.00001
18.080, 0.00000, -0.00000, -0.00001, 0.00001, -0.00002
18.090, 0.00000, -0.00000, -0.00001, 0.00001, -0.00002
18.100, 0.00000, -0.00000, -0.00001, 0.00001, -0.00002
18.110, 0.00000, -0.00000, -0.00001, 0.00002, -0.00002
18.120, 0.00000, -0.00000, -0.00001, 0.00002, -0.00002
18.130, 0.00000, -0.00000, -0.00001, 0.00002, -0.00002
18.140, -0.00000, -0.00000, -0.00001, 0.00002, -0.00002
18.150, -0.00000, -0.00000, -0.00001, 0.00002, -0.00002
18.160, -0.00000, -0.00000, -0.00001, 0.00001, -0.00002
18.170, -0.00000, -0.00000, -0.00001, 0.00001, -0.00002
18.180, -0.00000, -0.00000, -0.00001, 0.00001, -0.00002
18.190, -0.00000, -0.00000, -0.00001, 0.00001, -0.00002
18.200, -0.00000, -0.00000, -0.00001, 0.00001, -0.00002
18.210, -0.00000, -0.00000, -0.00001, 0.00001, -0.00002
18.220, -0.00000, -0.00000, -0.00001, 0.00001, -0.00002
18.230, -0.00000, -0.00000, -0.00001, 0.00001, -0.00002
18.240, -0.00000, -0.00000, -0.00000, 0.00001, -0.00002
18.250, -0.00000, -0.00000, -0.00000, 0.00001, -0.00002
18.260, -0.00000, -0.00000, -0.00000, 0.00001, -0.00002
18.270, -0.00000, -0.00000, -0.00000, 0.00001, -0.00002
18.280, -0.00000, -0.00000, -0.00000, 0.00001, -0.00002
18.290, -0.00000, -0.00000, -0.00000, 0.00001, -0.00002
18.300, -0.00000, -0.00000, -0.00000, 0.00001, -0.00002
18.310, -0.00000, -0.00000, -0.00000, 0.00001, -0.00002
18.320, -0.00000, -0.00000, -0.00000, 0.00001, -0.00002
18.330, -0.00000, -0.00000, -0.00000, 0.00001, -0.00002
18.340, -0.00000, -0.00000, -0.00000, 0.00001, -0.00002
18.350, -0.00000, -0.00000, -0.00000, 0.00001, -0.00002
18.360, -0.00000, -0.00000, -0.00000, 0.00001, -0.00002
18.370, -0.00000, -0.00000, -0.00000, 0.00001, -0.00002
18.380, -0.00000, -0.00000, -0.00000, 0.00001, -0.00002
18.390, -0.00000, -0.00000, -0.00000, 0.00001, -0.00002
18.400, -0.00000, -0.00000, -0.00000, 0.00001, -0.00001
18.410, -0.00000, -0.00000, -0.00000, 0.00000, -0.00001
18.420, -0.00000, -0.00000, -0.00000, 0.00000, -0.00001
18.430, -0.00000, -0.00000, -0.00000, 0.00000, -0.00001
18.440, -0.00000, -0.00000, -0.00000, 0.00000, -0.00001
18.450, -0.00000, -0.00000, -0.00000, 0.00000, -0.00001
18.460, -0.00000, -0.00000, -0.00000, 0.00000, -0.00001
18.470, -0.00000, 0.00000, 0.00000, -0.00000, -0.00001
18.480, -0.00000, 0.00000, 0.00000, -0.00000, -0.00001
18.490, -0.00000, 0.00000, 0.00000, -0.00000, -0.00001
18.500, -0.00000, 0.00000, 0.00000, -0.00000, -0.00000
18.510, -0.00000, 0.00000, 0.00000, -0.00000, -0.00000
18.520, -0.00000, 0.00000, 0.00000, -0.00001, -0.00000
18.530, -0.00000, 0.00000, 0.00000, -0.00001, -0.00000
18.540, -0.00000, 0.00000, 0.00000, -0.00001, 0.00000
18.550, -0.00000, 0.00000, 0.00000, -0.00001, 0.00000
18.560, -0.00000, 0.00000, 0.00000, -0.00001, 0.00000
18.570, -0.00000, 0.00000, 0.00000, -0.00001, 0.00001
18.580, -0.00000, 0.00000, 0.00000, -0.00001, 0.00001
18.590, -0.00000, 0.00000, 0.00000, -0.00001, 0.00001
18.600, -0.00000, 0.00000, 0.00001, -0.00001, 0.00001
18.610, -0.00000, 0.00000, 0.00001, -0.00002, 0.00001
18.620, -0.00000, 0.00000, 0.00001, -0.00002, 0.00001
18.630, -0.00000, 0.00000, 0.00001, -0.00002, 0.00002
18.640, -0.00000, 0.00000, 0.00001, -0.00002, 0.00002
18.650, -0.00000, 0.00001, 0.00001, -0.00002, 0.00002
18.660, -0.00000, 0.00001, 0.00001, -0.00002, 0.00002
18.670, -0.00000, 0.00001, 0.00001, -0.00002, 0.00002
18.680, -0.00000, 0.00001, 0.00001, -0.00003, 0.00003
18.690, -0.00000, 0.00001, 0.00001, -0.00003, 0.00003
18.700, -0.00000, 0.00001, 0.00001, -0.00003, 0.00003
18.710, -0.00000, 0.00001, 0.00001, -0.00003, 0.00003
18.720, -0.00000, 0.00001, 0.00001, -0.00003, 0.00004
18.730, -0.00000, 0.00001, 0.00001, -0.00003, 0.00004
