kutzer/Scor6AxisToolbox/Scor6AxisToolbox Example SCRIPTS/ScorBotBoxData_sCurve/BSEPR_Position_30Hz.csv
Time_(s), Base_Joint_Position_(rad), Shoulder_Joint_Position_(rad), Elbow_Joint_Position_(rad), Wrist_Pitch_Joint_Position_(rad), Wrist_Roll_Joint_Position_(rad)
0.000, 0.00000, 2.09925, -1.65843, -1.54994, 0.00000
0.033, -0.00000, 2.09923, -1.65841, -1.54993, -0.00003
0.067, -0.00001, 2.09913, -1.65832, -1.54991, -0.00019
0.100, -0.00004, 2.09886, -1.65808, -1.54985, -0.00058
0.133, -0.00009, 2.09837, -1.65763, -1.54974, -0.00131
0.167, -0.00017, 2.09757, -1.65690, -1.54957, -0.00248
0.200, -0.00029, 2.09638, -1.65583, -1.54933, -0.00420
0.233, -0.00044, 2.09474, -1.65434, -1.54899, -0.00657
0.267, -0.00065, 2.09257, -1.65237, -1.54856, -0.00969
0.300, -0.00091, 2.08980, -1.64986, -1.54800, -0.01368
0.333, -0.00124, 2.08634, -1.64673, -1.54732, -0.01862
0.367, -0.00164, 2.08214, -1.64292, -1.54649, -0.02464
0.400, -0.00211, 2.07716, -1.63838, -1.54551, -0.03183
0.433, -0.00267, 2.07141, -1.63312, -1.54435, -0.04029
0.467, -0.00331, 2.06488, -1.62713, -1.54301, -0.05014
0.500, -0.00405, 2.05756, -1.62042, -1.54147, -0.06146
0.533, -0.00487, 2.04949, -1.61297, -1.53971, -0.07428
0.567, -0.00579, 2.04073, -1.60485, -1.53773, -0.08858
0.600, -0.00679, 2.03135, -1.59610, -1.53550, -0.10438
0.633, -0.00789, 2.02142, -1.58681, -1.53303, -0.12167
0.667, -0.00908, 2.01103, -1.57703, -1.53028, -0.14034
0.700, -0.01035, 2.00024, -1.56684, -1.52725, -0.16031
0.733, -0.01172, 1.98912, -1.55630, -1.52393, -0.18147
0.767, -0.01317, 1.97776, -1.54547, -1.52029, -0.20371
0.800, -0.01472, 1.96622, -1.53444, -1.51633, -0.22692
0.833, -0.01635, 1.95458, -1.52325, -1.51204, -0.25102
0.867, -0.01808, 1.94292, -1.51198, -1.50739, -0.27588
0.900, -0.01990, 1.93125, -1.50069, -1.50238, -0.30140
0.933, -0.02180, 1.91958, -1.48941, -1.49699, -0.32749
0.967, -0.02380, 1.90792, -1.47812, -1.49121, -0.35403
1.000, -0.02588, 1.89625, -1.46684, -1.48505, -0.38092
1.033, -0.02806, 1.88458, -1.45555, -1.47849, -0.40806
1.067, -0.03033, 1.87292, -1.44426, -1.47155, -0.43534
1.100, -0.03268, 1.86125, -1.43298, -1.46423, -0.46267
1.133, -0.03513, 1.84958, -1.42169, -1.45651, -0.48999
1.167, -0.03767, 1.83792, -1.41040, -1.44841, -0.51732
1.200, -0.04029, 1.82625, -1.39912, -1.43992, -0.54464
1.233, -0.04301, 1.81458, -1.38783, -1.43105, -0.57197
1.267, -0.04581, 1.80292, -1.37654, -1.42182, -0.59929
1.300, -0.04871, 1.79125, -1.36526, -1.41223, -0.62662
1.333, -0.05170, 1.77958, -1.35397, -1.40230, -0.65394
1.367, -0.05477, 1.76792, -1.34268, -1.39205, -0.68127
1.400, -0.05794, 1.75625, -1.33140, -1.38148, -0.70860
1.433, -0.06120, 1.74458, -1.32011, -1.37062, -0.73592
1.467, -0.06454, 1.73292, -1.30882, -1.35948, -0.76325
1.500, -0.06798, 1.72125, -1.29754, -1.34807, -0.79057
1.533, -0.07151, 1.70958, -1.28625, -1.33640, -0.81790
1.567, -0.07512, 1.69792, -1.27496, -1.32448, -0.84522
1.600, -0.07883, 1.68625, -1.26368, -1.31234, -0.87255
1.633, -0.08263, 1.67458, -1.25239, -1.29999, -0.89987
1.667, -0.08651, 1.66292, -1.24111, -1.28743, -0.92720
1.700, -0.09049, 1.65125, -1.22982, -1.27469, -0.95452
1.733, -0.09454, 1.63958, -1.21853, -1.26177, -0.98185
1.767, -0.09867, 1.62792, -1.20725, -1.24870, -1.00917
1.800, -0.10287, 1.61625, -1.19596, -1.23548, -1.03650
1.833, -0.10713, 1.60458, -1.18467, -1.22213, -1.06382
1.867, -0.11144, 1.59292, -1.17339, -1.20866, -1.09115
1.900, -0.11580, 1.58125, -1.16210, -1.19508, -1.11847
1.933, -0.12020, 1.56958, -1.15081, -1.18142, -1.14580
1.967, -0.12463, 1.55792, -1.13953, -1.16768, -1.17312
2.000, -0.12909, 1.54625, -1.12824, -1.15387, -1.20045
2.033, -0.13357, 1.53458, -1.11695, -1.14002, -1.22777
2.067, -0.13806, 1.52292, -1.10567, -1.12613, -1.25510
2.100, -0.14256, 1.51125, -1.09438, -1.11222, -1.28242
2.133, -0.14707, 1.49958, -1.08309, -1.09830, -1.30975
2.167, -0.15157, 1.48792, -1.07181, -1.08439, -1.33707
2.200, -0.15607, 1.47625, -1.06052, -1.07047, -1.36440
2.233, -0.16057, 1.46458, -1.04924, -1.05655, -1.39173
2.267, -0.16507, 1.45292, -1.03795, -1.04263, -1.41905
2.300, -0.16957, 1.44125, -1.02666, -1.02872, -1.44638
2.333, -0.17407, 1.42958, -1.01538, -1.01480, -1.47370
2.367, -0.17857, 1.41792, -1.00409, -1.00088, -1.50103
2.400, -0.18307, 1.40625, -0.99280, -0.98697, -1.52835
2.433, -0.18757, 1.39458, -0.98152, -0.97305, -1.55568
2.467, -0.19208, 1.38292, -0.97023, -0.95913, -1.58300
2.500, -0.19658, 1.37125, -0.95894, -0.94521, -1.61033
2.533, -0.20108, 1.35958, -0.94766, -0.93130, -1.63765
2.567, -0.20558, 1.34792, -0.93637, -0.91738, -1.66498
2.600, -0.21008, 1.33625, -0.92508, -0.90346, -1.69230
2.633, -0.21458, 1.32458, -0.91380, -0.88955, -1.71963
2.667, -0.21908, 1.31292, -0.90251, -0.87563, -1.74695
2.700, -0.22358, 1.30125, -0.89122, -0.86171, -1.77428
2.733, -0.22808, 1.28958, -0.87994, -0.84779, -1.80160
2.767, -0.23258, 1.27792, -0.86865, -0.83388, -1.82893
2.800, -0.23709, 1.26625, -0.85736, -0.81996, -1.85625
2.833, -0.24159, 1.25458, -0.84608, -0.80605, -1.88358
2.867, -0.24608, 1.24292, -0.83479, -0.79217, -1.91090
2.900, -0.25056, 1.23125, -0.82351, -0.77832, -1.93823
2.933, -0.25503, 1.21958, -0.81222, -0.76453, -1.96555
2.967, -0.25947, 1.20792, -0.80093, -0.75080, -1.99288
3.000, -0.26387, 1.19625, -0.78965, -0.73715, -2.02020
3.033, -0.26824, 1.18458, -0.77836, -0.72359, -2.04753
3.067, -0.27256, 1.17292, -0.76707, -0.71013, -2.07485
3.100, -0.27683, 1.16125, -0.75579, -0.69680, -2.10218
3.133, -0.28104, 1.14958, -0.74450, -0.68360, -2.12951
3.167, -0.28518, 1.13792, -0.73321, -0.67055, -2.15683
3.200, -0.28925, 1.12625, -0.72193, -0.65766, -2.18416
3.233, -0.29324, 1.11458, -0.71064, -0.64495, -2.21148
3.267, -0.29715, 1.10292, -0.69935, -0.63242, -2.23881
3.300, -0.30096, 1.09125, -0.68807, -0.62010, -2.26613
3.333, -0.30468, 1.07958, -0.67678, -0.60799, -2.29346
3.367, -0.30832, 1.06792, -0.66549, -0.59612, -2.32078
3.400, -0.31186, 1.05625, -0.65421, -0.58449, -2.34811
3.433, -0.31532, 1.04458, -0.64292, -0.57311, -2.37543
3.467, -0.31868, 1.03292, -0.63164, -0.56201, -2.40276
3.500, -0.32195, 1.02125, -0.62035, -0.55120, -2.43008
3.533, -0.32514, 1.00958, -0.60906, -0.54068, -2.45741
3.567, -0.32823, 0.99792, -0.59778, -0.53048, -2.48473
3.600, -0.33124, 0.98625, -0.58649, -0.52061, -2.51206
3.633, -0.33415, 0.97458, -0.57520, -0.51107, -2.53938
3.667, -0.33697, 0.96292, -0.56392, -0.50189, -2.56671
3.700, -0.33971, 0.95125, -0.55263, -0.49308, -2.59403
3.733, -0.34235, 0.93958, -0.54134, -0.48465, -2.62136
3.767, -0.34490, 0.92792, -0.53006, -0.47661, -2.64868
3.800, -0.34737, 0.91625, -0.51877, -0.46896, -2.67601
3.833, -0.34974, 0.90458, -0.50748, -0.46169, -2.70333
3.867, -0.35202, 0.89292, -0.49620, -0.45481, -2.73063
3.900, -0.35422, 0.88125, -0.48491, -0.44832, -2.75779
3.933, -0.35632, 0.86958, -0.47362, -0.44221, -2.78471
3.967, -0.35833, 0.85792, -0.46234, -0.43649, -2.81129
4.000, -0.36026, 0.84625, -0.45105, -0.43116, -2.83743
4.033, -0.36209, 0.83458, -0.43976, -0.42621, -2.86302
4.067, -0.36383, 0.82292, -0.42849, -0.42162, -2.88796
4.100, -0.36549, 0.81127, -0.41728, -0.41738, -2.91214
4.133, -0.36705, 0.79969, -0.40620, -0.41347, -2.93545
4.167, -0.36852, 0.78828, -0.39532, -0.40988, -2.95780
4.200, -0.36990, 0.77709, -0.38471, -0.40661, -2.97908
4.233, -0.37120, 0.76620, -0.37443, -0.40362, -2.99918
4.267, -0.37240, 0.75569, -0.36455, -0.40092, -3.01800
4.300, -0.37351, 0.74563, -0.35514, -0.39848, -3.03543
4.333, -0.37454, 0.73610, -0.34626, -0.39630, -3.05139
4.367, -0.37547, 0.72716, -0.33798, -0.39435, -3.06586
4.400, -0.37631, 0.71890, -0.33038, -0.39263, -3.07883
4.433, -0.37706, 0.71138, -0.32349, -0.39112, -3.09031
4.467, -0.37773, 0.70464, -0.31734, -0.38981, -3.10031
4.500, -0.37830, 0.69867, -0.31191, -0.38868, -3.10892
4.533, -0.37879, 0.69349, -0.30720, -0.38772, -3.11624
4.567, -0.37920, 0.68908, -0.30323, -0.38691, -3.12238
4.600, -0.37954, 0.68543, -0.29995, -0.38625, -3.12743
4.633, -0.37981, 0.68248, -0.29730, -0.38572, -3.13151
4.667, -0.38003, 0.68016, -0.29521, -0.38530, -3.13472
4.700, -0.38020, 0.67838, -0.29362, -0.38498, -3.13717
4.733, -0.38032, 0.67708, -0.29245, -0.38475, -3.13895
4.767, -0.38041, 0.67618, -0.29165, -0.38459, -3.14018
4.800, -0.38046, 0.67561, -0.29114, -0.38449, -3.14095
4.833, -0.38049, 0.67529, -0.29086, -0.38444, -3.14137
4.867, -0.38051, 0.67515, -0.29074, -0.38441, -3.14155
4.900, -0.38051, 0.67512, -0.29071, -0.38441, -3.14159
4.933, -0.38051, 0.67512, -0.29071, -0.38441, -3.14159
4.967, -0.38051, 0.67512, -0.29071, -0.38441, -3.14159
5.000, -0.38051, 0.67512, -0.29071, -0.38441, -3.14159
5.033, -0.38051, 0.67512, -0.29071, -0.38441, -3.14159
5.067, -0.38051, 0.67512, -0.29071, -0.38441, -3.14159
5.100, -0.38051, 0.67512, -0.29071, -0.38441, -3.14159
5.133, -0.38051, 0.67512, -0.29071, -0.38441, -3.14159
5.167, -0.38051, 0.67512, -0.29071, -0.38441, -3.14159
5.200, -0.38051, 0.67512, -0.29071, -0.38441, -3.14159
5.233, -0.38051, 0.67512, -0.29071, -0.38441, -3.14159
5.267, -0.38051, 0.67512, -0.29071, -0.38441, -3.14159
5.300, -0.38051, 0.67512, -0.29071, -0.38441, -3.14159
5.333, -0.38051, 0.67512, -0.29071, -0.38441, -3.14159
5.367, -0.38051, 0.67512, -0.29071, -0.38441, -3.14159
5.400, -0.38051, 0.67512, -0.29071, -0.38441, -3.14159
5.433, -0.38051, 0.67512, -0.29071, -0.38441, -3.14159
5.467, -0.38051, 0.67512, -0.29071, -0.38441, -3.14159
5.500, -0.38051, 0.67512, -0.29071, -0.38441, -3.14159
5.533, -0.38051, 0.67512, -0.29071, -0.38441, -3.14159
5.567, -0.38051, 0.67512, -0.29071, -0.38441, -3.14159
5.600, -0.38051, 0.67512, -0.29071, -0.38441, -3.14160
5.633, -0.38051, 0.67512, -0.29071, -0.38441, -3.14160
5.667, -0.38051, 0.67512, -0.29071, -0.38441, -3.14160
5.700, -0.38051, 0.67512, -0.29071, -0.38441, -3.14160
5.733, -0.38051, 0.67512, -0.29071, -0.38441, -3.14159
5.767, -0.38051, 0.67512, -0.29071, -0.38441, -3.14159
5.800, -0.38051, 0.67512, -0.29071, -0.38441, -3.14159
5.833, -0.38051, 0.67512, -0.29071, -0.38441, -3.14159
5.867, -0.38051, 0.67512, -0.29071, -0.38441, -3.14159
5.900, -0.38051, 0.67512, -0.29071, -0.38441, -3.14159
5.933, -0.38050, 0.67512, -0.29071, -0.38441, -3.14158
5.967, -0.38043, 0.67512, -0.29071, -0.38441, -3.14151
6.000, -0.38023, 0.67512, -0.29071, -0.38441, -3.14130
6.033, -0.37981, 0.67512, -0.29071, -0.38441, -3.14090
6.067, -0.37910, 0.67512, -0.29071, -0.38441, -3.14024
6.100, -0.37804, 0.67512, -0.29071, -0.38441, -3.13925
6.133, -0.37655, 0.67512, -0.29071, -0.38441, -3.13787
6.167, -0.37462, 0.67512, -0.29071, -0.38441, -3.13602
6.200, -0.37224, 0.67512, -0.29071, -0.38441, -3.13365
6.233, -0.36942, 0.67512, -0.29071, -0.38441, -3.13068
6.267, -0.36615, 0.67512, -0.29071, -0.38441, -3.12705
6.300, -0.36244, 0.67512, -0.29071, -0.38441, -3.12270
6.333, -0.35828, 0.67512, -0.29071, -0.38441, -3.11756
6.367, -0.35368, 0.67512, -0.29071, -0.38441, -3.11156
6.400, -0.34864, 0.67512, -0.29071, -0.38441, -3.10463
6.433, -0.34315, 0.67512, -0.29071, -0.38441, -3.09671
6.467, -0.33722, 0.67512, -0.29071, -0.38441, -3.08774
6.500, -0.33084, 0.67512, -0.29071, -0.38441, -3.07767
6.533, -0.32402, 0.67512, -0.29071, -0.38441, -3.06650
6.567, -0.31675, 0.67512, -0.29071, -0.38441, -3.05422
6.600, -0.30904, 0.67512, -0.29071, -0.38441, -3.04085
6.633, -0.30088, 0.67512, -0.29071, -0.38441, -3.02637
6.667, -0.29228, 0.67512, -0.29071, -0.38441, -3.01084
6.700, -0.28327, 0.67512, -0.29071, -0.38441, -2.99432
6.733, -0.27391, 0.67512, -0.29071, -0.38441, -2.97687
6.767, -0.26428, 0.67512, -0.29071, -0.38441, -2.95856
6.800, -0.25445, 0.67512, -0.29071, -0.38441, -2.93946
6.833, -0.24451, 0.67512, -0.29071, -0.38441, -2.91963
6.867, -0.23451, 0.67512, -0.29071, -0.38441, -2.89914
6.900, -0.22451, 0.67512, -0.29071, -0.38441, -2.87806
6.933, -0.21451, 0.67512, -0.29071, -0.38441, -2.85645
6.967, -0.20451, 0.67512, -0.29071, -0.38441, -2.83438
7.000, -0.19451, 0.67512, -0.29071, -0.38441, -2.81191
7.033, -0.18451, 0.67512, -0.29071, -0.38441, -2.78911
7.067, -0.17451, 0.67512, -0.29071, -0.38441, -2.76604
7.100, -0.16451, 0.67512, -0.29071, -0.38441, -2.74278
7.133, -0.15451, 0.67512, -0.29071, -0.38441, -2.71939
7.167, -0.14451, 0.67512, -0.29071, -0.38441, -2.69593
7.200, -0.13451, 0.67512, -0.29071, -0.38441, -2.67246
7.233, -0.12451, 0.67512, -0.29071, -0.38441, -2.64900
7.267, -0.11451, 0.67512, -0.29071, -0.38441, -2.62553
7.300, -0.10451, 0.67512, -0.29071, -0.38441, -2.60206
7.333, -0.09451, 0.67512, -0.29071, -0.38441, -2.57859
7.367, -0.08451, 0.67512, -0.29071, -0.38441, -2.55513
7.400, -0.07451, 0.67512, -0.29071, -0.38441, -2.53166
7.433, -0.06451, 0.67512, -0.29071, -0.38441, -2.50819
7.467, -0.05451, 0.67512, -0.29071, -0.38441, -2.48472
7.500, -0.04451, 0.67512, -0.29071, -0.38441, -2.46126
7.533, -0.03451, 0.67512, -0.29071, -0.38441, -2.43779
7.567, -0.02451, 0.67512, -0.29071, -0.38441, -2.41432
7.600, -0.01451, 0.67512, -0.29071, -0.38441, -2.39085
7.633, -0.00451, 0.67512, -0.29071, -0.38441, -2.36739
7.667, 0.00549, 0.67512, -0.29071, -0.38441, -2.34392
7.700, 0.01549, 0.67512, -0.29071, -0.38441, -2.32045
7.733, 0.02549, 0.67512, -0.29071, -0.38441, -2.29698
7.767, 0.03549, 0.67512, -0.29071, -0.38441, -2.27352
7.800, 0.04549, 0.67512, -0.29071, -0.38441, -2.25005
7.833, 0.05549, 0.67512, -0.29071, -0.38441, -2.22658
7.867, 0.06549, 0.67512, -0.29071, -0.38441, -2.20311
7.900, 0.07549, 0.67512, -0.29071, -0.38441, -2.17965
7.933, 0.08549, 0.67512, -0.29071, -0.38441, -2.15618
7.967, 0.09549, 0.67512, -0.29071, -0.38441, -2.13271
8.000, 0.10549, 0.67512, -0.29071, -0.38441, -2.10924
8.033, 0.11549, 0.67512, -0.29071, -0.38441, -2.08578
8.067, 0.12549, 0.67512, -0.29071, -0.38441, -2.06231
8.100, 0.13549, 0.67512, -0.29071, -0.38441, -2.03884
8.133, 0.14549, 0.67512, -0.29071, -0.38441, -2.01537
8.167, 0.15549, 0.67512, -0.29071, -0.38441, -1.99192
8.200, 0.16549, 0.67512, -0.29071, -0.38441, -1.96853
8.233, 0.17549, 0.67512, -0.29071, -0.38441, -1.94528
8.267, 0.18549, 0.67512, -0.29071, -0.38441, -1.92222
8.300, 0.19549, 0.67512, -0.29071, -0.38441, -1.89944
8.333, 0.20549, 0.67512, -0.29071, -0.38441, -1.87699
8.367, 0.21549, 0.67512, -0.29071, -0.38441, -1.85493
8.400, 0.22549, 0.67512, -0.29071, -0.38441, -1.83334
8.433, 0.23549, 0.67512, -0.29071, -0.38441, -1.81229
8.467, 0.24549, 0.67512, -0.29071, -0.38441, -1.79183
8.500, 0.25542, 0.67512, -0.29071, -0.38441, -1.77203
8.533, 0.26523, 0.67512, -0.29071, -0.38441, -1.75296
8.567, 0.27484, 0.67512, -0.29071, -0.38441, -1.73469
8.600, 0.28417, 0.67512, -0.29071, -0.38441, -1.71729
8.633, 0.29315, 0.67512, -0.29071, -0.38441, -1.70081
8.667, 0.30170, 0.67512, -0.29071, -0.38441, -1.68532
8.700, 0.30982, 0.67512, -0.29071, -0.38441, -1.67090
8.733, 0.31748, 0.67512, -0.29071, -0.38441, -1.65757
8.767, 0.32471, 0.67512, -0.29071, -0.38441, -1.64535
8.800, 0.33148, 0.67512, -0.29071, -0.38441, -1.63423
8.833, 0.33782, 0.67512, -0.29071, -0.38441, -1.62421
8.867, 0.34371, 0.67512, -0.29071, -0.38441, -1.61529
8.900, 0.34915, 0.67512, -0.29071, -0.38441, -1.60742
8.933, 0.35415, 0.67512, -0.29071, -0.38441, -1.60054
8.967, 0.35871, 0.67512, -0.29071, -0.38441, -1.59458
9.000, 0.36282, 0.67512, -0.29071, -0.38441, -1.58947
9.033, 0.36649, 0.67512, -0.29071, -0.38441, -1.58515
9.067, 0.36971, 0.67512, -0.29071, -0.38441, -1.58156
9.100, 0.37249, 0.67512, -0.29071, -0.38441, -1.57862
9.133, 0.37483, 0.67512, -0.29071, -0.38441, -1.57627
9.167, 0.37672, 0.67512, -0.29071, -0.38441, -1.57445
9.200, 0.37816, 0.67512, -0.29071, -0.38441, -1.57308
9.233, 0.37919, 0.67512, -0.29071, -0.38441, -1.57211
9.267, 0.37986, 0.67512, -0.29071, -0.38441, -1.57146
9.300, 0.38025, 0.67512, -0.29071, -0.38441, -1.57107
9.333, 0.38044, 0.67512, -0.29071, -0.38441, -1.57088
9.367, 0.38050, 0.67512, -0.29071, -0.38441, -1.57081
9.400, 0.38051, 0.67512, -0.29071, -0.38441, -1.57080
9.433, 0.38051, 0.67512, -0.29071, -0.38441, -1.57080
9.467, 0.38051, 0.67512, -0.29071, -0.38441, -1.57080
9.500, 0.38051, 0.67512, -0.29071, -0.38441, -1.57080
9.533, 0.38051, 0.67512, -0.29071, -0.38441, -1.57080
9.567, 0.38051, 0.67512, -0.29071, -0.38441, -1.57080
9.600, 0.38051, 0.67512, -0.29071, -0.38441, -1.57080
9.633, 0.38051, 0.67512, -0.29071, -0.38441, -1.57080
9.667, 0.38051, 0.67512, -0.29071, -0.38441, -1.57080
9.700, 0.38051, 0.67512, -0.29071, -0.38441, -1.57080
9.733, 0.38051, 0.67512, -0.29071, -0.38441, -1.57080
9.767, 0.38051, 0.67512, -0.29071, -0.38441, -1.57080
9.800, 0.38051, 0.67512, -0.29071, -0.38441, -1.57080
9.833, 0.38051, 0.67512, -0.29071, -0.38441, -1.57080
9.867, 0.38051, 0.67512, -0.29071, -0.38442, -1.57080
9.900, 0.38051, 0.67512, -0.29071, -0.38442, -1.57080
9.933, 0.38051, 0.67512, -0.29071, -0.38442, -1.57080
9.967, 0.38051, 0.67512, -0.29071, -0.38442, -1.57081
10.000, 0.38051, 0.67512, -0.29071, -0.38442, -1.57081
10.033, 0.38051, 0.67512, -0.29071, -0.38442, -1.57081
10.067, 0.38051, 0.67512, -0.29071, -0.38442, -1.57081
10.100, 0.38051, 0.67512, -0.29071, -0.38442, -1.57081
10.133, 0.38051, 0.67512, -0.29071, -0.38442, -1.57081
10.167, 0.38051, 0.67512, -0.29071, -0.38442, -1.57081
10.200, 0.38051, 0.67512, -0.29071, -0.38442, -1.57081
10.233, 0.38051, 0.67512, -0.29071, -0.38442, -1.57081
10.267, 0.38051, 0.67512, -0.29071, -0.38441, -1.57080
10.300, 0.38051, 0.67512, -0.29071, -0.38441, -1.57080
10.333, 0.38051, 0.67512, -0.29071, -0.38441, -1.57080
10.367, 0.38051, 0.67512, -0.29071, -0.38441, -1.57080
10.400, 0.38051, 0.67512, -0.29071, -0.38441, -1.57080
10.433, 0.38051, 0.67511, -0.29075, -0.38437, -1.57074
10.467, 0.38051, 0.67507, -0.29089, -0.38424, -1.57051
10.500, 0.38051, 0.67497, -0.29122, -0.38396, -1.56999
10.533, 0.38051, 0.67481, -0.29180, -0.38347, -1.56909
10.567, 0.38051, 0.67455, -0.29271, -0.38270, -1.56769
10.600, 0.38051, 0.67418, -0.29402, -0.38161, -1.56567
10.633, 0.38051, 0.67368, -0.29581, -0.38013, -1.56294
10.667, 0.38051, 0.67303, -0.29816, -0.37819, -1.55936
10.700, 0.38051, 0.67221, -0.30113, -0.37575, -1.55484
10.733, 0.38051, 0.67119, -0.30480, -0.37275, -1.54927
10.767, 0.38051, 0.66996, -0.30923, -0.36912, -1.54253
10.800, 0.38051, 0.66850, -0.31444, -0.36480, -1.53451
10.833, 0.38051, 0.66678, -0.32043, -0.35974, -1.52510
10.867, 0.38051, 0.66479, -0.32720, -0.35387, -1.51420
10.900, 0.38051, 0.66251, -0.33474, -0.34714, -1.50174
10.933, 0.38051, 0.65991, -0.34302, -0.33949, -1.48773
10.967, 0.38051, 0.65699, -0.35198, -0.33086, -1.47217
11.000, 0.38051, 0.65374, -0.36153, -0.32121, -1.45506
11.033, 0.38051, 0.65017, -0.37161, -0.31054, -1.43645
11.067, 0.38051, 0.64626, -0.38213, -0.29884, -1.41647
11.100, 0.38051, 0.64203, -0.39303, -0.28612, -1.39523
11.133, 0.38051, 0.63747, -0.40423, -0.27238, -1.37282
11.167, 0.38051, 0.63259, -0.41565, -0.25765, -1.34937
11.200, 0.38051, 0.62739, -0.42722, -0.24198, -1.32499
11.233, 0.38051, 0.62188, -0.43888, -0.22543, -1.29978
11.267, 0.38051, 0.61610, -0.45054, -0.20807, -1.27386
11.300, 0.38051, 0.61007, -0.46221, -0.18994, -1.24734
11.333, 0.38051, 0.60379, -0.47388, -0.17112, -1.22033
11.367, 0.38051, 0.59729, -0.48554, -0.15166, -1.19293
11.400, 0.38051, 0.59060, -0.49721, -0.13162, -1.16527
11.433, 0.38051, 0.58373, -0.50888, -0.11105, -1.13745
11.467, 0.38051, 0.57670, -0.52054, -0.09003, -1.10958
11.500, 0.38051, 0.56954, -0.53221, -0.06860, -1.08171
11.533, 0.38051, 0.56226, -0.54388, -0.04682, -1.05383
11.567, 0.38051, 0.55488, -0.55554, -0.02476, -1.02596
11.600, 0.38051, 0.54742, -0.56721, -0.00248, -0.99809
11.633, 0.38051, 0.53991, -0.57888, 0.01997, -0.97022
11.667, 0.38051, 0.53236, -0.59054, 0.04253, -0.94234
11.700, 0.38051, 0.52480, -0.60221, 0.06514, -0.91447
11.733, 0.38051, 0.51723, -0.61388, 0.08775, -0.88660
11.767, 0.38051, 0.50967, -0.62554, 0.11036, -0.85872
11.800, 0.38051, 0.50210, -0.63721, 0.13297, -0.83085
11.833, 0.38051, 0.49454, -0.64888, 0.15558, -0.80298
11.867, 0.38051, 0.48697, -0.66054, 0.17819, -0.77511
11.900, 0.38051, 0.47941, -0.67221, 0.20080, -0.74723
11.933, 0.38051, 0.47184, -0.68388, 0.22341, -0.71936
11.967, 0.38051, 0.46428, -0.69554, 0.24602, -0.69149
12.000, 0.38051, 0.45671, -0.70721, 0.26864, -0.66362
12.033, 0.38051, 0.44915, -0.71888, 0.29124, -0.63574
12.067, 0.38051, 0.44159, -0.73054, 0.31380, -0.60787
12.100, 0.38051, 0.43407, -0.74221, 0.33624, -0.58000
12.133, 0.38051, 0.42660, -0.75388, 0.35852, -0.55213
12.167, 0.38051, 0.41920, -0.76554, 0.38056, -0.52425
12.200, 0.38051, 0.41189, -0.77721, 0.40232, -0.49638
12.233, 0.38051, 0.40469, -0.78888, 0.42374, -0.46851
12.267, 0.38051, 0.39763, -0.80054, 0.44474, -0.44064
12.300, 0.38051, 0.39072, -0.81221, 0.46529, -0.41279
12.333, 0.38051, 0.38398, -0.82388, 0.48531, -0.38508
12.367, 0.38051, 0.37743, -0.83554, 0.50474, -0.35760
12.400, 0.38051, 0.37110, -0.84721, 0.52353, -0.33048
12.433, 0.38051, 0.36500, -0.85888, 0.54162, -0.30382
12.467, 0.38051, 0.35915, -0.87054, 0.55895, -0.27773
12.500, 0.38051, 0.35358, -0.88220, 0.57546, -0.25233
12.533, 0.38051, 0.34830, -0.89381, 0.59109, -0.22772
12.567, 0.38051, 0.34333, -0.90527, 0.60579, -0.20401
12.600, 0.38051, 0.33869, -0.91654, 0.61948, -0.18132
12.633, 0.38051, 0.33438, -0.92752, 0.63215, -0.15976
12.667, 0.38051, 0.33039, -0.93814, 0.64381, -0.13944
12.700, 0.38051, 0.32673, -0.94834, 0.65443, -0.12047
12.733, 0.38051, 0.32340, -0.95803, 0.66404, -0.10295
12.767, 0.38051, 0.32040, -0.96715, 0.67263, -0.08698
12.800, 0.38051, 0.31772, -0.97561, 0.68024, -0.07257
12.833, 0.38051, 0.31536, -0.98335, 0.68692, -0.05971
12.867, 0.38051, 0.31330, -0.99031, 0.69275, -0.04840
12.900, 0.38051, 0.31152, -0.99650, 0.69778, -0.03861
12.933, 0.38051, 0.30999, -1.00191, 0.70207, -0.03024
12.967, 0.38051, 0.30871, -1.00654, 0.70567, -0.02317
13.000, 0.38051, 0.30764, -1.01040, 0.70865, -0.01731
13.033, 0.38051, 0.30677, -1.01354, 0.71107, -0.01252
13.067, 0.38051, 0.30608, -1.01604, 0.71298, -0.00871
13.100, 0.38051, 0.30554, -1.01796, 0.71445, -0.00577
13.133, 0.38051, 0.30514, -1.01939, 0.71552, -0.00357
13.167, 0.38051, 0.30486, -1.02040, 0.71627, -0.00202
13.200, 0.38051, 0.30467, -1.02105, 0.71676, -0.00100
13.233, 0.38051, 0.30456, -1.02144, 0.71703, -0.00040
13.267, 0.38051, 0.30451, -1.02162, 0.71716, -0.00010
13.300, 0.38051, 0.30449, -1.02168, 0.71719, -0.00001
13.333, 0.38051, 0.30449, -1.02168, 0.71719, 0.00000
13.367, 0.38051, 0.30449, -1.02168, 0.71719, 0.00000
13.400, 0.38051, 0.30449, -1.02168, 0.71719, 0.00000
13.433, 0.38051, 0.30449, -1.02168, 0.71719, 0.00000
13.467, 0.38051, 0.30449, -1.02168, 0.71719, 0.00000
13.500, 0.38051, 0.30449, -1.02168, 0.71719, 0.00000
13.533, 0.38051, 0.30449, -1.02168, 0.71719, 0.00000
13.567, 0.38051, 0.30449, -1.02168, 0.71719, 0.00000
13.600, 0.38051, 0.30449, -1.02168, 0.71719, 0.00000
13.633, 0.38051, 0.30449, -1.02168, 0.71719, 0.00000
13.667, 0.38051, 0.30449, -1.02168, 0.71719, 0.00000
13.700, 0.38051, 0.30449, -1.02168, 0.71719, 0.00000
13.733, 0.38051, 0.30449, -1.02168, 0.71719, -0.00000
13.767, 0.38051, 0.30449, -1.02168, 0.71719, -0.00000
13.800, 0.38051, 0.30449, -1.02168, 0.71719, -0.00000
13.833, 0.38051, 0.30449, -1.02168, 0.71719, -0.00000
13.867, 0.38051, 0.30449, -1.02168, 0.71719, -0.00000
13.900, 0.38051, 0.30449, -1.02168, 0.71719, -0.00000
13.933, 0.38051, 0.30449, -1.02168, 0.71719, -0.00000
13.967, 0.38051, 0.30449, -1.02168, 0.71719, -0.00000
14.000, 0.38051, 0.30449, -1.02168, 0.71719, -0.00000
14.033, 0.38051, 0.30449, -1.02168, 0.71719, -0.00001
14.067, 0.38051, 0.30449, -1.02168, 0.71719, -0.00001
14.100, 0.38051, 0.30449, -1.02168, 0.71719, -0.00001
14.133, 0.38051, 0.30449, -1.02168, 0.71719, -0.00000
14.167, 0.38051, 0.30449, -1.02168, 0.71719, -0.00000
14.200, 0.38051, 0.30449, -1.02168, 0.71719, -0.00000
14.233, 0.38051, 0.30449, -1.02168, 0.71719, -0.00000
14.267, 0.38051, 0.30449, -1.02168, 0.71719, -0.00000
14.300, 0.38051, 0.30449, -1.02168, 0.71719, -0.00000
14.333, 0.38051, 0.30449, -1.02168, 0.71719, 0.00000
14.367, 0.38046, 0.30449, -1.02168, 0.71719, 0.00005
14.400, 0.38031, 0.30449, -1.02168, 0.71719, 0.00021
14.433, 0.37996, 0.30449, -1.02168, 0.71719, 0.00054
14.467, 0.37935, 0.30449, -1.02168, 0.71719, 0.00112
14.500, 0.37840, 0.30449, -1.02168, 0.71719, 0.00200
14.533, 0.37704, 0.30449, -1.02168, 0.71719, 0.00326
14.567, 0.37524, 0.30449, -1.02168, 0.71719, 0.00496
14.600, 0.37300, 0.30449, -1.02168, 0.71719, 0.00717
14.633, 0.37031, 0.30449, -1.02168, 0.71719, 0.00995
14.667, 0.36718, 0.30449, -1.02168, 0.71719, 0.01337
14.700, 0.36360, 0.30449, -1.02168, 0.71719, 0.01750
14.733, 0.35958, 0.30449, -1.02168, 0.71719, 0.02240
14.767, 0.35511, 0.30449, -1.02168, 0.71719, 0.02814
14.800, 0.35020, 0.30449, -1.02168, 0.71719, 0.03478
14.833, 0.34484, 0.30449, -1.02168, 0.71719, 0.04239
14.867, 0.33904, 0.30449, -1.02168, 0.71719, 0.05104
14.900, 0.33280, 0.30449, -1.02168, 0.71719, 0.06078
14.933, 0.32611, 0.30449, -1.02168, 0.71719, 0.07162
14.967, 0.31898, 0.30449, -1.02168, 0.71719, 0.08357
15.000, 0.31140, 0.30449, -1.02168, 0.71719, 0.09661
15.033, 0.30338, 0.30449, -1.02168, 0.71719, 0.11076
15.067, 0.29491, 0.30449, -1.02168, 0.71719, 0.12598
15.100, 0.28601, 0.30449, -1.02168, 0.71719, 0.14221
15.133, 0.27675, 0.30449, -1.02168, 0.71719, 0.15939
15.167, 0.26719, 0.30449, -1.02168, 0.71719, 0.17745
15.200, 0.25742, 0.30449, -1.02168, 0.71719, 0.19632
15.233, 0.24750, 0.30449, -1.02168, 0.71719, 0.21594
15.267, 0.23751, 0.30449, -1.02168, 0.71719, 0.23623
15.300, 0.22751, 0.30449, -1.02168, 0.71719, 0.25715
15.333, 0.21751, 0.30449, -1.02168, 0.71719, 0.27861
15.367, 0.20751, 0.30449, -1.02168, 0.71719, 0.30055
15.400, 0.19751, 0.30449, -1.02168, 0.71719, 0.32291
15.433, 0.18751, 0.30449, -1.02168, 0.71719, 0.34561
15.467, 0.17751, 0.30449, -1.02168, 0.71719, 0.36861
15.500, 0.16751, 0.30449, -1.02168, 0.71719, 0.39181
15.533, 0.15751, 0.30449, -1.02168, 0.71719, 0.41517
15.567, 0.14751, 0.30449, -1.02168, 0.71719, 0.43862
15.600, 0.13751, 0.30449, -1.02168, 0.71719, 0.46209
15.633, 0.12751, 0.30449, -1.02168, 0.71719, 0.48555
15.667, 0.11751, 0.30449, -1.02168, 0.71719, 0.50902
15.700, 0.10751, 0.30449, -1.02168, 0.71719, 0.53249
15.733, 0.09751, 0.30449, -1.02168, 0.71719, 0.55596
15.767, 0.08751, 0.30449, -1.02168, 0.71719, 0.57942
15.800, 0.07751, 0.30449, -1.02168, 0.71719, 0.60289
15.833, 0.06751, 0.30449, -1.02168, 0.71719, 0.62636
15.867, 0.05751, 0.30449, -1.02168, 0.71719, 0.64983
15.900, 0.04751, 0.30449, -1.02168, 0.71719, 0.67329
15.933, 0.03751, 0.30449, -1.02168, 0.71719, 0.69676
15.967, 0.02751, 0.30449, -1.02168, 0.71719, 0.72023
16.000, 0.01751, 0.30449, -1.02168, 0.71719, 0.74370
16.033, 0.00751, 0.30449, -1.02168, 0.71719, 0.76716
16.067, -0.00249, 0.30449, -1.02168, 0.71719, 0.79063
16.100, -0.01249, 0.30449, -1.02168, 0.71719, 0.81410
16.133, -0.02249, 0.30449, -1.02168, 0.71719, 0.83757
16.167, -0.03249, 0.30449, -1.02168, 0.71719, 0.86103
16.200, -0.04249, 0.30449, -1.02168, 0.71719, 0.88450
16.233, -0.05249, 0.30449, -1.02168, 0.71719, 0.90797
16.267, -0.06249, 0.30449, -1.02168, 0.71719, 0.93144
16.300, -0.07249, 0.30449, -1.02168, 0.71719, 0.95490
16.333, -0.08249, 0.30449, -1.02168, 0.71719, 0.97837
16.367, -0.09249, 0.30449, -1.02168, 0.71719, 1.00184
16.400, -0.10249, 0.30449, -1.02168, 0.71719, 1.02531
16.433, -0.11249, 0.30449, -1.02168, 0.71719, 1.04877
16.467, -0.12249, 0.30449, -1.02168, 0.71719, 1.07224
16.500, -0.13249, 0.30449, -1.02168, 0.71719, 1.09571
16.533, -0.14249, 0.30449, -1.02168, 0.71719, 1.11917
16.567, -0.15249, 0.30449, -1.02168, 0.71719, 1.14264
16.600, -0.16249, 0.30449, -1.02168, 0.71719, 1.16605
16.633, -0.17249, 0.30449, -1.02168, 0.71719, 1.18935
16.667, -0.18249, 0.30449, -1.02168, 0.71719, 1.21247
16.700, -0.19249, 0.30449, -1.02168, 0.71719, 1.23535
16.733, -0.20249, 0.30449, -1.02168, 0.71719, 1.25791
16.767, -0.21249, 0.30449, -1.02168, 0.71719, 1.28009
16.800, -0.22249, 0.30449, -1.02168, 0.71719, 1.30182
16.833, -0.23249, 0.30449, -1.02168, 0.71719, 1.32305
16.867, -0.24249, 0.30449, -1.02168, 0.71719, 1.34369
16.900, -0.25245, 0.30449, -1.02168, 0.71719, 1.36370
16.933, -0.26231, 0.30449, -1.02168, 0.71719, 1.38299
16.967, -0.27198, 0.30449, -1.02168, 0.71719, 1.40151
17.000, -0.28140, 0.30449, -1.02168, 0.71719, 1.41918
17.033, -0.29050, 0.30449, -1.02168, 0.71719, 1.43594
17.067, -0.29918, 0.30449, -1.02168, 0.71719, 1.45173
17.100, -0.30743, 0.30449, -1.02168, 0.71719, 1.46648
17.133, -0.31523, 0.30449, -1.02168, 0.71719, 1.48014
17.167, -0.32259, 0.30449, -1.02168, 0.71719, 1.49269
17.200, -0.32950, 0.30449, -1.02168, 0.71719, 1.50415
17.233, -0.33597, 0.30449, -1.02168, 0.71719, 1.51450
17.267, -0.34199, 0.30449, -1.02168, 0.71719, 1.52375
17.300, -0.34757, 0.30449, -1.02168, 0.71719, 1.53192
17.333, -0.35270, 0.30449, -1.02168, 0.71719, 1.53910
17.367, -0.35739, 0.30449, -1.02168, 0.71719, 1.54533
17.400, -0.36164, 0.30449, -1.02168, 0.71719, 1.55068
17.433, -0.36544, 0.30449, -1.02168, 0.71719, 1.55523
17.467, -0.36879, 0.30449, -1.02168, 0.71719, 1.55903
17.500, -0.37171, 0.30449, -1.02168, 0.71719, 1.56216
17.533, -0.37417, 0.30449, -1.02168, 0.71719, 1.56468
17.567, -0.37620, 0.30449, -1.02168, 0.71719, 1.56665
17.600, -0.37777, 0.30449, -1.02168, 0.71719, 1.56815
17.633, -0.37892, 0.30449, -1.02168, 0.71719, 1.56923
17.667, -0.37969, 0.30449, -1.02168, 0.71719, 1.56997
17.700, -0.38016, 0.30449, -1.02168, 0.71719, 1.57043
17.733, -0.38040, 0.30449, -1.02168, 0.71719, 1.57068
17.767, -0.38050, 0.30449, -1.02168, 0.71719, 1.57078
17.800, -0.38051, 0.30449, -1.02168, 0.71719, 1.57080
17.833, -0.38051, 0.30449, -1.02168, 0.71719, 1.57080
17.867, -0.38051, 0.30449, -1.02168, 0.71719, 1.57080
17.900, -0.38051, 0.30449, -1.02168, 0.71719, 1.57080
17.933, -0.38051, 0.30449, -1.02168, 0.71719, 1.57080
17.967, -0.38051, 0.30449, -1.02168, 0.71719, 1.57080
18.000, -0.38051, 0.30449, -1.02168, 0.71719, 1.57080
18.033, -0.38051, 0.30449, -1.02168, 0.71719, 1.57080
18.067, -0.38051, 0.30449, -1.02168, 0.71719, 1.57080
18.100, -0.38051, 0.30449, -1.02168, 0.71719, 1.57080
18.133, -0.38051, 0.30449, -1.02168, 0.71719, 1.57080
18.167, -0.38051, 0.30449, -1.02168, 0.71719, 1.57080
18.200, -0.38051, 0.30449, -1.02168, 0.71719, 1.57080
18.233, -0.38051, 0.30449, -1.02168, 0.71719, 1.57080
18.267, -0.38051, 0.30449, -1.02168, 0.71720, 1.57080
18.300, -0.38051, 0.30449, -1.02168, 0.71720, 1.57080
18.333, -0.38051, 0.30449, -1.02168, 0.71720, 1.57080
18.367, -0.38051, 0.30449, -1.02168, 0.71720, 1.57079
18.400, -0.38051, 0.30449, -1.02168, 0.71720, 1.57079
18.433, -0.38051, 0.30449, -1.02168, 0.71720, 1.57079
18.467, -0.38051, 0.30449, -1.02168, 0.71720, 1.57079
18.500, -0.38051, 0.30449, -1.02168, 0.71720, 1.57079
18.533, -0.38051, 0.30449, -1.02168, 0.71720, 1.57079
18.567, -0.38051, 0.30449, -1.02168, 0.71720, 1.57079
18.600, -0.38051, 0.30449, -1.02168, 0.71720, 1.57079
18.633, -0.38051, 0.30449, -1.02168, 0.71720, 1.57079
18.667, -0.38051, 0.30449, -1.02168, 0.71719, 1.57079
18.700, -0.38051, 0.30449, -1.02168, 0.71719, 1.57080
18.733, -0.38051, 0.30449, -1.02168, 0.71719, 1.57080
18.767, -0.38051, 0.30449, -1.02168, 0.71719, 1.57080
18.800, -0.38051, 0.30449, -1.02168, 0.71719, 1.57080
18.833, -0.38051, 0.30450, -1.02166, 0.71717, 1.57083
18.867, -0.38051, 0.30453, -1.02156, 0.71708, 1.57100
18.900, -0.38051, 0.30460, -1.02130, 0.71685, 1.57142
18.933, -0.38051, 0.30474, -1.02080, 0.71642, 1.57219
18.967, -0.38051, 0.30497, -1.02000, 0.71574, 1.57343
19.000, -0.38051, 0.30530, -1.01881, 0.71476, 1.57525
19.033, -0.38051, 0.30576, -1.01717, 0.71340, 1.57776
19.067, -0.38051, 0.30637, -1.01500, 0.71160, 1.58107
19.100, -0.38051, 0.30714, -1.01223, 0.70932, 1.58529
19.133, -0.38051, 0.30809, -1.00877, 0.70649, 1.59054
19.167, -0.38051, 0.30926, -1.00457, 0.70305, 1.59692
19.200, -0.38051, 0.31065, -0.99960, 0.69895, 1.60454
19.233, -0.38051, 0.31229, -0.99384, 0.69412, 1.61352
19.267, -0.38051, 0.31419, -0.98731, 0.68850, 1.62397
19.300, -0.38051, 0.31638, -0.97999, 0.68203, 1.63596
19.333, -0.38051, 0.31888, -0.97192, 0.67467, 1.64950
19.367, -0.38051, 0.32171, -0.96316, 0.66634, 1.66460
19.400, -0.38051, 0.32486, -0.95378, 0.65699, 1.68125
19.433, -0.38051, 0.32834, -0.94385, 0.64663, 1.69942
19.467, -0.38051, 0.33214, -0.93346, 0.63524, 1.71899
19.500, -0.38051, 0.33627, -0.92267, 0.62282, 1.73987
19.533, -0.38051, 0.34073, -0.91155, 0.60939, 1.76194
19.567, -0.38051, 0.34552, -0.90019, 0.59495, 1.78509
19.600, -0.38051, 0.35063, -0.88865, 0.57955, 1.80920
19.633, -0.38051, 0.35604, -0.87701, 0.56326, 1.83418
19.667, -0.38051, 0.36174, -0.86535, 0.54614, 1.85989
19.700, -0.38051, 0.36771, -0.85368, 0.52824, 1.88625
19.733, -0.38051, 0.37391, -0.84201, 0.50962, 1.91312
19.767, -0.38051, 0.38035, -0.83035, 0.49034, 1.94042
19.800, -0.38051, 0.38698, -0.81868, 0.47047, 1.96801
19.833, -0.38051, 0.39380, -0.80701, 0.45005, 1.99579
19.867, -0.38051, 0.40078, -0.79535, 0.42916, 2.02366
19.900, -0.38051, 0.40791, -0.78368, 0.40784, 2.05153
19.933, -0.38051, 0.41516, -0.77201, 0.38617, 2.07941
19.967, -0.38051, 0.42251, -0.76035, 0.36419, 2.10728
20.000, -0.38051, 0.42994, -0.74868, 0.34196, 2.13515
20.033, -0.38051, 0.43744, -0.73701, 0.31956, 2.16302
20.067, -0.38051, 0.44498, -0.72535, 0.29702, 2.19090
20.100, -0.38051, 0.45254, -0.71368, 0.27443, 2.21877
20.133, -0.38051, 0.46011, -0.70201, 0.25182, 2.24664
20.167, -0.38051, 0.46767, -0.69035, 0.22920, 2.27451
20.200, -0.38051, 0.47524, -0.67868, 0.20659, 2.30239
20.233, -0.38051, 0.48280, -0.66701, 0.18398, 2.33026
20.267, -0.38051, 0.49037, -0.65535, 0.16137, 2.35813
20.300, -0.38051, 0.49793, -0.64368, 0.13876, 2.38600
20.333, -0.38051, 0.50550, -0.63201, 0.11615, 2.41388
20.367, -0.38051, 0.51306, -0.62035, 0.09354, 2.44175
20.400, -0.38051, 0.52063, -0.60868, 0.07093, 2.46962
20.433, -0.38051, 0.52820, -0.59701, 0.04832, 2.49749
20.467, -0.38051, 0.53575, -0.58535, 0.02574, 2.52537
20.500, -0.38051, 0.54329, -0.57368, 0.00326, 2.55324
20.533, -0.38051, 0.55078, -0.56201, -0.01907, 2.58111
20.567, -0.38051, 0.55820, -0.55035, -0.04120, 2.60898
20.600, -0.38051, 0.56554, -0.53868, -0.06305, 2.63686
20.633, -0.38051, 0.57277, -0.52701, -0.08457, 2.66473
20.667, -0.38051, 0.57988, -0.51535, -0.10571, 2.69260
20.700, -0.38051, 0.58684, -0.50368, -0.12640, 2.72046
20.733, -0.38051, 0.59363, -0.49201, -0.14658, 2.74823
20.767, -0.38051, 0.60024, -0.48035, -0.16619, 2.77579
20.800, -0.38051, 0.60663, -0.46868, -0.18519, 2.80303
20.833, -0.38051, 0.61281, -0.45701, -0.20349, 2.82984
20.867, -0.38051, 0.61873, -0.44535, -0.22106, 2.85611
20.900, -0.38051, 0.62439, -0.43368, -0.23782, 2.88173
20.933, -0.38051, 0.62976, -0.42205, -0.25372, 2.90659
20.967, -0.38051, 0.63482, -0.41054, -0.26870, 2.93058
21.000, -0.38051, 0.63956, -0.39921, -0.28270, 2.95358
21.033, -0.38051, 0.64397, -0.38813, -0.29568, 2.97549
21.067, -0.38051, 0.64806, -0.37739, -0.30764, 2.99620
21.100, -0.38051, 0.65181, -0.36706, -0.31857, 3.01558
21.133, -0.38051, 0.65524, -0.35721, -0.32849, 3.03355
21.167, -0.38051, 0.65834, -0.34791, -0.33738, 3.04998
21.200, -0.38051, 0.66112, -0.33925, -0.34527, 3.06486
21.233, -0.38051, 0.66357, -0.33128, -0.35223, 3.07819
21.267, -0.38051, 0.66572, -0.32409, -0.35831, 3.08997
21.300, -0.38051, 0.66758, -0.31767, -0.36357, 3.10020
21.333, -0.38051, 0.66918, -0.31202, -0.36808, 3.10899
21.367, -0.38051, 0.67054, -0.30716, -0.37188, 3.11643
21.400, -0.38051, 0.67167, -0.30307, -0.37504, 3.12264
21.433, -0.38051, 0.67260, -0.29972, -0.37762, 3.12774
21.467, -0.38051, 0.67334, -0.29704, -0.37968, 3.13183
21.500, -0.38051, 0.67393, -0.29495, -0.38127, 3.13502
21.533, -0.38051, 0.67436, -0.29338, -0.38246, 3.13743
21.567, -0.38051, 0.67468, -0.29226, -0.38330, 3.13916
21.600, -0.38051, 0.67489, -0.29150, -0.38386, 3.14033
21.633, -0.38051, 0.67502, -0.29104, -0.38419, 3.14105
21.667, -0.38051, 0.67509, -0.29081, -0.38435, 3.14142
21.700, -0.38051, 0.67512, -0.29072, -0.38440, 3.14157
21.733, -0.38051, 0.67512, -0.29071, -0.38441, 3.14159
21.767, -0.38051, 0.67512, -0.29071, -0.38441, 3.14159
21.800, -0.38051, 0.67512, -0.29071, -0.38441, 3.14159
21.833, -0.38051, 0.67512, -0.29071, -0.38441, 3.14159
21.867, -0.38051, 0.67512, -0.29071, -0.38441, 3.14159
21.900, -0.38051, 0.67512, -0.29071, -0.38441, 3.14159
21.933, -0.38051, 0.67512, -0.29071, -0.38441, 3.14160
21.967, -0.38051, 0.67512, -0.29071, -0.38441, 3.14160
22.000, -0.38051, 0.67512, -0.29071, -0.38441, 3.14160
22.033, -0.38051, 0.67512, -0.29071, -0.38441, 3.14160
22.067, -0.38051, 0.67512, -0.29071, -0.38441, 3.14160
22.100, -0.38051, 0.67512, -0.29071, -0.38440, 3.14160
22.133, -0.38051, 0.67512, -0.29071, -0.38440, 3.14160
22.167, -0.38051, 0.67512, -0.29071, -0.38440, 3.14160
22.200, -0.38051, 0.67512, -0.29071, -0.38440, 3.14160
22.233, -0.38051, 0.67512, -0.29071, -0.38440, 3.14160
22.267, -0.38051, 0.67512, -0.29071, -0.38440, 3.14160
22.300, -0.38051, 0.67512, -0.29071, -0.38440, 3.14160
22.333, -0.38051, 0.67512, -0.29071, -0.38440, 3.14160
22.367, -0.38051, 0.67512, -0.29071, -0.38440, 3.14160
22.400, -0.38051, 0.67512, -0.29071, -0.38440, 3.14160
22.433, -0.38051, 0.67512, -0.29071, -0.38440, 3.14160
22.467, -0.38051, 0.67512, -0.29071, -0.38441, 3.14160
22.500, -0.38051, 0.67512, -0.29071, -0.38441, 3.14160
22.533, -0.38051, 0.67512, -0.29071, -0.38441, 3.14160
22.567, -0.38051, 0.67512, -0.29071, -0.38441, 3.14160
22.600, -0.38051, 0.67512, -0.29071, -0.38441, 3.14160
22.633, -0.38051, 0.67512, -0.29071, -0.38441, 3.14159
22.667, -0.38051, 0.67512, -0.29071, -0.38441, 3.14159
22.700, -0.38051, 0.67512, -0.29071, -0.38441, 3.14159
22.733, -0.38051, 0.67512, -0.29071, -0.38441, 3.14159
22.767, -0.38051, 0.67514, -0.29073, -0.38442, 3.14155
22.800, -0.38049, 0.67526, -0.29084, -0.38445, 3.14137
22.833, -0.38046, 0.67554, -0.29109, -0.38451, 3.14095
22.867, -0.38041, 0.67607, -0.29157, -0.38462, 3.14018
22.900, -0.38033, 0.67690, -0.29233, -0.38480, 3.13896
22.933, -0.38021, 0.67813, -0.29344, -0.38505, 3.13718
22.967, -0.38005, 0.67982, -0.29498, -0.38540, 3.13474
23.000, -0.37984, 0.68205, -0.29700, -0.38584, 3.13154
23.033, -0.37957, 0.68489, -0.29957, -0.38641, 3.12746
23.067, -0.37923, 0.68841, -0.30276, -0.38711, 3.12241
23.100, -0.37883, 0.69269, -0.30664, -0.38795, 3.11629
23.133, -0.37835, 0.69775, -0.31125, -0.38895, 3.10898
23.167, -0.37778, 0.70358, -0.31658, -0.39013, 3.10038
23.200, -0.37713, 0.71019, -0.32265, -0.39149, 3.09038
23.233, -0.37638, 0.71758, -0.32944, -0.39305, 3.07891
23.267, -0.37555, 0.72572, -0.33695, -0.39483, 3.06595
23.300, -0.37462, 0.73455, -0.34514, -0.39683, 3.05149
23.333, -0.37361, 0.74399, -0.35394, -0.39908, 3.03554
23.367, -0.37251, 0.75397, -0.36329, -0.40159, 3.01812
23.400, -0.37131, 0.76440, -0.37311, -0.40436, 2.99931
23.433, -0.37003, 0.77523, -0.38334, -0.40742, 2.97921
23.467, -0.36865, 0.78638, -0.39391, -0.41077, 2.95794
23.500, -0.36719, 0.79776, -0.40476, -0.41444, 2.93560
23.533, -0.36563, 0.80931, -0.41582, -0.41843, 2.91229
23.567, -0.36399, 0.82095, -0.42702, -0.42276, 2.88812
23.600, -0.36225, 0.83262, -0.43829, -0.42744, 2.86319
23.633, -0.36043, 0.84429, -0.44957, -0.43249, 2.83760
23.667, -0.35851, 0.85595, -0.46086, -0.43792, 2.81147
23.700, -0.35651, 0.86762, -0.47215, -0.44374, 2.78489
23.733, -0.35441, 0.87929, -0.48343, -0.44994, 2.75796
23.767, -0.35223, 0.89095, -0.49472, -0.45653, 2.73081
23.800, -0.34995, 0.90262, -0.50601, -0.46351, 2.70351
23.833, -0.34759, 0.91429, -0.51729, -0.47088, 2.67619
23.867, -0.34513, 0.92595, -0.52858, -0.47863, 2.64886
23.900, -0.34259, 0.93762, -0.53987, -0.48677, 2.62154
23.933, -0.33995, 0.94929, -0.55115, -0.49530, 2.59421
23.967, -0.33723, 0.96095, -0.56244, -0.50421, 2.56689
24.000, -0.33441, 0.97262, -0.57373, -0.51348, 2.53956
24.033, -0.33150, 0.98429, -0.58501, -0.52310, 2.51224
24.067, -0.32851, 0.99595, -0.59630, -0.53306, 2.48491
24.100, -0.32542, 1.00762, -0.60758, -0.54334, 2.45759
24.133, -0.32225, 1.01929, -0.61887, -0.55394, 2.43026
24.167, -0.31898, 1.03095, -0.63016, -0.56483, 2.40294
24.200, -0.31563, 1.04262, -0.64144, -0.57600, 2.37561
24.233, -0.31218, 1.05429, -0.65273, -0.58744, 2.34829
24.267, -0.30865, 1.06595, -0.66402, -0.59913, 2.32096
24.300, -0.30502, 1.07762, -0.67530, -0.61107, 2.29364
24.333, -0.30130, 1.08929, -0.68659, -0.62323, 2.26631
24.367, -0.29750, 1.10095, -0.69788, -0.63561, 2.23899
24.400, -0.29360, 1.11262, -0.70916, -0.64818, 2.21166
24.433, -0.28962, 1.12429, -0.72045, -0.66094, 2.18434
24.467, -0.28556, 1.13595, -0.73174, -0.67388, 2.15701
24.500, -0.28142, 1.14762, -0.74302, -0.68697, 2.12969
24.533, -0.27722, 1.15929, -0.75431, -0.70020, 2.10236
24.567, -0.27295, 1.17095, -0.76560, -0.71357, 2.07503
24.600, -0.26864, 1.18262, -0.77688, -0.72705, 2.04771
24.633, -0.26427, 1.19429, -0.78817, -0.74063, 2.02038
24.667, -0.25987, 1.20595, -0.79946, -0.75430, 1.99306
24.700, -0.25543, 1.21762, -0.81074, -0.76805, 1.96573
24.733, -0.25097, 1.22929, -0.82203, -0.78186, 1.93841
24.767, -0.24649, 1.24095, -0.83331, -0.79572, 1.91108
24.800, -0.24200, 1.25262, -0.84460, -0.80961, 1.88376
24.833, -0.23750, 1.26429, -0.85589, -0.82352, 1.85643
24.867, -0.23299, 1.27595, -0.86717, -0.83744, 1.82911
24.900, -0.22849, 1.28762, -0.87846, -0.85136, 1.80178
24.933, -0.22399, 1.29929, -0.88975, -0.86527, 1.77446
24.967, -0.21949, 1.31095, -0.90103, -0.87919, 1.74713
25.000, -0.21499, 1.32262, -0.91232, -0.89311, 1.71981
25.033, -0.21049, 1.33429, -0.92361, -0.90702, 1.69248
25.067, -0.20599, 1.34595, -0.93489, -0.92094, 1.66516
25.100, -0.20149, 1.35762, -0.94618, -0.93486, 1.63783
25.133, -0.19699, 1.36929, -0.95747, -0.94878, 1.61051
25.167, -0.19249, 1.38095, -0.96875, -0.96269, 1.58318
25.200, -0.18798, 1.39262, -0.98004, -0.97661, 1.55586
25.233, -0.18348, 1.40429, -0.99133, -0.99053, 1.52853
25.267, -0.17898, 1.41595, -1.00261, -1.00444, 1.50121
25.300, -0.17448, 1.42762, -1.01390, -1.01836, 1.47388
25.333, -0.16998, 1.43929, -1.02518, -1.03228, 1.44656
25.367, -0.16548, 1.45095, -1.03647, -1.04620, 1.41923
25.400, -0.16098, 1.46262, -1.04776, -1.06011, 1.39191
25.433, -0.15648, 1.47429, -1.05904, -1.07403, 1.36458
25.467, -0.15198, 1.48595, -1.07033, -1.08795, 1.33725
25.500, -0.14748, 1.49762, -1.08162, -1.10186, 1.30993
25.533, -0.14297, 1.50929, -1.09290, -1.11578, 1.28260
25.567, -0.13847, 1.52095, -1.10419, -1.12969, 1.25528
25.600, -0.13398, 1.53262, -1.11548, -1.14357, 1.22795
25.633, -0.12950, 1.54429, -1.12676, -1.15741, 1.20063
25.667, -0.12504, 1.55595, -1.13805, -1.17120, 1.17330
25.700, -0.12060, 1.56762, -1.14934, -1.18492, 1.14598
25.733, -0.11620, 1.57929, -1.16062, -1.19856, 1.11865
25.767, -0.11184, 1.59095, -1.17191, -1.21211, 1.09133
25.800, -0.10752, 1.60262, -1.18320, -1.22556, 1.06400
25.833, -0.10326, 1.61429, -1.19448, -1.23888, 1.03668
25.867, -0.09905, 1.62595, -1.20577, -1.25206, 1.00935
25.900, -0.09492, 1.63762, -1.21706, -1.26510, 0.98203
25.933, -0.09086, 1.64929, -1.22834, -1.27797, 0.95470
25.967, -0.08687, 1.66095, -1.23963, -1.29066, 0.92738
26.000, -0.08298, 1.67262, -1.25091, -1.30317, 0.90005
26.033, -0.07917, 1.68429, -1.26220, -1.31547, 0.87273
26.067, -0.07546, 1.69595, -1.27349, -1.32755, 0.84540
26.100, -0.07183, 1.70762, -1.28477, -1.33941, 0.81808
26.133, -0.06830, 1.71929, -1.29606, -1.35101, 0.79075
26.167, -0.06485, 1.73095, -1.30735, -1.36236, 0.76343
26.200, -0.06150, 1.74262, -1.31863, -1.37343, 0.73610
26.233, -0.05823, 1.75429, -1.32992, -1.38422, 0.70878
26.267, -0.05506, 1.76595, -1.34121, -1.39470, 0.68145
26.300, -0.05197, 1.77762, -1.35249, -1.40487, 0.65413
26.333, -0.04898, 1.78929, -1.36378, -1.41471, 0.62680
26.367, -0.04607, 1.80095, -1.37507, -1.42421, 0.59947
26.400, -0.04326, 1.81262, -1.38635, -1.43336, 0.57215
26.433, -0.04054, 1.82429, -1.39764, -1.44213, 0.54482
26.467, -0.03790, 1.83595, -1.40893, -1.45052, 0.51750
26.500, -0.03536, 1.84762, -1.42021, -1.45852, 0.49017
26.533, -0.03290, 1.85929, -1.43150, -1.46614, 0.46285
26.567, -0.03054, 1.87095, -1.44279, -1.47337, 0.43552
26.600, -0.02826, 1.88262, -1.45407, -1.48021, 0.40824
26.633, -0.02608, 1.89429, -1.46536, -1.48666, 0.38110
26.667, -0.02398, 1.90595, -1.47664, -1.49273, 0.35420
26.700, -0.02198, 1.91762, -1.48793, -1.49841, 0.32766
26.733, -0.02007, 1.92929, -1.49922, -1.50370, 0.30157
26.767, -0.01824, 1.94095, -1.51050, -1.50862, 0.27604
26.800, -0.01651, 1.95262, -1.52178, -1.51317, 0.25118
26.833, -0.01486, 1.96427, -1.53298, -1.51738, 0.22708
26.867, -0.01331, 1.97583, -1.54404, -1.52125, 0.20386
26.900, -0.01185, 1.98722, -1.55490, -1.52481, 0.18161
26.933, -0.01047, 1.99839, -1.56548, -1.52805, 0.16045
26.967, -0.00919, 2.00924, -1.57572, -1.53101, 0.14047
27.000, -0.00799, 2.01971, -1.58556, -1.53369, 0.12178
27.033, -0.00689, 2.02972, -1.59492, -1.53610, 0.10449
27.067, -0.00588, 2.03919, -1.60374, -1.53826, 0.08868
27.100, -0.00495, 2.04807, -1.61195, -1.54018, 0.07437
27.133, -0.00412, 2.05626, -1.61948, -1.54188, 0.06154
27.167, -0.00338, 2.06370, -1.62630, -1.54337, 0.05021
27.200, -0.00272, 2.07036, -1.63238, -1.54466, 0.04035
27.233, -0.00216, 2.07625, -1.63774, -1.54578, 0.03188
27.267, -0.00168, 2.08136, -1.64237, -1.54672, 0.02468
27.300, -0.00127, 2.08569, -1.64627, -1.54751, 0.01866
27.333, -0.00094, 2.08926, -1.64948, -1.54816, 0.01371
27.367, -0.00067, 2.09215, -1.65207, -1.54868, 0.00972
27.400, -0.00046, 2.09441, -1.65411, -1.54909, 0.00659
27.433, -0.00030, 2.09614, -1.65566, -1.54940, 0.00422
27.467, -0.00018, 2.09739, -1.65678, -1.54962, 0.00249
27.500, -0.00010, 2.09826, -1.65755, -1.54977, 0.00132
27.533, -0.00004, 2.09880, -1.65803, -1.54987, 0.00059
27.567, -0.00002, 2.09910, -1.65830, -1.54992, 0.00019
27.600, -0.00000, 2.09922, -1.65841, -1.54994, 0.00003
27.633, -0.00000, 2.09925, -1.65843, -1.54994, 0.00000
