kutzer/Scor6AxisToolbox/Scor6AxisToolbox Test Functions/ScorBotBoxData_sCurve/BSEPR_Velocity_20Hz.csv
Time_(s), Base_Joint_Velocity_(rad/s), Shoulder_Joint_Velocity_(rad/s), Elbow_Joint_Velocity_(rad/s), Wrist_Pitch_Joint_Velocity_(rad/s), Wrist_Roll_Joint_Velocity_(rad/s)
0.000, -0.00001, -0.00002, 0.00002, 0.00003, -0.00005
0.050, -0.00034, -0.00302, 0.00275, 0.00077, -0.00466
0.100, -0.00112, -0.01102, 0.01001, 0.00245, -0.01631
0.150, -0.00236, -0.02402, 0.02179, 0.00506, -0.03501
0.200, -0.00406, -0.04202, 0.03810, 0.00860, -0.06077
0.250, -0.00621, -0.06502, 0.05894, 0.01307, -0.09357
0.300, -0.00882, -0.09302, 0.08431, 0.01847, -0.13343
0.350, -0.01189, -0.12599, 0.11421, 0.02480, -0.18034
0.400, -0.01541, -0.16100, 0.14693, 0.03207, -0.23429
0.450, -0.01936, -0.19600, 0.17968, 0.04027, -0.29530
0.500, -0.02341, -0.23097, 0.21244, 0.04940, -0.36203
0.550, -0.02747, -0.26298, 0.24387, 0.05946, -0.42923
0.600, -0.03152, -0.28998, 0.27090, 0.07045, -0.49645
0.650, -0.03557, -0.31198, 0.29339, 0.08237, -0.56045
0.700, -0.03962, -0.32898, 0.31136, 0.09523, -0.61740
0.750, -0.04367, -0.34098, 0.32480, 0.10902, -0.66730
0.800, -0.04773, -0.34798, 0.33372, 0.12373, -0.71014
0.850, -0.05178, -0.35001, 0.33810, 0.13938, -0.74594
0.900, -0.05583, -0.35000, 0.33859, 0.15597, -0.77468
0.950, -0.05988, -0.35000, 0.33859, 0.17334, -0.79638
1.000, -0.06393, -0.35000, 0.33859, 0.19077, -0.81102
1.050, -0.06798, -0.35000, 0.33859, 0.20820, -0.81861
1.100, -0.07204, -0.35000, 0.33859, 0.22563, -0.81975
1.150, -0.07609, -0.35000, 0.33859, 0.24306, -0.81976
1.200, -0.08014, -0.35000, 0.33859, 0.26044, -0.81976
1.250, -0.08419, -0.35000, 0.33859, 0.27709, -0.81976
1.300, -0.08824, -0.35000, 0.33859, 0.29280, -0.81976
1.350, -0.09230, -0.35000, 0.33859, 0.30758, -0.81976
1.400, -0.09635, -0.35000, 0.33859, 0.32143, -0.81976
1.450, -0.10040, -0.35000, 0.33859, 0.33434, -0.81976
1.500, -0.10445, -0.35000, 0.33859, 0.34633, -0.81976
1.550, -0.10850, -0.35000, 0.33859, 0.35738, -0.81976
1.600, -0.11256, -0.35000, 0.33859, 0.36750, -0.81976
1.650, -0.11661, -0.35000, 0.33859, 0.37669, -0.81976
1.700, -0.12048, -0.35000, 0.33859, 0.38495, -0.81976
1.750, -0.12389, -0.35000, 0.33859, 0.39227, -0.81976
1.800, -0.12685, -0.35000, 0.33859, 0.39867, -0.81976
1.850, -0.12936, -0.35000, 0.33859, 0.40413, -0.81976
1.900, -0.13140, -0.35000, 0.33859, 0.40866, -0.81976
1.950, -0.13300, -0.35000, 0.33859, 0.41226, -0.81976
2.000, -0.13413, -0.35000, 0.33859, 0.41493, -0.81976
2.050, -0.13481, -0.35000, 0.33859, 0.41666, -0.81976
2.100, -0.13503, -0.35000, 0.33859, 0.41746, -0.81976
2.150, -0.13503, -0.35000, 0.33859, 0.41751, -0.81976
2.200, -0.13503, -0.35000, 0.33859, 0.41752, -0.81976
2.250, -0.13503, -0.35000, 0.33859, 0.41752, -0.81976
2.300, -0.13503, -0.35000, 0.33859, 0.41752, -0.81976
2.350, -0.13503, -0.35000, 0.33859, 0.41752, -0.81976
2.400, -0.13503, -0.35000, 0.33859, 0.41752, -0.81976
2.450, -0.13503, -0.35000, 0.33859, 0.41752, -0.81976
2.500, -0.13503, -0.35000, 0.33859, 0.41752, -0.81976
2.550, -0.13503, -0.35000, 0.33859, 0.41752, -0.81976
2.600, -0.13503, -0.35000, 0.33859, 0.41752, -0.81976
2.650, -0.13503, -0.35000, 0.33859, 0.41752, -0.81976
2.700, -0.13503, -0.35000, 0.33859, 0.41752, -0.81976
2.750, -0.13503, -0.35000, 0.33859, 0.41752, -0.81976
2.800, -0.13503, -0.35000, 0.33859, 0.41743, -0.81976
2.850, -0.13486, -0.35000, 0.33859, 0.41653, -0.81976
2.900, -0.13424, -0.35000, 0.33859, 0.41469, -0.81976
2.950, -0.13317, -0.35000, 0.33859, 0.41193, -0.81976
3.000, -0.13163, -0.35000, 0.33859, 0.40823, -0.81976
3.050, -0.12964, -0.35000, 0.33859, 0.40360, -0.81976
3.100, -0.12720, -0.35000, 0.33859, 0.39804, -0.81976
3.150, -0.12430, -0.35000, 0.33859, 0.39155, -0.81976
3.200, -0.12094, -0.35000, 0.33859, 0.38413, -0.81976
3.250, -0.11712, -0.35000, 0.33859, 0.37578, -0.81976
3.300, -0.11307, -0.35000, 0.33859, 0.36649, -0.81976
3.350, -0.10902, -0.35000, 0.33859, 0.35627, -0.81976
3.400, -0.10497, -0.35000, 0.33859, 0.34512, -0.81976
3.450, -0.10092, -0.35000, 0.33859, 0.33304, -0.81976
3.500, -0.09686, -0.35000, 0.33859, 0.32003, -0.81976
3.550, -0.09281, -0.35000, 0.33859, 0.30609, -0.81976
3.600, -0.08876, -0.35000, 0.33859, 0.29121, -0.81976
3.650, -0.08471, -0.35000, 0.33859, 0.27541, -0.81976
3.700, -0.08066, -0.35000, 0.33859, 0.25867, -0.81976
3.750, -0.07660, -0.35000, 0.33859, 0.24125, -0.81976
3.800, -0.07255, -0.35000, 0.33859, 0.22382, -0.81975
3.850, -0.06850, -0.35000, 0.33859, 0.20639, -0.81888
3.900, -0.06445, -0.35000, 0.33859, 0.18895, -0.81179
3.950, -0.06040, -0.35000, 0.33859, 0.17152, -0.79765
4.000, -0.05635, -0.35000, 0.33860, 0.15420, -0.77646
4.050, -0.05229, -0.35000, 0.33838, 0.13771, -0.74822
4.100, -0.04824, -0.34871, 0.33469, 0.12216, -0.71292
4.150, -0.04419, -0.34260, 0.32647, 0.10754, -0.67057
4.200, -0.04014, -0.33150, 0.31372, 0.09385, -0.62118
4.250, -0.03609, -0.31539, 0.29645, 0.08109, -0.56473
4.300, -0.03203, -0.29429, 0.27465, 0.06926, -0.50121
4.350, -0.02798, -0.26818, 0.24833, 0.05837, -0.43400
4.400, -0.02393, -0.23708, 0.21749, 0.04840, -0.36680
4.450, -0.01988, -0.20226, 0.18472, 0.03937, -0.29990
4.500, -0.01589, -0.16726, 0.15197, 0.03127, -0.23840
4.550, -0.01231, -0.13226, 0.11920, 0.02410, -0.18394
4.600, -0.00919, -0.09855, 0.08862, 0.01787, -0.13653
4.650, -0.00652, -0.06966, 0.06255, 0.01256, -0.09617
4.700, -0.00431, -0.04576, 0.04102, 0.00818, -0.06286
4.750, -0.00255, -0.02687, 0.02401, 0.00474, -0.03661
4.800, -0.00125, -0.01297, 0.01153, 0.00223, -0.01740
4.850, -0.00041, -0.00408, 0.00357, 0.00065, -0.00525
4.900, -0.00002, -0.00019, 0.00014, 0.00000, -0.00015
4.950, -0.00000, -0.00001, -0.00000, -0.00001, 0.00002
5.000, -0.00000, -0.00000, -0.00000, -0.00001, 0.00001
5.050, -0.00000, -0.00000, -0.00000, -0.00001, 0.00000
5.100, -0.00000, -0.00000, -0.00000, -0.00000, -0.00000
5.150, -0.00001, -0.00000, -0.00000, -0.00000, -0.00001
5.200, -0.00001, -0.00000, -0.00000, -0.00000, -0.00001
5.250, -0.00001, 0.00000, 0.00000, 0.00000, -0.00002
5.300, -0.00001, 0.00000, 0.00000, 0.00000, -0.00002
5.350, -0.00000, 0.00000, 0.00000, 0.00000, -0.00002
5.400, -0.00000, 0.00000, 0.00000, 0.00000, -0.00002
5.450, -0.00000, 0.00000, 0.00000, 0.00000, -0.00002
5.500, -0.00000, 0.00000, 0.00000, 0.00000, -0.00001
5.550, -0.00000, 0.00000, 0.00000, 0.00000, -0.00001
5.600, 0.00000, 0.00000, 0.00000, 0.00000, -0.00001
5.650, 0.00000, 0.00000, 0.00000, 0.00000, -0.00000
5.700, 0.00001, 0.00000, 0.00000, 0.00000, 0.00001
5.750, 0.00001, 0.00000, 0.00000, 0.00000, 0.00001
5.800, 0.00001, 0.00000, 0.00000, 0.00000, 0.00002
5.850, 0.00001, 0.00000, 0.00000, 0.00000, 0.00003
5.900, 0.00002, 0.00000, 0.00000, 0.00000, 0.00004
5.950, 0.00202, 0.00000, 0.00000, 0.00000, 0.00211
6.000, 0.00902, 0.00000, 0.00000, 0.00000, 0.00871
6.050, 0.02102, 0.00000, 0.00000, 0.00000, 0.01978
6.100, 0.03802, 0.00000, 0.00000, 0.00000, 0.03531
6.150, 0.05800, 0.00000, 0.00000, 0.00000, 0.05531
6.200, 0.07800, 0.00000, 0.00000, 0.00000, 0.07977
6.250, 0.09800, 0.00000, 0.00000, 0.00000, 0.10871
6.300, 0.11800, 0.00000, 0.00000, 0.00000, 0.14210
6.350, 0.13800, 0.00000, 0.00000, 0.00000, 0.17997
6.400, 0.15800, 0.00000, 0.00000, 0.00000, 0.22230
6.450, 0.17800, 0.00000, 0.00000, 0.00000, 0.26910
6.500, 0.19800, 0.00000, 0.00000, 0.00000, 0.31866
6.550, 0.21800, 0.00000, 0.00000, 0.00000, 0.36822
6.600, 0.23800, 0.00000, 0.00000, 0.00000, 0.41780
6.650, 0.25800, 0.00000, 0.00000, 0.00000, 0.46604
6.700, 0.27598, 0.00000, 0.00000, 0.00000, 0.50992
6.750, 0.28898, 0.00000, 0.00000, 0.00000, 0.54933
6.800, 0.29698, 0.00000, 0.00000, 0.00000, 0.58427
6.850, 0.29997, 0.00000, 0.00000, 0.00000, 0.61475
6.900, 0.30000, 0.00000, 0.00000, 0.00000, 0.64076
6.950, 0.30000, 0.00000, 0.00000, 0.00000, 0.66230
7.000, 0.30000, 0.00000, 0.00000, 0.00000, 0.67938
7.050, 0.30000, 0.00000, 0.00000, 0.00000, 0.69199
7.100, 0.30000, 0.00000, 0.00000, 0.00000, 0.70013
7.150, 0.30000, 0.00000, 0.00000, 0.00000, 0.70381
7.200, 0.30000, 0.00000, 0.00000, 0.00000, 0.70403
7.250, 0.30000, 0.00000, 0.00000, 0.00000, 0.70402
7.300, 0.30000, 0.00000, 0.00000, 0.00000, 0.70402
7.350, 0.30000, 0.00000, 0.00000, 0.00000, 0.70402
7.400, 0.30000, 0.00000, 0.00000, 0.00000, 0.70402
7.450, 0.30000, 0.00000, 0.00000, 0.00000, 0.70402
7.500, 0.30000, 0.00000, 0.00000, 0.00000, 0.70402
7.550, 0.30000, 0.00000, 0.00000, 0.00000, 0.70402
7.600, 0.30000, 0.00000, 0.00000, 0.00000, 0.70402
7.650, 0.30000, 0.00000, 0.00000, 0.00000, 0.70402
7.700, 0.30000, 0.00000, 0.00000, 0.00000, 0.70402
7.750, 0.30000, 0.00000, 0.00000, 0.00000, 0.70402
7.800, 0.30000, 0.00000, 0.00000, 0.00000, 0.70402
7.850, 0.30000, 0.00000, 0.00000, 0.00000, 0.70402
7.900, 0.30000, 0.00000, 0.00000, 0.00000, 0.70402
7.950, 0.30000, 0.00000, 0.00000, 0.00000, 0.70402
8.000, 0.30000, 0.00000, 0.00000, 0.00000, 0.70402
8.050, 0.30000, 0.00000, 0.00000, 0.00000, 0.70402
8.100, 0.30000, 0.00000, 0.00000, 0.00000, 0.70402
8.150, 0.30000, 0.00000, 0.00000, 0.00000, 0.70377
8.200, 0.30000, 0.00000, 0.00000, 0.00000, 0.69995
8.250, 0.30000, 0.00000, 0.00000, 0.00000, 0.69167
8.300, 0.30000, 0.00000, 0.00000, 0.00000, 0.67892
8.350, 0.30000, 0.00000, 0.00000, 0.00000, 0.66170
8.400, 0.30000, 0.00000, 0.00000, 0.00000, 0.64002
8.450, 0.29993, 0.00000, 0.00000, 0.00000, 0.61387
8.500, 0.29661, 0.00000, 0.00000, 0.00000, 0.58326
8.550, 0.28829, 0.00000, 0.00000, 0.00000, 0.54818
8.600, 0.27496, 0.00000, 0.00000, 0.00000, 0.50863
8.650, 0.25670, 0.00000, 0.00000, 0.00000, 0.46461
8.700, 0.23669, 0.00000, 0.00000, 0.00000, 0.41627
8.750, 0.21669, 0.00000, 0.00000, 0.00000, 0.36669
8.800, 0.19669, 0.00000, 0.00000, 0.00000, 0.31713
8.850, 0.17669, 0.00000, 0.00000, 0.00000, 0.26759
8.900, 0.15669, 0.00000, 0.00000, 0.00000, 0.22093
8.950, 0.13669, 0.00000, 0.00000, 0.00000, 0.17874
9.000, 0.11669, 0.00000, 0.00000, 0.00000, 0.14101
9.050, 0.09669, 0.00000, 0.00000, 0.00000, 0.10775
9.100, 0.07669, 0.00000, 0.00000, 0.00000, 0.07895
9.150, 0.05669, 0.00000, 0.00000, 0.00000, 0.05462
9.200, 0.03676, 0.00000, 0.00000, 0.00000, 0.03476
9.250, 0.02008, 0.00000, 0.00000, 0.00000, 0.01937
9.300, 0.00841, 0.00000, 0.00000, 0.00000, 0.00844
9.350, 0.00173, 0.00000, 0.00000, 0.00000, 0.00198
9.400, -0.00001, 0.00000, 0.00000, -0.00000, 0.00002
9.450, -0.00000, 0.00000, 0.00000, -0.00000, 0.00001
9.500, -0.00000, 0.00000, 0.00000, -0.00001, 0.00000
9.550, -0.00000, 0.00000, 0.00000, -0.00001, -0.00000
9.600, -0.00000, 0.00000, 0.00000, -0.00001, -0.00001
9.650, -0.00000, 0.00000, 0.00001, -0.00001, -0.00001
9.700, -0.00000, 0.00000, 0.00001, -0.00002, -0.00002
9.750, 0.00000, 0.00000, 0.00001, -0.00001, -0.00002
9.800, 0.00000, 0.00000, 0.00001, -0.00001, -0.00002
9.850, 0.00000, 0.00000, 0.00000, -0.00001, -0.00002
9.900, 0.00000, 0.00000, 0.00000, -0.00001, -0.00002
9.950, 0.00000, 0.00000, 0.00000, -0.00001, -0.00002
10.000, 0.00000, 0.00000, 0.00000, -0.00000, -0.00001
10.050, 0.00000, 0.00000, 0.00000, -0.00000, -0.00001
10.100, 0.00000, -0.00000, -0.00000, 0.00000, -0.00000
10.150, 0.00000, -0.00000, -0.00000, 0.00001, 0.00000
10.200, 0.00000, -0.00000, -0.00001, 0.00002, 0.00001
10.250, 0.00000, -0.00001, -0.00001, 0.00002, 0.00002
10.300, 0.00000, -0.00001, -0.00001, 0.00003, 0.00003
10.350, 0.00000, -0.00001, -0.00001, 0.00004, 0.00005
10.400, 0.00000, -0.00008, -0.00022, 0.00027, 0.00043
10.450, 0.00000, -0.00124, -0.00422, 0.00381, 0.00679
10.500, 0.00000, -0.00377, -0.01322, 0.01133, 0.02063
10.550, 0.00000, -0.00766, -0.02722, 0.02286, 0.04195
10.600, 0.00000, -0.01292, -0.04622, 0.03837, 0.07076
10.650, 0.00000, -0.01954, -0.07022, 0.05789, 0.10705
10.700, 0.00000, -0.02752, -0.09922, 0.08140, 0.15082
10.750, 0.00000, -0.03686, -0.13300, 0.10890, 0.20208
10.800, 0.00000, -0.04757, -0.16800, 0.14040, 0.26082
10.850, 0.00000, -0.05964, -0.20300, 0.17589, 0.32704
10.900, 0.00000, -0.07308, -0.23778, 0.21538, 0.39700
10.950, 0.00000, -0.08767, -0.26878, 0.25887, 0.46692
11.000, 0.00000, -0.10239, -0.29478, 0.30486, 0.53630
11.050, 0.00000, -0.11711, -0.31578, 0.35088, 0.59955
11.100, 0.00000, -0.13182, -0.33178, 0.39689, 0.65532
11.150, 0.00000, -0.14655, -0.34278, 0.44211, 0.70361
11.200, 0.00000, -0.16067, -0.34878, 0.48355, 0.74442
11.250, 0.00000, -0.17344, -0.35000, 0.52101, 0.77774
11.300, 0.00000, -0.18484, -0.35000, 0.55447, 0.80358
11.350, 0.00000, -0.19487, -0.35000, 0.58393, 0.82194
11.400, 0.00000, -0.20355, -0.35000, 0.60940, 0.83281
11.450, 0.00000, -0.21086, -0.35000, 0.63087, 0.83621
11.500, 0.00000, -0.21680, -0.35000, 0.64835, 0.83618
11.550, 0.00000, -0.22139, -0.35000, 0.66184, 0.83618
11.600, 0.00000, -0.22461, -0.35000, 0.67133, 0.83618
11.650, 0.00000, -0.22646, -0.35000, 0.67682, 0.83618
11.700, 0.00000, -0.22697, -0.35000, 0.67835, 0.83618
11.750, 0.00000, -0.22696, -0.35000, 0.67833, 0.83618
11.800, 0.00000, -0.22696, -0.35000, 0.67833, 0.83618
11.850, 0.00000, -0.22696, -0.35000, 0.67833, 0.83618
11.900, 0.00000, -0.22696, -0.35000, 0.67833, 0.83618
11.950, 0.00000, -0.22696, -0.35000, 0.67833, 0.83618
12.000, 0.00000, -0.22696, -0.35000, 0.67834, 0.83618
12.050, 0.00000, -0.22664, -0.35000, 0.67671, 0.83618
12.100, 0.00000, -0.22501, -0.35000, 0.67111, 0.83618
12.150, 0.00000, -0.22202, -0.35000, 0.66150, 0.83618
12.200, 0.00000, -0.21766, -0.35000, 0.64790, 0.83618
12.250, 0.00000, -0.21195, -0.35000, 0.63030, 0.83617
12.300, 0.00000, -0.20486, -0.35000, 0.60871, 0.83394
12.350, 0.00000, -0.19642, -0.35000, 0.58313, 0.82437
12.400, 0.00000, -0.18661, -0.35000, 0.55354, 0.80732
12.450, 0.00000, -0.17544, -0.35000, 0.51997, 0.78278
12.500, 0.00000, -0.16290, -0.34931, 0.48240, 0.75077
12.550, 0.00000, -0.14900, -0.34415, 0.44083, 0.71126
12.600, 0.00000, -0.13429, -0.33400, 0.39553, 0.66428
12.650, 0.00000, -0.11957, -0.31885, 0.34953, 0.60981
12.700, 0.00000, -0.10485, -0.29870, 0.30352, 0.54786
12.750, 0.00000, -0.09013, -0.27355, 0.25756, 0.47910
12.800, 0.00000, -0.07546, -0.24340, 0.21417, 0.40918
12.850, 0.00000, -0.06180, -0.20894, 0.17480, 0.33927
12.900, 0.00000, -0.04950, -0.17394, 0.13942, 0.27183
12.950, 0.00000, -0.03856, -0.13894, 0.10804, 0.21178
13.000, 0.00000, -0.02899, -0.10464, 0.08065, 0.15922
13.050, 0.00000, -0.02078, -0.07479, 0.05726, 0.11414
13.100, 0.00000, -0.01393, -0.04994, 0.03786, 0.07655
13.150, 0.00000, -0.00845, -0.03009, 0.02246, 0.04643
13.200, 0.00000, -0.00433, -0.01524, 0.01106, 0.02381
13.250, 0.00000, -0.00157, -0.00539, 0.00365, 0.00866
13.300, 0.00000, -0.00018, -0.00054, 0.00023, 0.00100
13.350, 0.00000, -0.00000, -0.00000, -0.00002, 0.00002
13.400, 0.00000, -0.00000, -0.00000, -0.00001, 0.00001
13.450, 0.00000, -0.00000, -0.00000, -0.00001, 0.00001
13.500, 0.00000, -0.00000, -0.00000, -0.00001, -0.00000
13.550, 0.00001, -0.00000, -0.00000, -0.00000, -0.00001
13.600, 0.00001, -0.00000, -0.00000, -0.00000, -0.00001
13.650, 0.00001, -0.00000, -0.00000, -0.00000, -0.00002
13.700, 0.00001, 0.00000, 0.00000, 0.00000, -0.00002
13.750, 0.00001, 0.00000, 0.00000, 0.00000, -0.00002
13.800, 0.00000, 0.00000, 0.00000, 0.00000, -0.00002
13.850, 0.00000, 0.00000, 0.00000, 0.00001, -0.00002
13.900, 0.00000, 0.00000, 0.00000, 0.00001, -0.00002
13.950, 0.00000, 0.00000, 0.00000, 0.00001, -0.00001
14.000, -0.00000, 0.00000, 0.00000, 0.00001, -0.00001
14.050, -0.00000, 0.00000, 0.00000, 0.00001, -0.00000
14.100, -0.00000, 0.00000, 0.00000, 0.00001, 0.00000
14.150, -0.00001, 0.00000, 0.00000, 0.00000, 0.00001
14.200, -0.00001, 0.00000, 0.00000, 0.00000, 0.00002
14.250, -0.00001, 0.00000, 0.00000, 0.00000, 0.00003
14.300, -0.00002, 0.00000, 0.00000, 0.00000, 0.00004
14.350, -0.00122, 0.00000, 0.00000, 0.00000, 0.00133
14.400, -0.00722, 0.00000, 0.00000, 0.00000, 0.00703
14.450, -0.01822, 0.00000, 0.00000, 0.00000, 0.01721
14.500, -0.03422, 0.00000, 0.00000, 0.00000, 0.03184
14.550, -0.05400, 0.00000, 0.00000, 0.00000, 0.05095
14.600, -0.07400, 0.00000, 0.00000, 0.00000, 0.07452
14.650, -0.09400, 0.00000, 0.00000, 0.00000, 0.10256
14.700, -0.11400, 0.00000, 0.00000, 0.00000, 0.13507
14.750, -0.13400, 0.00000, 0.00000, 0.00000, 0.17204
14.800, -0.15400, 0.00000, 0.00000, 0.00000, 0.21348
14.850, -0.17400, 0.00000, 0.00000, 0.00000, 0.25939
14.900, -0.19400, 0.00000, 0.00000, 0.00000, 0.30874
14.950, -0.21400, 0.00000, 0.00000, 0.00000, 0.35831
15.000, -0.23400, 0.00000, 0.00000, 0.00000, 0.40787
15.050, -0.25400, 0.00000, 0.00000, 0.00000, 0.45673
15.100, -0.27278, 0.00000, 0.00000, 0.00000, 0.50150
15.150, -0.28678, 0.00000, 0.00000, 0.00000, 0.54180
15.200, -0.29578, 0.00000, 0.00000, 0.00000, 0.57764
15.250, -0.29979, 0.00000, 0.00000, 0.00000, 0.60901
15.300, -0.30000, 0.00000, 0.00000, 0.00000, 0.63591
15.350, -0.30000, 0.00000, 0.00000, 0.00000, 0.65835
15.400, -0.30000, 0.00000, 0.00000, 0.00000, 0.67632
15.450, -0.30000, 0.00000, 0.00000, 0.00000, 0.68983
15.500, -0.30000, 0.00000, 0.00000, 0.00000, 0.69886
15.550, -0.30000, 0.00000, 0.00000, 0.00000, 0.70344
15.600, -0.30000, 0.00000, 0.00000, 0.00000, 0.70402
15.650, -0.30000, 0.00000, 0.00000, 0.00000, 0.70402
15.700, -0.30000, 0.00000, 0.00000, 0.00000, 0.70402
15.750, -0.30000, 0.00000, 0.00000, 0.00000, 0.70402
15.800, -0.30000, 0.00000, 0.00000, 0.00000, 0.70402
15.850, -0.30000, 0.00000, 0.00000, 0.00000, 0.70402
15.900, -0.30000, 0.00000, 0.00000, 0.00000, 0.70402
15.950, -0.30000, 0.00000, 0.00000, 0.00000, 0.70402
16.000, -0.30000, 0.00000, 0.00000, 0.00000, 0.70402
16.050, -0.30000, 0.00000, 0.00000, 0.00000, 0.70402
16.100, -0.30000, 0.00000, 0.00000, 0.00000, 0.70402
16.150, -0.30000, 0.00000, 0.00000, 0.00000, 0.70402
16.200, -0.30000, 0.00000, 0.00000, 0.00000, 0.70402
16.250, -0.30000, 0.00000, 0.00000, 0.00000, 0.70402
16.300, -0.30000, 0.00000, 0.00000, 0.00000, 0.70402
16.350, -0.30000, 0.00000, 0.00000, 0.00000, 0.70402
16.400, -0.30000, 0.00000, 0.00000, 0.00000, 0.70402
16.450, -0.30000, 0.00000, 0.00000, 0.00000, 0.70402
16.500, -0.30000, 0.00000, 0.00000, 0.00000, 0.70402
16.550, -0.30000, 0.00000, 0.00000, 0.00000, 0.70399
16.600, -0.30000, 0.00000, 0.00000, 0.00000, 0.70107
16.650, -0.30000, 0.00000, 0.00000, 0.00000, 0.69368
16.700, -0.30000, 0.00000, 0.00000, 0.00000, 0.68183
16.750, -0.30000, 0.00000, 0.00000, 0.00000, 0.66551
16.800, -0.30000, 0.00000, 0.00000, 0.00000, 0.64472
16.850, -0.30001, 0.00000, 0.00000, 0.00000, 0.61947
16.900, -0.29768, 0.00000, 0.00000, 0.00000, 0.58975
16.950, -0.29035, 0.00000, 0.00000, 0.00000, 0.55556
17.000, -0.27803, 0.00000, 0.00000, 0.00000, 0.51691
17.050, -0.26070, 0.00000, 0.00000, 0.00000, 0.47379
17.100, -0.24069, 0.00000, 0.00000, 0.00000, 0.42620
17.150, -0.22069, 0.00000, 0.00000, 0.00000, 0.37662
17.200, -0.20069, 0.00000, 0.00000, 0.00000, 0.32706
17.250, -0.18069, 0.00000, 0.00000, 0.00000, 0.27747
17.300, -0.16069, 0.00000, 0.00000, 0.00000, 0.22992
17.350, -0.14069, 0.00000, 0.00000, 0.00000, 0.18683
17.400, -0.12069, 0.00000, 0.00000, 0.00000, 0.14821
17.450, -0.10069, 0.00000, 0.00000, 0.00000, 0.11405
17.500, -0.08069, 0.00000, 0.00000, 0.00000, 0.08436
17.550, -0.06069, 0.00000, 0.00000, 0.00000, 0.05914
17.600, -0.04070, 0.00000, 0.00000, 0.00000, 0.03838
17.650, -0.02301, 0.00000, 0.00000, 0.00000, 0.02209
17.700, -0.01034, 0.00000, 0.00000, 0.00000, 0.01027
17.750, -0.00267, 0.00000, 0.00000, 0.00000, 0.00291
17.800, 0.00001, 0.00000, 0.00000, 0.00000, 0.00002
17.850, 0.00000, -0.00000, -0.00000, 0.00000, 0.00001
17.900, 0.00000, -0.00000, -0.00000, 0.00001, 0.00001
17.950, 0.00000, -0.00000, -0.00000, 0.00001, -0.00000
18.000, 0.00000, -0.00000, -0.00000, 0.00001, -0.00001
18.050, 0.00000, -0.00000, -0.00001, 0.00001, -0.00001
18.100, 0.00000, -0.00000, -0.00001, 0.00001, -0.00002
18.150, -0.00000, -0.00000, -0.00001, 0.00002, -0.00002
18.200, -0.00000, -0.00000, -0.00001, 0.00001, -0.00002
18.250, -0.00000, -0.00000, -0.00000, 0.00001, -0.00002
18.300, -0.00000, -0.00000, -0.00000, 0.00001, -0.00002
18.350, -0.00000, -0.00000, -0.00000, 0.00001, -0.00002
18.400, -0.00000, -0.00000, -0.00000, 0.00001, -0.00001
18.450, -0.00000, -0.00000, -0.00000, 0.00000, -0.00001
18.500, -0.00000, 0.00000, 0.00000, -0.00000, -0.00000
18.550, -0.00000, 0.00000, 0.00000, -0.00001, 0.00000
18.600, -0.00000, 0.00000, 0.00001, -0.00001, 0.00001
18.650, -0.00000, 0.00001, 0.00001, -0.00002, 0.00002
18.700, -0.00000, 0.00001, 0.00001, -0.00003, 0.00003
18.750, -0.00000, 0.00001, 0.00001, -0.00004, 0.00004
18.800, 0.00000, 0.00001, 0.00002, -0.00005, 0.00006
18.850, 0.00000, 0.00090, 0.00302, -0.00278, 0.00492
18.900, 0.00000, 0.00316, 0.01102, -0.00951, 0.01726
18.950, 0.00000, 0.00678, 0.02402, -0.02023, 0.03709
19.000, 0.00000, 0.01176, 0.04202, -0.03495, 0.06440
19.050, 0.00000, 0.01810, 0.06502, -0.05367, 0.09919
19.100, 0.00000, 0.02581, 0.09302, -0.07637, 0.14147
19.150, 0.00000, 0.03489, 0.12600, -0.10308, 0.19123
19.200, 0.00000, 0.04532, 0.16100, -0.13378, 0.24848
19.250, 0.00000, 0.05712, 0.19600, -0.16847, 0.31321
19.300, 0.00000, 0.07028, 0.23098, -0.20716, 0.38301
19.350, 0.00000, 0.08473, 0.26298, -0.24985, 0.45293
19.400, 0.00000, 0.09945, 0.28998, -0.29566, 0.52273
19.450, 0.00000, 0.11416, 0.31198, -0.34167, 0.58750
19.500, 0.00000, 0.12888, 0.32898, -0.38768, 0.64477
19.550, 0.00000, 0.14360, 0.34098, -0.43333, 0.69455
19.600, 0.00000, 0.15795, 0.34798, -0.47558, 0.73686
19.650, 0.00000, 0.17099, 0.35002, -0.51383, 0.77168
19.700, 0.00000, 0.18266, 0.35000, -0.54809, 0.79901
19.750, 0.00000, 0.19297, 0.35000, -0.57836, 0.81886
19.800, 0.00000, 0.20192, 0.35000, -0.60463, 0.83123
19.850, 0.00000, 0.20950, 0.35000, -0.62690, 0.83611
19.900, 0.00000, 0.21572, 0.35000, -0.64518, 0.83618
19.950, 0.00000, 0.22058, 0.35000, -0.65946, 0.83618
20.000, 0.00000, 0.22407, 0.35000, -0.66975, 0.83618
20.050, 0.00000, 0.22620, 0.35000, -0.67604, 0.83618
20.100, 0.00000, 0.22696, 0.35000, -0.67833, 0.83618
20.150, 0.00000, 0.22696, 0.35000, -0.67833, 0.83618
20.200, 0.00000, 0.22696, 0.35000, -0.67833, 0.83618
20.250, 0.00000, 0.22696, 0.35000, -0.67833, 0.83618
20.300, 0.00000, 0.22696, 0.35000, -0.67833, 0.83618
20.350, 0.00000, 0.22696, 0.35000, -0.67833, 0.83618
20.400, 0.00000, 0.22696, 0.35000, -0.67833, 0.83618
20.450, 0.00000, 0.22680, 0.35000, -0.67736, 0.83618
20.500, 0.00000, 0.22545, 0.35000, -0.67255, 0.83618
20.550, 0.00000, 0.22273, 0.35000, -0.66374, 0.83618
20.600, 0.00000, 0.21864, 0.35000, -0.65094, 0.83618
20.650, 0.00000, 0.21320, 0.35000, -0.63414, 0.83618
20.700, 0.00000, 0.20639, 0.35000, -0.61335, 0.83495
20.750, 0.00000, 0.19822, 0.35000, -0.58856, 0.82688
20.800, 0.00000, 0.18868, 0.35000, -0.55978, 0.81132
20.850, 0.00000, 0.17778, 0.35000, -0.52700, 0.78828
20.900, 0.00000, 0.16552, 0.34974, -0.49023, 0.75776
20.950, 0.00000, 0.15189, 0.34558, -0.44946, 0.71975
21.000, 0.00000, 0.13723, 0.33643, -0.40475, 0.67426
21.050, 0.00000, 0.12251, 0.32228, -0.35873, 0.62129
21.100, 0.00000, 0.10780, 0.30313, -0.31272, 0.56083
21.150, 0.00000, 0.09308, 0.27898, -0.26670, 0.49308
21.200, 0.00000, 0.07836, 0.24983, -0.22252, 0.42315
21.250, 0.00000, 0.06442, 0.21594, -0.18235, 0.35324
21.300, 0.00000, 0.05185, 0.18094, -0.14618, 0.28472
21.350, 0.00000, 0.04064, 0.14594, -0.11399, 0.22318
21.400, 0.00000, 0.03079, 0.11120, -0.08581, 0.16912
21.450, 0.00000, 0.02231, 0.08036, -0.06162, 0.12255
21.500, 0.00000, 0.01519, 0.05451, -0.04142, 0.08346
21.550, 0.00000, 0.00944, 0.03366, -0.02522, 0.05185
21.600, 0.00000, 0.00504, 0.01781, -0.01302, 0.02773
21.650, 0.00000, 0.00202, 0.00696, -0.00481, 0.01109
21.700, 0.00000, 0.00035, 0.00111, -0.00059, 0.00193
21.750, -0.00000, 0.00000, 0.00000, 0.00002, 0.00003
21.800, -0.00000, 0.00000, 0.00000, 0.00002, 0.00003
21.850, -0.00000, -0.00000, 0.00001, 0.00002, 0.00003
21.900, -0.00000, -0.00000, 0.00001, 0.00001, 0.00003
21.950, -0.00000, -0.00000, 0.00001, 0.00001, 0.00002
22.000, -0.00000, -0.00000, 0.00001, 0.00001, 0.00002
22.050, -0.00000, -0.00001, 0.00001, 0.00001, 0.00002
22.100, -0.00000, -0.00001, 0.00001, 0.00001, 0.00002
22.150, -0.00000, -0.00001, 0.00000, 0.00001, 0.00001
22.200, -0.00000, -0.00001, 0.00000, 0.00000, 0.00001
22.250, -0.00000, -0.00001, 0.00000, 0.00000, 0.00000
22.300, -0.00000, -0.00000, 0.00000, -0.00000, 0.00000
22.350, -0.00000, -0.00000, 0.00000, -0.00000, -0.00000
22.400, 0.00000, -0.00000, -0.00000, -0.00001, -0.00001
22.450, 0.00000, 0.00000, -0.00000, -0.00001, -0.00002
22.500, 0.00000, 0.00000, -0.00000, -0.00001, -0.00002
22.550, 0.00000, 0.00001, -0.00001, -0.00002, -0.00003
22.600, 0.00000, 0.00001, -0.00001, -0.00002, -0.00004
22.650, 0.00001, 0.00001, -0.00001, -0.00002, -0.00004
22.700, 0.00001, 0.00001, -0.00001, -0.00003, -0.00005
22.750, 0.00008, 0.00062, -0.00057, -0.00021, -0.00105
22.800, 0.00060, 0.00562, -0.00511, -0.00133, -0.00847
22.850, 0.00156, 0.01562, -0.01418, -0.00338, -0.02294
22.900, 0.00299, 0.03062, -0.02777, -0.00636, -0.04447
22.950, 0.00487, 0.05062, -0.04590, -0.01027, -0.07304
23.000, 0.00720, 0.07562, -0.06855, -0.01512, -0.10867
23.050, 0.00999, 0.10561, -0.09572, -0.02089, -0.15134
23.100, 0.01324, 0.14000, -0.12727, -0.02760, -0.20107
23.150, 0.01695, 0.17500, -0.16003, -0.03524, -0.25785
23.200, 0.02098, 0.21000, -0.19279, -0.04381, -0.32167
23.250, 0.02504, 0.24439, -0.22548, -0.05331, -0.38891
23.300, 0.02909, 0.27438, -0.25523, -0.06374, -0.45611
23.350, 0.03314, 0.29938, -0.28044, -0.07511, -0.52290
23.400, 0.03719, 0.31938, -0.30112, -0.08740, -0.58408
23.450, 0.04124, 0.33438, -0.31728, -0.10063, -0.63820
23.500, 0.04529, 0.34438, -0.32891, -0.11479, -0.68528
23.550, 0.04935, 0.34938, -0.33601, -0.12988, -0.72531
23.600, 0.05340, 0.35000, -0.33858, -0.14590, -0.75828
23.650, 0.05745, 0.35000, -0.33859, -0.16286, -0.78421
23.700, 0.06150, 0.35000, -0.33859, -0.18031, -0.80308
23.750, 0.06555, 0.35000, -0.33859, -0.19774, -0.81490
23.800, 0.06961, 0.35000, -0.33859, -0.21517, -0.81967
23.850, 0.07366, 0.35000, -0.33859, -0.23260, -0.81976
23.900, 0.07771, 0.35000, -0.33859, -0.25004, -0.81976
23.950, 0.08176, 0.35000, -0.33859, -0.26722, -0.81976
24.000, 0.08581, 0.35000, -0.33859, -0.28349, -0.81976
24.050, 0.08986, 0.35000, -0.33859, -0.29883, -0.81976
24.100, 0.09392, 0.35000, -0.33859, -0.31323, -0.81976
24.150, 0.09797, 0.35000, -0.33859, -0.32671, -0.81976
24.200, 0.10202, 0.35000, -0.33859, -0.33925, -0.81976
24.250, 0.10607, 0.35000, -0.33859, -0.35086, -0.81976
24.300, 0.11012, 0.35000, -0.33859, -0.36154, -0.81976
24.350, 0.11417, 0.35000, -0.33859, -0.37129, -0.81976
24.400, 0.11821, 0.35000, -0.33859, -0.38010, -0.81976
24.450, 0.12190, 0.35000, -0.33859, -0.38799, -0.81976
24.500, 0.12513, 0.35000, -0.33859, -0.39494, -0.81976
24.550, 0.12791, 0.35000, -0.33859, -0.40096, -0.81976
24.600, 0.13023, 0.35000, -0.33859, -0.40605, -0.81976
24.650, 0.13210, 0.35000, -0.33859, -0.41021, -0.81976
24.700, 0.13350, 0.35000, -0.33859, -0.41344, -0.81976
24.750, 0.13446, 0.35000, -0.33859, -0.41573, -0.81976
24.800, 0.13496, 0.35000, -0.33859, -0.41710, -0.81976
24.850, 0.13503, 0.35000, -0.33859, -0.41753, -0.81976
24.900, 0.13503, 0.35000, -0.33859, -0.41752, -0.81976
24.950, 0.13503, 0.35000, -0.33859, -0.41752, -0.81976
25.000, 0.13503, 0.35000, -0.33859, -0.41752, -0.81976
25.050, 0.13503, 0.35000, -0.33859, -0.41752, -0.81976
25.100, 0.13503, 0.35000, -0.33859, -0.41752, -0.81976
25.150, 0.13503, 0.35000, -0.33859, -0.41752, -0.81976
25.200, 0.13503, 0.35000, -0.33859, -0.41752, -0.81976
25.250, 0.13503, 0.35000, -0.33859, -0.41752, -0.81976
25.300, 0.13503, 0.35000, -0.33859, -0.41752, -0.81976
25.350, 0.13503, 0.35000, -0.33859, -0.41752, -0.81976
25.400, 0.13503, 0.35000, -0.33859, -0.41752, -0.81976
25.450, 0.13503, 0.35000, -0.33859, -0.41751, -0.81976
25.500, 0.13503, 0.35000, -0.33859, -0.41752, -0.81976
25.550, 0.13502, 0.35000, -0.33859, -0.41718, -0.81976
25.600, 0.13467, 0.35000, -0.33859, -0.41590, -0.81976
25.650, 0.13387, 0.35000, -0.33859, -0.41370, -0.81976
25.700, 0.13261, 0.35000, -0.33859, -0.41056, -0.81976
25.750, 0.13089, 0.35000, -0.33859, -0.40649, -0.81976
25.800, 0.12872, 0.35000, -0.33859, -0.40149, -0.81976
25.850, 0.12609, 0.35000, -0.33859, -0.39556, -0.81976
25.900, 0.12301, 0.35000, -0.33859, -0.38870, -0.81976
25.950, 0.11947, 0.35000, -0.33859, -0.38090, -0.81976
26.000, 0.11550, 0.35000, -0.33859, -0.37217, -0.81976
26.050, 0.11145, 0.35000, -0.33859, -0.36252, -0.81976
26.100, 0.10740, 0.35000, -0.33859, -0.35193, -0.81976
26.150, 0.10335, 0.35000, -0.33859, -0.34040, -0.81976
26.200, 0.09929, 0.35000, -0.33859, -0.32795, -0.81976
26.250, 0.09524, 0.35000, -0.33859, -0.31457, -0.81976
26.300, 0.09119, 0.35000, -0.33859, -0.30025, -0.81976
26.350, 0.08714, 0.35000, -0.33859, -0.28500, -0.81976
26.400, 0.08309, 0.35000, -0.33859, -0.26882, -0.81976
26.450, 0.07904, 0.35000, -0.33859, -0.25171, -0.81976
26.500, 0.07498, 0.35000, -0.33859, -0.23428, -0.81976
26.550, 0.07093, 0.35000, -0.33859, -0.21684, -0.81976
26.600, 0.06688, 0.35000, -0.33859, -0.19941, -0.81689
26.650, 0.06283, 0.35000, -0.33859, -0.18198, -0.80698
26.700, 0.05878, 0.35000, -0.33859, -0.16455, -0.79002
26.750, 0.05472, 0.35000, -0.33859, -0.14749, -0.76601
26.800, 0.05067, 0.34996, -0.33744, -0.13138, -0.73494
26.850, 0.04662, 0.34687, -0.33194, -0.11620, -0.69683
26.900, 0.04257, 0.33876, -0.32191, -0.10195, -0.65166
26.950, 0.03852, 0.32565, -0.30736, -0.08863, -0.59944
27.000, 0.03447, 0.30755, -0.28828, -0.07625, -0.54017
27.050, 0.03041, 0.28444, -0.26467, -0.06479, -0.47432
27.100, 0.02636, 0.25634, -0.23653, -0.05427, -0.40712
27.150, 0.02231, 0.22327, -0.20438, -0.04468, -0.33992
27.200, 0.01825, 0.18826, -0.17162, -0.03602, -0.27446
27.250, 0.01440, 0.15326, -0.13887, -0.02829, -0.21577
27.300, 0.01101, 0.11830, -0.10642, -0.02150, -0.16413
27.350, 0.00807, 0.08639, -0.07765, -0.01563, -0.11954
27.400, 0.00558, 0.05950, -0.05339, -0.01070, -0.08200
27.450, 0.00355, 0.03761, -0.03367, -0.00670, -0.05152
27.500, 0.00198, 0.02071, -0.01847, -0.00363, -0.02808
27.550, 0.00086, 0.00882, -0.00780, -0.00149, -0.01170
27.600, 0.00020, 0.00192, -0.00166, -0.00028, -0.00236
