kutzer/Scor6AxisToolbox/Scor6AxisToolbox Test Functions/ScorBotBoxData_sCurve/BSEPR_Velocity_70Hz.csv
Time_(s), Base_Joint_Velocity_(rad/s), Shoulder_Joint_Velocity_(rad/s), Elbow_Joint_Velocity_(rad/s), Wrist_Pitch_Joint_Velocity_(rad/s), Wrist_Roll_Joint_Velocity_(rad/s)
0.000, -0.00001, -0.00002, 0.00002, 0.00003, -0.00005
0.014, -0.00006, -0.00036, 0.00033, 0.00015, -0.00065
0.029, -0.00014, -0.00112, 0.00102, 0.00034, -0.00182
0.043, -0.00026, -0.00228, 0.00208, 0.00061, -0.00357
0.057, -0.00042, -0.00385, 0.00351, 0.00095, -0.00589
0.071, -0.00062, -0.00583, 0.00530, 0.00138, -0.00879
0.086, -0.00085, -0.00822, 0.00747, 0.00187, -0.01226
0.100, -0.00112, -0.01102, 0.01001, 0.00245, -0.01631
0.114, -0.00143, -0.01422, 0.01291, 0.00310, -0.02093
0.129, -0.00178, -0.01783, 0.01619, 0.00382, -0.02613
0.143, -0.00216, -0.02185, 0.01983, 0.00463, -0.03191
0.157, -0.00258, -0.02628, 0.02384, 0.00551, -0.03826
0.171, -0.00303, -0.03112, 0.02823, 0.00646, -0.04518
0.186, -0.00353, -0.03636, 0.03298, 0.00749, -0.05269
0.200, -0.00406, -0.04202, 0.03810, 0.00860, -0.06077
0.214, -0.00463, -0.04808, 0.04360, 0.00978, -0.06942
0.229, -0.00523, -0.05455, 0.04946, 0.01104, -0.07865
0.243, -0.00588, -0.06142, 0.05569, 0.01237, -0.08845
0.257, -0.00656, -0.06871, 0.06229, 0.01378, -0.09883
0.271, -0.00728, -0.07640, 0.06926, 0.01527, -0.10979
0.286, -0.00803, -0.08451, 0.07660, 0.01683, -0.12132
0.300, -0.00882, -0.09302, 0.08431, 0.01847, -0.13343
0.314, -0.00965, -0.10194, 0.09239, 0.02018, -0.14611
0.329, -0.01052, -0.11126, 0.10084, 0.02198, -0.15937
0.343, -0.01142, -0.12100, 0.10965, 0.02384, -0.17320
0.357, -0.01236, -0.13100, 0.11885, 0.02579, -0.18761
0.371, -0.01334, -0.14100, 0.12821, 0.02780, -0.20260
0.386, -0.01436, -0.15100, 0.13757, 0.02990, -0.21816
0.400, -0.01541, -0.16100, 0.14693, 0.03207, -0.23429
0.414, -0.01650, -0.17100, 0.15629, 0.03432, -0.25101
0.429, -0.01763, -0.18100, 0.16564, 0.03664, -0.26829
0.443, -0.01878, -0.19100, 0.17500, 0.03904, -0.28616
0.457, -0.01994, -0.20100, 0.18436, 0.04151, -0.30460
0.471, -0.02110, -0.21100, 0.19372, 0.04407, -0.32360
0.486, -0.02226, -0.22101, 0.20308, 0.04669, -0.34284
0.500, -0.02341, -0.23097, 0.21244, 0.04940, -0.36203
0.514, -0.02457, -0.24064, 0.22179, 0.05218, -0.38123
0.529, -0.02573, -0.24988, 0.23091, 0.05503, -0.40043
0.543, -0.02689, -0.25872, 0.23964, 0.05796, -0.41963
0.557, -0.02805, -0.26715, 0.24801, 0.06097, -0.43883
0.571, -0.02920, -0.27517, 0.25601, 0.06405, -0.45803
0.586, -0.03036, -0.28278, 0.26364, 0.06721, -0.47722
0.600, -0.03152, -0.28998, 0.27090, 0.07045, -0.49645
0.614, -0.03268, -0.29678, 0.27778, 0.07376, -0.51545
0.629, -0.03383, -0.30317, 0.28430, 0.07715, -0.53389
0.643, -0.03499, -0.30915, 0.29045, 0.08061, -0.55174
0.657, -0.03615, -0.31472, 0.29624, 0.08415, -0.56902
0.671, -0.03731, -0.31988, 0.30165, 0.08777, -0.58572
0.686, -0.03846, -0.32464, 0.30669, 0.09146, -0.60185
0.700, -0.03962, -0.32898, 0.31136, 0.09523, -0.61740
0.714, -0.04078, -0.33292, 0.31566, 0.09907, -0.63237
0.729, -0.04194, -0.33645, 0.31960, 0.10299, -0.64678
0.743, -0.04309, -0.33958, 0.32316, 0.10699, -0.66060
0.757, -0.04425, -0.34229, 0.32635, 0.11106, -0.67385
0.771, -0.04541, -0.34460, 0.32918, 0.11521, -0.68652
0.786, -0.04657, -0.34649, 0.33163, 0.11943, -0.69862
0.800, -0.04773, -0.34798, 0.33372, 0.12373, -0.71014
0.814, -0.04888, -0.34906, 0.33543, 0.12811, -0.72109
0.829, -0.05004, -0.34974, 0.33678, 0.13256, -0.73146
0.843, -0.05120, -0.34999, 0.33775, 0.13709, -0.74126
0.857, -0.05236, -0.35000, 0.33837, 0.14170, -0.75048
0.871, -0.05351, -0.35000, 0.33858, 0.14638, -0.75912
0.886, -0.05467, -0.35000, 0.33860, 0.15113, -0.76719
0.900, -0.05583, -0.35000, 0.33859, 0.15597, -0.77468
0.914, -0.05699, -0.35000, 0.33860, 0.16088, -0.78160
0.929, -0.05814, -0.35000, 0.33859, 0.16585, -0.78794
0.943, -0.05930, -0.35000, 0.33859, 0.17085, -0.79371
0.957, -0.06046, -0.35000, 0.33859, 0.17583, -0.79890
0.971, -0.06162, -0.35000, 0.33859, 0.18080, -0.80352
0.986, -0.06278, -0.35000, 0.33859, 0.18578, -0.80756
1.000, -0.06393, -0.35000, 0.33859, 0.19077, -0.81102
1.014, -0.06509, -0.35000, 0.33859, 0.19575, -0.81391
1.029, -0.06625, -0.35000, 0.33859, 0.20073, -0.81622
1.043, -0.06741, -0.35000, 0.33859, 0.20571, -0.81796
1.057, -0.06856, -0.35000, 0.33859, 0.21069, -0.81912
1.071, -0.06972, -0.35000, 0.33859, 0.21567, -0.81970
1.086, -0.07088, -0.35000, 0.33859, 0.22065, -0.81977
1.100, -0.07204, -0.35000, 0.33859, 0.22563, -0.81975
1.114, -0.07319, -0.35000, 0.33859, 0.23061, -0.81976
1.129, -0.07435, -0.35000, 0.33859, 0.23559, -0.81976
1.143, -0.07551, -0.35000, 0.33859, 0.24057, -0.81976
1.157, -0.07667, -0.35000, 0.33859, 0.24555, -0.81976
1.171, -0.07782, -0.35000, 0.33859, 0.25054, -0.81976
1.186, -0.07898, -0.35000, 0.33859, 0.25551, -0.81976
1.200, -0.08014, -0.35000, 0.33859, 0.26044, -0.81976
1.214, -0.08130, -0.35000, 0.33859, 0.26530, -0.81976
1.229, -0.08246, -0.35000, 0.33859, 0.27008, -0.81976
1.243, -0.08361, -0.35000, 0.33859, 0.27477, -0.81976
1.257, -0.08477, -0.35000, 0.33859, 0.27939, -0.81976
1.271, -0.08593, -0.35000, 0.33859, 0.28394, -0.81976
1.286, -0.08709, -0.35000, 0.33859, 0.28841, -0.81976
1.300, -0.08824, -0.35000, 0.33859, 0.29280, -0.81976
1.314, -0.08940, -0.35000, 0.33859, 0.29712, -0.81976
1.329, -0.09056, -0.35000, 0.33859, 0.30136, -0.81976
1.343, -0.09172, -0.35000, 0.33859, 0.30553, -0.81976
1.357, -0.09287, -0.35000, 0.33859, 0.30962, -0.81976
1.371, -0.09403, -0.35000, 0.33859, 0.31363, -0.81976
1.386, -0.09519, -0.35000, 0.33859, 0.31757, -0.81976
1.400, -0.09635, -0.35000, 0.33859, 0.32143, -0.81976
1.414, -0.09751, -0.35000, 0.33859, 0.32521, -0.81976
1.429, -0.09866, -0.35000, 0.33859, 0.32892, -0.81976
1.443, -0.09982, -0.35000, 0.33859, 0.33255, -0.81976
1.457, -0.10098, -0.35000, 0.33859, 0.33611, -0.81976
1.471, -0.10214, -0.35000, 0.33859, 0.33959, -0.81976
1.486, -0.10329, -0.35000, 0.33859, 0.34300, -0.81976
1.500, -0.10445, -0.35000, 0.33859, 0.34633, -0.81976
1.514, -0.10561, -0.35000, 0.33859, 0.34958, -0.81976
1.529, -0.10677, -0.35000, 0.33859, 0.35276, -0.81976
1.543, -0.10792, -0.35000, 0.33859, 0.35586, -0.81976
1.557, -0.10908, -0.35000, 0.33859, 0.35888, -0.81976
1.571, -0.11024, -0.35000, 0.33859, 0.36183, -0.81976
1.586, -0.11140, -0.35000, 0.33859, 0.36470, -0.81976
1.600, -0.11256, -0.35000, 0.33859, 0.36750, -0.81976
1.614, -0.11371, -0.35000, 0.33859, 0.37022, -0.81976
1.629, -0.11487, -0.35000, 0.33859, 0.37286, -0.81976
1.643, -0.11603, -0.35000, 0.33859, 0.37543, -0.81976
1.657, -0.11719, -0.35000, 0.33859, 0.37793, -0.81976
1.671, -0.11832, -0.35000, 0.33859, 0.38034, -0.81976
1.686, -0.11942, -0.35000, 0.33859, 0.38268, -0.81976
1.700, -0.12048, -0.35000, 0.33859, 0.38495, -0.81976
1.714, -0.12150, -0.35000, 0.33859, 0.38713, -0.81976
1.729, -0.12249, -0.35000, 0.33859, 0.38925, -0.81976
1.743, -0.12343, -0.35000, 0.33859, 0.39128, -0.81976
1.757, -0.12434, -0.35000, 0.33859, 0.39324, -0.81976
1.771, -0.12522, -0.35000, 0.33859, 0.39513, -0.81976
1.786, -0.12605, -0.35000, 0.33859, 0.39693, -0.81976
1.800, -0.12685, -0.35000, 0.33859, 0.39867, -0.81976
1.814, -0.12762, -0.35000, 0.33859, 0.40032, -0.81976
1.829, -0.12834, -0.35000, 0.33859, 0.40190, -0.81976
1.843, -0.12903, -0.35000, 0.33859, 0.40341, -0.81976
1.857, -0.12968, -0.35000, 0.33859, 0.40483, -0.81976
1.871, -0.13029, -0.35000, 0.33859, 0.40618, -0.81976
1.886, -0.13087, -0.35000, 0.33859, 0.40746, -0.81976
1.900, -0.13140, -0.35000, 0.33859, 0.40866, -0.81976
1.914, -0.13191, -0.35000, 0.33859, 0.40978, -0.81976
1.929, -0.13237, -0.35000, 0.33859, 0.41083, -0.81976
1.943, -0.13280, -0.35000, 0.33859, 0.41180, -0.81976
1.957, -0.13319, -0.35000, 0.33859, 0.41270, -0.81976
1.971, -0.13354, -0.35000, 0.33859, 0.41352, -0.81976
1.986, -0.13385, -0.35000, 0.33859, 0.41426, -0.81976
2.000, -0.13413, -0.35000, 0.33859, 0.41493, -0.81976
2.014, -0.13437, -0.35000, 0.33859, 0.41552, -0.81976
2.029, -0.13458, -0.35000, 0.33859, 0.41603, -0.81976
2.043, -0.13474, -0.35000, 0.33859, 0.41647, -0.81976
2.057, -0.13487, -0.35000, 0.33859, 0.41684, -0.81976
2.071, -0.13496, -0.35000, 0.33859, 0.41712, -0.81976
2.086, -0.13502, -0.35000, 0.33859, 0.41733, -0.81976
2.100, -0.13503, -0.35000, 0.33859, 0.41746, -0.81976
2.114, -0.13503, -0.35000, 0.33859, 0.41753, -0.81976
2.129, -0.13503, -0.35000, 0.33859, 0.41753, -0.81976
2.143, -0.13503, -0.35000, 0.33859, 0.41751, -0.81976
2.157, -0.13503, -0.35000, 0.33859, 0.41751, -0.81976
2.171, -0.13503, -0.35000, 0.33859, 0.41752, -0.81976
2.186, -0.13503, -0.35000, 0.33859, 0.41752, -0.81976
2.200, -0.13503, -0.35000, 0.33859, 0.41752, -0.81976
2.214, -0.13503, -0.35000, 0.33859, 0.41752, -0.81976
2.229, -0.13503, -0.35000, 0.33859, 0.41752, -0.81976
2.243, -0.13503, -0.35000, 0.33859, 0.41752, -0.81976
2.257, -0.13503, -0.35000, 0.33859, 0.41752, -0.81976
2.271, -0.13503, -0.35000, 0.33859, 0.41752, -0.81976
2.286, -0.13503, -0.35000, 0.33859, 0.41752, -0.81976
2.300, -0.13503, -0.35000, 0.33859, 0.41752, -0.81976
2.314, -0.13503, -0.35000, 0.33859, 0.41752, -0.81976
2.329, -0.13503, -0.35000, 0.33859, 0.41752, -0.81976
2.343, -0.13503, -0.35000, 0.33859, 0.41752, -0.81976
2.357, -0.13503, -0.35000, 0.33859, 0.41752, -0.81976
2.371, -0.13503, -0.35000, 0.33859, 0.41752, -0.81976
2.386, -0.13503, -0.35000, 0.33859, 0.41752, -0.81976
2.400, -0.13503, -0.35000, 0.33859, 0.41752, -0.81976
2.414, -0.13503, -0.35000, 0.33859, 0.41752, -0.81976
2.429, -0.13503, -0.35000, 0.33859, 0.41752, -0.81976
2.443, -0.13503, -0.35000, 0.33859, 0.41752, -0.81976
2.457, -0.13503, -0.35000, 0.33859, 0.41752, -0.81976
2.471, -0.13503, -0.35000, 0.33859, 0.41752, -0.81976
2.486, -0.13503, -0.35000, 0.33859, 0.41752, -0.81976
2.500, -0.13503, -0.35000, 0.33859, 0.41752, -0.81976
2.514, -0.13503, -0.35000, 0.33859, 0.41752, -0.81976
2.529, -0.13503, -0.35000, 0.33859, 0.41752, -0.81976
2.543, -0.13503, -0.35000, 0.33859, 0.41752, -0.81976
2.557, -0.13503, -0.35000, 0.33859, 0.41752, -0.81976
2.571, -0.13503, -0.35000, 0.33859, 0.41752, -0.81976
2.586, -0.13503, -0.35000, 0.33859, 0.41752, -0.81976
2.600, -0.13503, -0.35000, 0.33859, 0.41752, -0.81976
2.614, -0.13503, -0.35000, 0.33859, 0.41752, -0.81976
2.629, -0.13503, -0.35000, 0.33859, 0.41752, -0.81976
2.643, -0.13503, -0.35000, 0.33859, 0.41752, -0.81976
2.657, -0.13503, -0.35000, 0.33859, 0.41752, -0.81976
2.671, -0.13503, -0.35000, 0.33859, 0.41752, -0.81976
2.686, -0.13503, -0.35000, 0.33859, 0.41752, -0.81976
2.700, -0.13503, -0.35000, 0.33859, 0.41752, -0.81976
2.714, -0.13503, -0.35000, 0.33859, 0.41752, -0.81976
2.729, -0.13503, -0.35000, 0.33859, 0.41751, -0.81976
2.743, -0.13503, -0.35000, 0.33859, 0.41752, -0.81976
2.757, -0.13503, -0.35000, 0.33859, 0.41752, -0.81976
2.771, -0.13503, -0.35000, 0.33859, 0.41752, -0.81976
2.786, -0.13503, -0.35000, 0.33859, 0.41750, -0.81976
2.800, -0.13503, -0.35000, 0.33859, 0.41743, -0.81976
2.814, -0.13503, -0.35000, 0.33859, 0.41727, -0.81976
2.829, -0.13499, -0.35000, 0.33859, 0.41703, -0.81976
2.843, -0.13492, -0.35000, 0.33859, 0.41671, -0.81976
2.857, -0.13480, -0.35000, 0.33859, 0.41632, -0.81976
2.871, -0.13465, -0.35000, 0.33859, 0.41585, -0.81976
2.886, -0.13447, -0.35000, 0.33859, 0.41531, -0.81976
2.900, -0.13424, -0.35000, 0.33859, 0.41469, -0.81976
2.914, -0.13398, -0.35000, 0.33859, 0.41400, -0.81976
2.929, -0.13368, -0.35000, 0.33859, 0.41323, -0.81976
2.943, -0.13335, -0.35000, 0.33859, 0.41238, -0.81976
2.957, -0.13297, -0.35000, 0.33859, 0.41146, -0.81976
2.971, -0.13256, -0.35000, 0.33859, 0.41046, -0.81976
2.986, -0.13212, -0.35000, 0.33859, 0.40938, -0.81976
3.000, -0.13163, -0.35000, 0.33859, 0.40823, -0.81976
3.014, -0.13111, -0.35000, 0.33859, 0.40700, -0.81976
3.029, -0.13055, -0.35000, 0.33859, 0.40570, -0.81976
3.043, -0.12996, -0.35000, 0.33859, 0.40432, -0.81976
3.057, -0.12932, -0.35000, 0.33859, 0.40287, -0.81976
3.071, -0.12865, -0.35000, 0.33859, 0.40134, -0.81976
3.086, -0.12794, -0.35000, 0.33859, 0.39973, -0.81976
3.100, -0.12720, -0.35000, 0.33859, 0.39804, -0.81976
3.114, -0.12642, -0.35000, 0.33859, 0.39629, -0.81976
3.129, -0.12560, -0.35000, 0.33859, 0.39445, -0.81976
3.143, -0.12474, -0.35000, 0.33859, 0.39254, -0.81976
3.157, -0.12384, -0.35000, 0.33859, 0.39055, -0.81976
3.171, -0.12291, -0.35000, 0.33859, 0.38849, -0.81976
3.186, -0.12195, -0.35000, 0.33859, 0.38635, -0.81976
3.200, -0.12094, -0.35000, 0.33859, 0.38413, -0.81976
3.214, -0.11990, -0.35000, 0.33859, 0.38184, -0.81976
3.229, -0.11882, -0.35000, 0.33859, 0.37947, -0.81976
3.243, -0.11770, -0.35000, 0.33859, 0.37703, -0.81976
3.257, -0.11655, -0.35000, 0.33859, 0.37451, -0.81976
3.271, -0.11539, -0.35000, 0.33859, 0.37191, -0.81976
3.286, -0.11423, -0.35000, 0.33859, 0.36924, -0.81976
3.300, -0.11307, -0.35000, 0.33859, 0.36649, -0.81976
3.314, -0.11191, -0.35000, 0.33859, 0.36367, -0.81976
3.329, -0.11076, -0.35000, 0.33859, 0.36077, -0.81976
3.343, -0.10960, -0.35000, 0.33859, 0.35779, -0.81976
3.357, -0.10844, -0.35000, 0.33859, 0.35474, -0.81976
3.371, -0.10728, -0.35000, 0.33859, 0.35161, -0.81976
3.386, -0.10613, -0.35000, 0.33859, 0.34840, -0.81976
3.400, -0.10497, -0.35000, 0.33859, 0.34512, -0.81976
3.414, -0.10381, -0.35000, 0.33859, 0.34177, -0.81976
3.429, -0.10265, -0.35000, 0.33859, 0.33834, -0.81976
3.443, -0.10149, -0.35000, 0.33859, 0.33483, -0.81976
3.457, -0.10034, -0.35000, 0.33859, 0.33124, -0.81976
3.471, -0.09918, -0.35000, 0.33859, 0.32758, -0.81976
3.486, -0.09802, -0.35000, 0.33859, 0.32384, -0.81976
3.500, -0.09686, -0.35000, 0.33859, 0.32003, -0.81976
3.514, -0.09571, -0.35000, 0.33859, 0.31614, -0.81976
3.529, -0.09455, -0.35000, 0.33859, 0.31218, -0.81976
3.543, -0.09339, -0.35000, 0.33859, 0.30814, -0.81976
3.557, -0.09223, -0.35000, 0.33859, 0.30402, -0.81976
3.571, -0.09108, -0.35000, 0.33859, 0.29983, -0.81976
3.586, -0.08992, -0.35000, 0.33859, 0.29556, -0.81976
3.600, -0.08876, -0.35000, 0.33859, 0.29121, -0.81976
3.614, -0.08760, -0.35000, 0.33859, 0.28679, -0.81976
3.629, -0.08644, -0.35000, 0.33859, 0.28229, -0.81976
3.643, -0.08529, -0.35000, 0.33859, 0.27772, -0.81976
3.657, -0.08413, -0.35000, 0.33859, 0.27307, -0.81976
3.671, -0.08297, -0.35000, 0.33859, 0.26835, -0.81976
3.686, -0.08181, -0.35000, 0.33859, 0.26355, -0.81976
3.700, -0.08066, -0.35000, 0.33859, 0.25867, -0.81976
3.714, -0.07950, -0.35000, 0.33859, 0.25371, -0.81976
3.729, -0.07834, -0.35000, 0.33859, 0.24872, -0.81976
3.743, -0.07718, -0.35000, 0.33859, 0.24374, -0.81976
3.757, -0.07603, -0.35000, 0.33859, 0.23876, -0.81976
3.771, -0.07487, -0.35000, 0.33859, 0.23378, -0.81976
3.786, -0.07371, -0.35000, 0.33859, 0.22880, -0.81976
3.800, -0.07255, -0.35000, 0.33859, 0.22382, -0.81975
3.814, -0.07140, -0.35000, 0.33859, 0.21884, -0.81976
3.829, -0.07024, -0.35000, 0.33859, 0.21386, -0.81974
3.843, -0.06908, -0.35000, 0.33859, 0.20888, -0.81933
3.857, -0.06792, -0.35000, 0.33859, 0.20389, -0.81830
3.871, -0.06676, -0.35000, 0.33859, 0.19891, -0.81671
3.886, -0.06561, -0.35000, 0.33859, 0.19393, -0.81454
3.900, -0.06445, -0.35000, 0.33859, 0.18895, -0.81179
3.914, -0.06329, -0.35000, 0.33859, 0.18397, -0.80847
3.929, -0.06213, -0.35000, 0.33859, 0.17899, -0.80457
3.943, -0.06098, -0.35000, 0.33859, 0.17401, -0.80010
3.957, -0.05982, -0.35000, 0.33859, 0.16903, -0.79506
3.971, -0.05866, -0.35000, 0.33859, 0.16405, -0.78943
3.986, -0.05750, -0.35000, 0.33859, 0.15909, -0.78323
4.000, -0.05635, -0.35000, 0.33860, 0.15420, -0.77646
4.014, -0.05519, -0.35000, 0.33859, 0.14939, -0.76911
4.029, -0.05403, -0.35000, 0.33861, 0.14467, -0.76118
4.043, -0.05287, -0.34999, 0.33853, 0.14001, -0.75268
4.057, -0.05171, -0.35001, 0.33813, 0.13544, -0.74360
4.071, -0.05056, -0.34994, 0.33735, 0.13093, -0.73395
4.086, -0.04940, -0.34954, 0.33620, 0.12651, -0.72372
4.100, -0.04824, -0.34871, 0.33469, 0.12216, -0.71292
4.114, -0.04708, -0.34747, 0.33280, 0.11789, -0.70154
4.129, -0.04593, -0.34583, 0.33055, 0.11369, -0.68959
4.143, -0.04477, -0.34378, 0.32792, 0.10957, -0.67706
4.157, -0.04361, -0.34132, 0.32493, 0.10553, -0.66395
4.171, -0.04245, -0.33846, 0.32156, 0.10156, -0.65027
4.186, -0.04130, -0.33518, 0.31783, 0.09767, -0.63601
4.200, -0.04014, -0.33150, 0.31372, 0.09385, -0.62118
4.214, -0.03898, -0.32741, 0.30925, 0.09011, -0.60577
4.229, -0.03782, -0.32291, 0.30441, 0.08644, -0.58978
4.243, -0.03667, -0.31800, 0.29920, 0.08286, -0.57322
4.257, -0.03551, -0.31268, 0.29362, 0.07934, -0.55609
4.271, -0.03435, -0.30696, 0.28766, 0.07591, -0.53838
4.286, -0.03319, -0.30083, 0.28134, 0.07255, -0.52010
4.300, -0.03203, -0.29429, 0.27465, 0.06926, -0.50121
4.314, -0.03088, -0.28734, 0.26759, 0.06606, -0.48200
4.329, -0.02972, -0.27998, 0.26016, 0.06292, -0.46280
4.343, -0.02856, -0.27222, 0.25237, 0.05987, -0.44360
4.357, -0.02740, -0.26404, 0.24420, 0.05689, -0.42440
4.371, -0.02625, -0.25546, 0.23566, 0.05398, -0.40520
4.386, -0.02509, -0.24647, 0.22675, 0.05116, -0.38600
4.400, -0.02393, -0.23708, 0.21749, 0.04840, -0.36680
4.414, -0.02277, -0.22726, 0.20812, 0.04573, -0.34760
4.429, -0.02162, -0.21726, 0.19876, 0.04313, -0.32840
4.443, -0.02046, -0.20726, 0.18940, 0.04061, -0.30927
4.457, -0.01930, -0.19726, 0.18005, 0.03816, -0.29069
4.471, -0.01814, -0.18726, 0.17069, 0.03579, -0.27268
4.486, -0.01700, -0.17726, 0.16133, 0.03349, -0.25525
4.500, -0.01589, -0.16726, 0.15197, 0.03127, -0.23840
4.514, -0.01482, -0.15726, 0.14261, 0.02913, -0.22212
4.529, -0.01379, -0.14726, 0.13325, 0.02706, -0.20641
4.543, -0.01279, -0.13726, 0.12388, 0.02507, -0.19129
4.557, -0.01184, -0.12725, 0.11457, 0.02315, -0.17673
4.571, -0.01092, -0.11732, 0.10554, 0.02132, -0.16276
4.586, -0.01003, -0.10772, 0.09689, 0.01955, -0.14935
4.600, -0.00919, -0.09855, 0.08862, 0.01787, -0.13653
4.614, -0.00838, -0.08979, 0.08071, 0.01625, -0.12428
4.629, -0.00761, -0.08143, 0.07317, 0.01472, -0.11260
4.643, -0.00687, -0.07348, 0.06600, 0.01326, -0.10150
4.657, -0.00618, -0.06594, 0.05920, 0.01188, -0.09098
4.671, -0.00552, -0.05880, 0.05277, 0.01057, -0.08103
4.686, -0.00489, -0.05208, 0.04671, 0.00934, -0.07166
4.700, -0.00431, -0.04576, 0.04102, 0.00818, -0.06286
4.714, -0.00376, -0.03985, 0.03569, 0.00711, -0.05464
4.729, -0.00325, -0.03435, 0.03074, 0.00610, -0.04700
4.743, -0.00278, -0.02926, 0.02616, 0.00518, -0.03993
4.757, -0.00234, -0.02458, 0.02195, 0.00433, -0.03343
4.771, -0.00194, -0.02030, 0.01810, 0.00355, -0.02751
4.786, -0.00158, -0.01643, 0.01463, 0.00285, -0.02217
4.800, -0.00125, -0.01297, 0.01153, 0.00223, -0.01740
4.814, -0.00097, -0.00992, 0.00879, 0.00168, -0.01321
4.829, -0.00072, -0.00728, 0.00643, 0.00121, -0.00960
4.843, -0.00050, -0.00504, 0.00443, 0.00082, -0.00656
4.857, -0.00033, -0.00322, 0.00280, 0.00050, -0.00409
4.871, -0.00019, -0.00180, 0.00155, 0.00026, -0.00220
4.886, -0.00009, -0.00079, 0.00066, 0.00009, -0.00089
4.900, -0.00002, -0.00019, 0.00014, 0.00000, -0.00015
4.914, -0.00000, -0.00001, -0.00000, -0.00001, 0.00002
4.929, -0.00000, -0.00001, -0.00000, -0.00001, 0.00002
4.943, -0.00000, -0.00001, -0.00000, -0.00001, 0.00002
4.957, -0.00000, -0.00001, -0.00000, -0.00001, 0.00002
4.971, -0.00000, -0.00001, -0.00000, -0.00001, 0.00001
4.986, -0.00000, -0.00001, -0.00000, -0.00001, 0.00001
5.000, -0.00000, -0.00000, -0.00000, -0.00001, 0.00001
5.014, -0.00000, -0.00000, -0.00000, -0.00001, 0.00001
5.029, -0.00000, -0.00000, -0.00000, -0.00001, 0.00001
5.043, -0.00000, -0.00000, -0.00000, -0.00001, 0.00000
5.057, -0.00000, -0.00000, -0.00000, -0.00001, 0.00000
5.071, -0.00000, -0.00000, -0.00000, -0.00001, -0.00000
5.086, -0.00000, -0.00000, -0.00000, -0.00001, -0.00000
5.100, -0.00000, -0.00000, -0.00000, -0.00000, -0.00000
5.114, -0.00001, -0.00000, -0.00000, -0.00000, -0.00001
5.129, -0.00001, -0.00000, -0.00000, -0.00000, -0.00001
5.143, -0.00001, -0.00000, -0.00000, -0.00000, -0.00001
5.157, -0.00001, -0.00000, -0.00000, -0.00000, -0.00001
5.171, -0.00001, -0.00000, -0.00000, -0.00000, -0.00001
5.186, -0.00001, -0.00000, -0.00000, -0.00000, -0.00001
5.200, -0.00001, -0.00000, -0.00000, -0.00000, -0.00001
5.214, -0.00001, -0.00000, -0.00000, -0.00000, -0.00001
5.229, -0.00001, -0.00000, -0.00000, -0.00000, -0.00001
5.243, -0.00001, -0.00000, -0.00000, -0.00000, -0.00002
5.257, -0.00001, 0.00000, 0.00000, 0.00000, -0.00002
5.271, -0.00001, 0.00000, 0.00000, 0.00000, -0.00002
5.286, -0.00001, 0.00000, 0.00000, 0.00000, -0.00002
5.300, -0.00001, 0.00000, 0.00000, 0.00000, -0.00002
5.314, -0.00001, 0.00000, 0.00000, 0.00000, -0.00002
5.329, -0.00000, 0.00000, 0.00000, 0.00000, -0.00002
5.343, -0.00000, 0.00000, 0.00000, 0.00000, -0.00002
5.357, -0.00000, 0.00000, 0.00000, 0.00000, -0.00002
5.371, -0.00000, 0.00000, 0.00000, 0.00000, -0.00002
5.386, -0.00000, 0.00000, 0.00000, 0.00000, -0.00002
5.400, -0.00000, 0.00000, 0.00000, 0.00000, -0.00002
5.414, -0.00000, 0.00000, 0.00000, 0.00000, -0.00002
5.429, -0.00000, 0.00000, 0.00000, 0.00000, -0.00002
5.443, -0.00000, 0.00000, 0.00000, 0.00000, -0.00002
5.457, -0.00000, 0.00000, 0.00000, 0.00000, -0.00002
5.471, -0.00000, 0.00000, 0.00000, 0.00000, -0.00002
5.486, -0.00000, 0.00000, 0.00000, 0.00000, -0.00002
5.500, -0.00000, 0.00000, 0.00000, 0.00000, -0.00001
5.514, -0.00000, 0.00000, 0.00000, 0.00000, -0.00001
5.529, -0.00000, 0.00000, 0.00000, 0.00000, -0.00001
5.543, -0.00000, 0.00000, 0.00000, 0.00000, -0.00001
5.557, -0.00000, 0.00000, 0.00000, 0.00000, -0.00001
5.571, 0.00000, 0.00000, 0.00000, 0.00000, -0.00001
5.586, 0.00000, 0.00000, 0.00000, 0.00000, -0.00001
5.600, 0.00000, 0.00000, 0.00000, 0.00000, -0.00001
5.614, 0.00000, 0.00000, 0.00000, 0.00000, -0.00000
5.629, 0.00000, 0.00000, 0.00000, 0.00000, -0.00000
5.643, 0.00000, 0.00000, 0.00000, 0.00000, -0.00000
5.657, 0.00000, 0.00000, 0.00000, 0.00000, 0.00000
5.671, 0.00000, 0.00000, 0.00000, 0.00000, 0.00000
5.686, 0.00000, 0.00000, 0.00000, 0.00000, 0.00000
5.700, 0.00001, 0.00000, 0.00000, 0.00000, 0.00001
5.714, 0.00001, 0.00000, 0.00000, 0.00000, 0.00001
5.729, 0.00001, 0.00000, 0.00000, 0.00000, 0.00001
5.743, 0.00001, 0.00000, 0.00000, 0.00000, 0.00001
5.757, 0.00001, 0.00000, 0.00000, 0.00000, 0.00002
5.771, 0.00001, 0.00000, 0.00000, 0.00000, 0.00002
5.786, 0.00001, 0.00000, 0.00000, 0.00000, 0.00002
5.800, 0.00001, 0.00000, 0.00000, 0.00000, 0.00002
5.814, 0.00001, 0.00000, 0.00000, 0.00000, 0.00003
5.829, 0.00001, 0.00000, 0.00000, 0.00000, 0.00003
5.843, 0.00001, 0.00000, 0.00000, 0.00000, 0.00003
5.857, 0.00001, 0.00000, 0.00000, 0.00000, 0.00003
5.871, 0.00001, 0.00000, 0.00000, 0.00000, 0.00004
5.886, 0.00002, 0.00000, 0.00000, 0.00000, 0.00004
5.900, 0.00002, 0.00000, 0.00000, 0.00000, 0.00004
5.914, 0.00008, 0.00000, 0.00000, 0.00000, 0.00013
5.929, 0.00055, 0.00000, 0.00000, 0.00000, 0.00065
5.943, 0.00142, 0.00000, 0.00000, 0.00000, 0.00153
5.957, 0.00271, 0.00000, 0.00000, 0.00000, 0.00278
5.971, 0.00440, 0.00000, 0.00000, 0.00000, 0.00439
5.986, 0.00651, 0.00000, 0.00000, 0.00000, 0.00637
6.000, 0.00902, 0.00000, 0.00000, 0.00000, 0.00871
6.014, 0.01194, 0.00000, 0.00000, 0.00000, 0.01142
6.029, 0.01526, 0.00000, 0.00000, 0.00000, 0.01449
6.043, 0.01900, 0.00000, 0.00000, 0.00000, 0.01792
6.057, 0.02314, 0.00000, 0.00000, 0.00000, 0.02172
6.071, 0.02769, 0.00000, 0.00000, 0.00000, 0.02589
6.086, 0.03265, 0.00000, 0.00000, 0.00000, 0.03042
6.100, 0.03802, 0.00000, 0.00000, 0.00000, 0.03531
6.114, 0.04371, 0.00000, 0.00000, 0.00000, 0.04057
6.129, 0.04943, 0.00000, 0.00000, 0.00000, 0.04619
6.143, 0.05514, 0.00000, 0.00000, 0.00000, 0.05218
6.157, 0.06086, 0.00000, 0.00000, 0.00000, 0.05853
6.171, 0.06657, 0.00000, 0.00000, 0.00000, 0.06525
6.186, 0.07229, 0.00000, 0.00000, 0.00000, 0.07233
6.200, 0.07800, 0.00000, 0.00000, 0.00000, 0.07977
6.214, 0.08371, 0.00000, 0.00000, 0.00000, 0.08758
6.229, 0.08943, 0.00000, 0.00000, 0.00000, 0.09576
6.243, 0.09514, 0.00000, 0.00000, 0.00000, 0.10430
6.257, 0.10086, 0.00000, 0.00000, 0.00000, 0.11320
6.271, 0.10657, 0.00000, 0.00000, 0.00000, 0.12247
6.286, 0.11229, 0.00000, 0.00000, 0.00000, 0.13211
6.300, 0.11800, 0.00000, 0.00000, 0.00000, 0.14210
6.314, 0.12371, 0.00000, 0.00000, 0.00000, 0.15247
6.329, 0.12943, 0.00000, 0.00000, 0.00000, 0.16319
6.343, 0.13514, 0.00000, 0.00000, 0.00000, 0.17429
6.357, 0.14086, 0.00000, 0.00000, 0.00000, 0.18574
6.371, 0.14657, 0.00000, 0.00000, 0.00000, 0.19757
6.386, 0.15229, 0.00000, 0.00000, 0.00000, 0.20975
6.400, 0.15800, 0.00000, 0.00000, 0.00000, 0.22230
6.414, 0.16371, 0.00000, 0.00000, 0.00000, 0.23522
6.429, 0.16943, 0.00000, 0.00000, 0.00000, 0.24849
6.443, 0.17514, 0.00000, 0.00000, 0.00000, 0.26215
6.457, 0.18086, 0.00000, 0.00000, 0.00000, 0.27614
6.471, 0.18657, 0.00000, 0.00000, 0.00000, 0.29034
6.486, 0.19229, 0.00000, 0.00000, 0.00000, 0.30449
6.500, 0.19800, 0.00000, 0.00000, 0.00000, 0.31866
6.514, 0.20371, 0.00000, 0.00000, 0.00000, 0.33282
6.529, 0.20943, 0.00000, 0.00000, 0.00000, 0.34698
6.543, 0.21514, 0.00000, 0.00000, 0.00000, 0.36114
6.557, 0.22086, 0.00000, 0.00000, 0.00000, 0.37530
6.571, 0.22657, 0.00000, 0.00000, 0.00000, 0.38946
6.586, 0.23229, 0.00000, 0.00000, 0.00000, 0.40362
6.600, 0.23800, 0.00000, 0.00000, 0.00000, 0.41780
6.614, 0.24371, 0.00000, 0.00000, 0.00000, 0.43194
6.629, 0.24943, 0.00000, 0.00000, 0.00000, 0.44587
6.643, 0.25515, 0.00000, 0.00000, 0.00000, 0.45941
6.657, 0.26085, 0.00000, 0.00000, 0.00000, 0.47258
6.671, 0.26631, 0.00000, 0.00000, 0.00000, 0.48539
6.686, 0.27135, 0.00000, 0.00000, 0.00000, 0.49783
6.700, 0.27598, 0.00000, 0.00000, 0.00000, 0.50992
6.714, 0.28021, 0.00000, 0.00000, 0.00000, 0.52163
6.729, 0.28402, 0.00000, 0.00000, 0.00000, 0.53298
6.743, 0.28743, 0.00000, 0.00000, 0.00000, 0.54397
6.757, 0.29043, 0.00000, 0.00000, 0.00000, 0.55459
6.771, 0.29302, 0.00000, 0.00000, 0.00000, 0.56485
6.786, 0.29521, 0.00000, 0.00000, 0.00000, 0.57474
6.800, 0.29698, 0.00000, 0.00000, 0.00000, 0.58427
6.814, 0.29835, 0.00000, 0.00000, 0.00000, 0.59343
6.829, 0.29931, 0.00000, 0.00000, 0.00000, 0.60223
6.843, 0.29986, 0.00000, 0.00000, 0.00000, 0.61067
6.857, 0.30000, 0.00000, 0.00000, 0.00000, 0.61874
6.871, 0.30000, 0.00000, 0.00000, 0.00000, 0.62644
6.886, 0.30000, 0.00000, 0.00000, 0.00000, 0.63378
6.900, 0.30000, 0.00000, 0.00000, 0.00000, 0.64076
6.914, 0.30000, 0.00000, 0.00000, 0.00000, 0.64737
6.929, 0.30000, 0.00000, 0.00000, 0.00000, 0.65362
6.943, 0.30000, 0.00000, 0.00000, 0.00000, 0.65950
6.957, 0.30000, 0.00000, 0.00000, 0.00000, 0.66501
6.971, 0.30000, 0.00000, 0.00000, 0.00000, 0.67017
6.986, 0.30000, 0.00000, 0.00000, 0.00000, 0.67496
7.000, 0.30000, 0.00000, 0.00000, 0.00000, 0.67938
7.014, 0.30000, 0.00000, 0.00000, 0.00000, 0.68344
7.029, 0.30000, 0.00000, 0.00000, 0.00000, 0.68713
7.043, 0.30000, 0.00000, 0.00000, 0.00000, 0.69046
7.057, 0.30000, 0.00000, 0.00000, 0.00000, 0.69343
7.071, 0.30000, 0.00000, 0.00000, 0.00000, 0.69603
7.086, 0.30000, 0.00000, 0.00000, 0.00000, 0.69826
7.100, 0.30000, 0.00000, 0.00000, 0.00000, 0.70013
7.114, 0.30000, 0.00000, 0.00000, 0.00000, 0.70164
7.129, 0.30000, 0.00000, 0.00000, 0.00000, 0.70278
7.143, 0.30000, 0.00000, 0.00000, 0.00000, 0.70356
7.157, 0.30000, 0.00000, 0.00000, 0.00000, 0.70397
7.171, 0.30000, 0.00000, 0.00000, 0.00000, 0.70404
7.186, 0.30000, 0.00000, 0.00000, 0.00000, 0.70401
7.200, 0.30000, 0.00000, 0.00000, 0.00000, 0.70403
7.214, 0.30000, 0.00000, 0.00000, 0.00000, 0.70402
7.229, 0.30000, 0.00000, 0.00000, 0.00000, 0.70402
7.243, 0.30000, 0.00000, 0.00000, 0.00000, 0.70402
7.257, 0.30000, 0.00000, 0.00000, 0.00000, 0.70402
7.271, 0.30000, 0.00000, 0.00000, 0.00000, 0.70402
7.286, 0.30000, 0.00000, 0.00000, 0.00000, 0.70402
7.300, 0.30000, 0.00000, 0.00000, 0.00000, 0.70402
7.314, 0.30000, 0.00000, 0.00000, 0.00000, 0.70402
7.329, 0.30000, 0.00000, 0.00000, 0.00000, 0.70402
7.343, 0.30000, 0.00000, 0.00000, 0.00000, 0.70402
7.357, 0.30000, 0.00000, 0.00000, 0.00000, 0.70402
7.371, 0.30000, 0.00000, 0.00000, 0.00000, 0.70402
7.386, 0.30000, 0.00000, 0.00000, 0.00000, 0.70402
7.400, 0.30000, 0.00000, 0.00000, 0.00000, 0.70402
7.414, 0.30000, 0.00000, 0.00000, 0.00000, 0.70402
7.429, 0.30000, 0.00000, 0.00000, 0.00000, 0.70402
7.443, 0.30000, 0.00000, 0.00000, 0.00000, 0.70402
7.457, 0.30000, 0.00000, 0.00000, 0.00000, 0.70402
7.471, 0.30000, 0.00000, 0.00000, 0.00000, 0.70402
7.486, 0.30000, 0.00000, 0.00000, 0.00000, 0.70402
7.500, 0.30000, 0.00000, 0.00000, 0.00000, 0.70402
7.514, 0.30000, 0.00000, 0.00000, 0.00000, 0.70402
7.529, 0.30000, 0.00000, 0.00000, 0.00000, 0.70402
7.543, 0.30000, 0.00000, 0.00000, 0.00000, 0.70402
7.557, 0.30000, 0.00000, 0.00000, 0.00000, 0.70402
7.571, 0.30000, 0.00000, 0.00000, 0.00000, 0.70402
7.586, 0.30000, 0.00000, 0.00000, 0.00000, 0.70402
7.600, 0.30000, 0.00000, 0.00000, 0.00000, 0.70402
7.614, 0.30000, 0.00000, 0.00000, 0.00000, 0.70402
7.629, 0.30000, 0.00000, 0.00000, 0.00000, 0.70402
7.643, 0.30000, 0.00000, 0.00000, 0.00000, 0.70402
7.657, 0.30000, 0.00000, 0.00000, 0.00000, 0.70402
7.671, 0.30000, 0.00000, 0.00000, 0.00000, 0.70402
7.686, 0.30000, 0.00000, 0.00000, 0.00000, 0.70402
7.700, 0.30000, 0.00000, 0.00000, 0.00000, 0.70402
7.714, 0.30000, 0.00000, 0.00000, 0.00000, 0.70402
7.729, 0.30000, 0.00000, 0.00000, 0.00000, 0.70402
7.743, 0.30000, 0.00000, 0.00000, 0.00000, 0.70402
7.757, 0.30000, 0.00000, 0.00000, 0.00000, 0.70402
7.771, 0.30000, 0.00000, 0.00000, 0.00000, 0.70402
7.786, 0.30000, 0.00000, 0.00000, 0.00000, 0.70402
7.800, 0.30000, 0.00000, 0.00000, 0.00000, 0.70402
7.814, 0.30000, 0.00000, 0.00000, 0.00000, 0.70402
7.829, 0.30000, 0.00000, 0.00000, 0.00000, 0.70402
7.843, 0.30000, 0.00000, 0.00000, 0.00000, 0.70402
7.857, 0.30000, 0.00000, 0.00000, 0.00000, 0.70402
7.871, 0.30000, 0.00000, 0.00000, 0.00000, 0.70402
7.886, 0.30000, 0.00000, 0.00000, 0.00000, 0.70402
7.900, 0.30000, 0.00000, 0.00000, 0.00000, 0.70402
7.914, 0.30000, 0.00000, 0.00000, 0.00000, 0.70402
7.929, 0.30000, 0.00000, 0.00000, 0.00000, 0.70402
7.943, 0.30000, 0.00000, 0.00000, 0.00000, 0.70402
7.957, 0.30000, 0.00000, 0.00000, 0.00000, 0.70402
7.971, 0.30000, 0.00000, 0.00000, 0.00000, 0.70402
7.986, 0.30000, 0.00000, 0.00000, 0.00000, 0.70402
8.000, 0.30000, 0.00000, 0.00000, 0.00000, 0.70402
8.014, 0.30000, 0.00000, 0.00000, 0.00000, 0.70402
8.029, 0.30000, 0.00000, 0.00000, 0.00000, 0.70402
8.043, 0.30000, 0.00000, 0.00000, 0.00000, 0.70402
8.057, 0.30000, 0.00000, 0.00000, 0.00000, 0.70402
8.071, 0.30000, 0.00000, 0.00000, 0.00000, 0.70402
8.086, 0.30000, 0.00000, 0.00000, 0.00000, 0.70402
8.100, 0.30000, 0.00000, 0.00000, 0.00000, 0.70402
8.114, 0.30000, 0.00000, 0.00000, 0.00000, 0.70402
8.129, 0.30000, 0.00000, 0.00000, 0.00000, 0.70404
8.143, 0.30000, 0.00000, 0.00000, 0.00000, 0.70394
8.157, 0.30000, 0.00000, 0.00000, 0.00000, 0.70349
8.171, 0.30000, 0.00000, 0.00000, 0.00000, 0.70268
8.186, 0.30000, 0.00000, 0.00000, 0.00000, 0.70150
8.200, 0.30000, 0.00000, 0.00000, 0.00000, 0.69995
8.214, 0.30000, 0.00000, 0.00000, 0.00000, 0.69804
8.229, 0.30000, 0.00000, 0.00000, 0.00000, 0.69576
8.243, 0.30000, 0.00000, 0.00000, 0.00000, 0.69312
8.257, 0.30000, 0.00000, 0.00000, 0.00000, 0.69012
8.271, 0.30000, 0.00000, 0.00000, 0.00000, 0.68675
8.286, 0.30000, 0.00000, 0.00000, 0.00000, 0.68302
8.300, 0.30000, 0.00000, 0.00000, 0.00000, 0.67892
8.314, 0.30000, 0.00000, 0.00000, 0.00000, 0.67446
8.329, 0.30000, 0.00000, 0.00000, 0.00000, 0.66963
8.343, 0.30000, 0.00000, 0.00000, 0.00000, 0.66444
8.357, 0.30000, 0.00000, 0.00000, 0.00000, 0.65888
8.371, 0.30000, 0.00000, 0.00000, 0.00000, 0.65296
8.386, 0.30000, 0.00000, 0.00000, 0.00000, 0.64667
8.400, 0.30000, 0.00000, 0.00000, 0.00000, 0.64002
8.414, 0.30000, 0.00000, 0.00000, 0.00000, 0.63301
8.429, 0.30001, 0.00000, 0.00000, 0.00000, 0.62563
8.443, 0.29999, 0.00000, 0.00000, 0.00000, 0.61788
8.457, 0.29977, 0.00000, 0.00000, 0.00000, 0.60977
8.471, 0.29913, 0.00000, 0.00000, 0.00000, 0.60130
8.486, 0.29807, 0.00000, 0.00000, 0.00000, 0.59246
8.500, 0.29661, 0.00000, 0.00000, 0.00000, 0.58326
8.514, 0.29474, 0.00000, 0.00000, 0.00000, 0.57369
8.529, 0.29247, 0.00000, 0.00000, 0.00000, 0.56376
8.543, 0.28978, 0.00000, 0.00000, 0.00000, 0.55346
8.557, 0.28669, 0.00000, 0.00000, 0.00000, 0.54280
8.571, 0.28319, 0.00000, 0.00000, 0.00000, 0.53178
8.586, 0.27928, 0.00000, 0.00000, 0.00000, 0.52038
8.600, 0.27496, 0.00000, 0.00000, 0.00000, 0.50863
8.614, 0.27024, 0.00000, 0.00000, 0.00000, 0.49651
8.629, 0.26509, 0.00000, 0.00000, 0.00000, 0.48403
8.643, 0.25957, 0.00000, 0.00000, 0.00000, 0.47118
8.657, 0.25383, 0.00000, 0.00000, 0.00000, 0.45796
8.671, 0.24812, 0.00000, 0.00000, 0.00000, 0.44439
8.686, 0.24241, 0.00000, 0.00000, 0.00000, 0.43042
8.700, 0.23669, 0.00000, 0.00000, 0.00000, 0.41627
8.714, 0.23098, 0.00000, 0.00000, 0.00000, 0.40209
8.729, 0.22526, 0.00000, 0.00000, 0.00000, 0.38794
8.743, 0.21955, 0.00000, 0.00000, 0.00000, 0.37377
8.757, 0.21384, 0.00000, 0.00000, 0.00000, 0.35961
8.771, 0.20812, 0.00000, 0.00000, 0.00000, 0.34545
8.786, 0.20241, 0.00000, 0.00000, 0.00000, 0.33129
8.800, 0.19669, 0.00000, 0.00000, 0.00000, 0.31713
8.814, 0.19098, 0.00000, 0.00000, 0.00000, 0.30297
8.829, 0.18526, 0.00000, 0.00000, 0.00000, 0.28881
8.843, 0.17955, 0.00000, 0.00000, 0.00000, 0.27462
8.857, 0.17384, 0.00000, 0.00000, 0.00000, 0.26065
8.871, 0.16812, 0.00000, 0.00000, 0.00000, 0.24705
8.886, 0.16241, 0.00000, 0.00000, 0.00000, 0.23381
8.900, 0.15669, 0.00000, 0.00000, 0.00000, 0.22093
8.914, 0.15098, 0.00000, 0.00000, 0.00000, 0.20842
8.929, 0.14526, 0.00000, 0.00000, 0.00000, 0.19627
8.943, 0.13955, 0.00000, 0.00000, 0.00000, 0.18449
8.957, 0.13384, 0.00000, 0.00000, 0.00000, 0.17307
8.971, 0.12812, 0.00000, 0.00000, 0.00000, 0.16202
8.986, 0.12241, 0.00000, 0.00000, 0.00000, 0.15133
9.000, 0.11669, 0.00000, 0.00000, 0.00000, 0.14101
9.014, 0.11098, 0.00000, 0.00000, 0.00000, 0.13105
9.029, 0.10526, 0.00000, 0.00000, 0.00000, 0.12146
9.043, 0.09955, 0.00000, 0.00000, 0.00000, 0.11223
9.057, 0.09384, 0.00000, 0.00000, 0.00000, 0.10336
9.071, 0.08812, 0.00000, 0.00000, 0.00000, 0.09486
9.086, 0.08241, 0.00000, 0.00000, 0.00000, 0.08672
9.100, 0.07669, 0.00000, 0.00000, 0.00000, 0.07895
9.114, 0.07098, 0.00000, 0.00000, 0.00000, 0.07155
9.129, 0.06526, 0.00000, 0.00000, 0.00000, 0.06450
9.143, 0.05955, 0.00000, 0.00000, 0.00000, 0.05783
9.157, 0.05384, 0.00000, 0.00000, 0.00000, 0.05151
9.171, 0.04812, 0.00000, 0.00000, 0.00000, 0.04557
9.186, 0.04240, 0.00000, 0.00000, 0.00000, 0.03998
9.200, 0.03676, 0.00000, 0.00000, 0.00000, 0.03476
9.214, 0.03148, 0.00000, 0.00000, 0.00000, 0.02991
9.229, 0.02661, 0.00000, 0.00000, 0.00000, 0.02542
9.243, 0.02216, 0.00000, 0.00000, 0.00000, 0.02129
9.257, 0.01811, 0.00000, 0.00000, 0.00000, 0.01753
9.271, 0.01446, 0.00000, 0.00000, 0.00000, 0.01414
9.286, 0.01123, 0.00000, 0.00000, 0.00000, 0.01111
9.300, 0.00841, 0.00000, 0.00000, 0.00000, 0.00844
9.314, 0.00599, 0.00000, 0.00000, 0.00000, 0.00614
9.329, 0.00398, 0.00000, 0.00000, 0.00000, 0.00420
9.343, 0.00238, 0.00000, 0.00000, 0.00000, 0.00263
9.357, 0.00119, 0.00000, 0.00000, 0.00000, 0.00142
9.371, 0.00040, 0.00000, 0.00000, 0.00000, 0.00058
9.386, 0.00003, 0.00000, 0.00000, 0.00000, 0.00010
9.400, -0.00001, 0.00000, 0.00000, -0.00000, 0.00002
9.414, -0.00000, 0.00000, 0.00000, -0.00000, 0.00002
9.429, -0.00000, 0.00000, 0.00000, -0.00000, 0.00002
9.443, -0.00000, 0.00000, 0.00000, -0.00000, 0.00001
9.457, -0.00000, 0.00000, 0.00000, -0.00001, 0.00001
9.471, -0.00000, 0.00000, 0.00000, -0.00001, 0.00001
9.486, -0.00000, 0.00000, 0.00000, -0.00001, 0.00001
9.500, -0.00000, 0.00000, 0.00000, -0.00001, 0.00000
9.514, -0.00000, 0.00000, 0.00000, -0.00001, 0.00000
9.529, -0.00000, 0.00000, 0.00000, -0.00001, 0.00000
9.543, -0.00000, 0.00000, 0.00000, -0.00001, -0.00000
9.557, -0.00000, 0.00000, 0.00000, -0.00001, -0.00000
9.571, -0.00000, 0.00000, 0.00000, -0.00001, -0.00001
9.586, -0.00000, 0.00000, 0.00000, -0.00001, -0.00001
9.600, -0.00000, 0.00000, 0.00000, -0.00001, -0.00001
9.614, -0.00000, 0.00000, 0.00000, -0.00001, -0.00001
9.629, -0.00000, 0.00000, 0.00001, -0.00001, -0.00001
9.643, -0.00000, 0.00000, 0.00001, -0.00001, -0.00001
9.657, -0.00000, 0.00000, 0.00001, -0.00001, -0.00001
9.671, -0.00000, 0.00000, 0.00001, -0.00001, -0.00002
9.686, -0.00000, 0.00000, 0.00001, -0.00001, -0.00002
9.700, -0.00000, 0.00000, 0.00001, -0.00002, -0.00002
9.714, -0.00000, 0.00000, 0.00001, -0.00002, -0.00002
9.729, 0.00000, 0.00000, 0.00001, -0.00002, -0.00002
9.743, 0.00000, 0.00000, 0.00001, -0.00002, -0.00002
9.757, 0.00000, 0.00000, 0.00001, -0.00001, -0.00002
9.771, 0.00000, 0.00000, 0.00001, -0.00001, -0.00002
9.786, 0.00000, 0.00000, 0.00001, -0.00001, -0.00002
9.800, 0.00000, 0.00000, 0.00001, -0.00001, -0.00002
9.814, 0.00000, 0.00000, 0.00001, -0.00001, -0.00002
9.829, 0.00000, 0.00000, 0.00001, -0.00001, -0.00002
9.843, 0.00000, 0.00000, 0.00000, -0.00001, -0.00002
9.857, 0.00000, 0.00000, 0.00000, -0.00001, -0.00002
9.871, 0.00000, 0.00000, 0.00000, -0.00001, -0.00002
9.886, 0.00000, 0.00000, 0.00000, -0.00001, -0.00002
9.900, 0.00000, 0.00000, 0.00000, -0.00001, -0.00002
9.914, 0.00000, 0.00000, 0.00000, -0.00001, -0.00002
9.929, 0.00000, 0.00000, 0.00000, -0.00001, -0.00002
9.943, 0.00000, 0.00000, 0.00000, -0.00001, -0.00002
9.957, 0.00000, 0.00000, 0.00000, -0.00001, -0.00002
9.971, 0.00000, 0.00000, 0.00000, -0.00001, -0.00002
9.986, 0.00000, 0.00000, 0.00000, -0.00001, -0.00001
10.000, 0.00000, 0.00000, 0.00000, -0.00000, -0.00001
10.014, 0.00000, 0.00000, 0.00000, -0.00000, -0.00001
10.029, 0.00000, 0.00000, 0.00000, -0.00000, -0.00001
10.043, 0.00000, 0.00000, 0.00000, -0.00000, -0.00001
10.057, 0.00000, -0.00000, -0.00000, 0.00000, -0.00001
10.071, 0.00000, -0.00000, -0.00000, 0.00000, -0.00001
10.086, 0.00000, -0.00000, -0.00000, 0.00000, -0.00000
10.100, 0.00000, -0.00000, -0.00000, 0.00000, -0.00000
10.114, 0.00000, -0.00000, -0.00000, 0.00001, -0.00000
10.129, 0.00000, -0.00000, -0.00000, 0.00001, 0.00000
10.143, 0.00000, -0.00000, -0.00000, 0.00001, 0.00000
10.157, 0.00000, -0.00000, -0.00000, 0.00001, 0.00001
10.171, 0.00000, -0.00000, -0.00000, 0.00001, 0.00001
10.186, 0.00000, -0.00000, -0.00001, 0.00001, 0.00001
10.200, 0.00000, -0.00000, -0.00001, 0.00002, 0.00001
10.214, 0.00000, -0.00000, -0.00001, 0.00002, 0.00002
10.229, 0.00000, -0.00000, -0.00001, 0.00002, 0.00002
10.243, 0.00000, -0.00001, -0.00001, 0.00002, 0.00002
10.257, 0.00000, -0.00001, -0.00001, 0.00002, 0.00002
10.271, 0.00000, -0.00001, -0.00001, 0.00003, 0.00003
10.286, 0.00000, -0.00001, -0.00001, 0.00003, 0.00003
10.300, 0.00000, -0.00001, -0.00001, 0.00003, 0.00003
10.314, 0.00000, -0.00001, -0.00001, 0.00003, 0.00004
10.329, 0.00000, -0.00001, -0.00001, 0.00003, 0.00004
10.343, 0.00000, -0.00001, -0.00001, 0.00004, 0.00004
10.357, 0.00000, -0.00001, -0.00001, 0.00004, 0.00005
10.371, 0.00000, -0.00001, -0.00002, 0.00004, 0.00005
10.386, 0.00000, -0.00001, -0.00002, 0.00004, 0.00005
10.400, 0.00000, -0.00008, -0.00022, 0.00027, 0.00043
10.414, 0.00000, -0.00027, -0.00085, 0.00087, 0.00148
10.429, 0.00000, -0.00058, -0.00189, 0.00180, 0.00315
10.443, 0.00000, -0.00099, -0.00334, 0.00306, 0.00542
10.457, 0.00000, -0.00152, -0.00520, 0.00464, 0.00831
10.471, 0.00000, -0.00216, -0.00746, 0.00654, 0.01180
10.486, 0.00000, -0.00291, -0.01014, 0.00877, 0.01591
10.500, 0.00000, -0.00377, -0.01322, 0.01133, 0.02063
10.514, 0.00000, -0.00475, -0.01671, 0.01422, 0.02596
10.529, 0.00000, -0.00583, -0.02060, 0.01743, 0.03190
10.543, 0.00000, -0.00702, -0.02491, 0.02097, 0.03845
10.557, 0.00000, -0.00833, -0.02962, 0.02483, 0.04561
10.571, 0.00000, -0.00975, -0.03475, 0.02902, 0.05338
10.586, 0.00000, -0.01128, -0.04028, 0.03353, 0.06176
10.600, 0.00000, -0.01292, -0.04622, 0.03837, 0.07076
10.614, 0.00000, -0.01467, -0.05256, 0.04354, 0.08036
10.629, 0.00000, -0.01653, -0.05932, 0.04904, 0.09058
10.643, 0.00000, -0.01851, -0.06648, 0.05486, 0.10141
10.657, 0.00000, -0.02059, -0.07405, 0.06100, 0.11285
10.671, 0.00000, -0.02279, -0.08203, 0.06747, 0.12489
10.686, 0.00000, -0.02510, -0.09042, 0.07427, 0.13755
10.700, 0.00000, -0.02752, -0.09922, 0.08140, 0.15082
10.714, 0.00000, -0.03005, -0.10842, 0.08885, 0.16471
10.729, 0.00000, -0.03269, -0.11804, 0.09662, 0.17920
10.743, 0.00000, -0.03545, -0.12800, 0.10473, 0.19430
10.757, 0.00000, -0.03831, -0.13800, 0.11315, 0.21002
10.771, 0.00000, -0.04129, -0.14800, 0.12191, 0.22634
10.786, 0.00000, -0.04437, -0.15800, 0.13099, 0.24328
10.800, 0.00000, -0.04757, -0.16800, 0.14040, 0.26082
10.814, 0.00000, -0.05088, -0.17800, 0.15013, 0.27898
10.829, 0.00000, -0.05430, -0.18800, 0.16019, 0.29775
10.843, 0.00000, -0.05784, -0.19800, 0.17058, 0.31714
10.857, 0.00000, -0.06148, -0.20800, 0.18129, 0.33706
10.871, 0.00000, -0.06524, -0.21800, 0.19233, 0.35705
10.886, 0.00000, -0.06910, -0.22801, 0.20369, 0.37702
10.900, 0.00000, -0.07308, -0.23778, 0.21538, 0.39700
10.914, 0.00000, -0.07717, -0.24715, 0.22740, 0.41697
10.929, 0.00000, -0.08136, -0.25611, 0.23974, 0.43695
10.943, 0.00000, -0.08557, -0.26466, 0.25241, 0.45693
10.957, 0.00000, -0.08977, -0.27280, 0.26540, 0.47690
10.971, 0.00000, -0.09398, -0.28054, 0.27857, 0.49690
10.986, 0.00000, -0.09818, -0.28786, 0.29172, 0.51682
11.000, 0.00000, -0.10239, -0.29478, 0.30486, 0.53630
11.014, 0.00000, -0.10659, -0.30129, 0.31801, 0.55513
11.029, 0.00000, -0.11080, -0.30740, 0.33116, 0.57336
11.043, 0.00000, -0.11500, -0.31309, 0.34430, 0.59097
11.057, 0.00000, -0.11921, -0.31838, 0.35745, 0.60798
11.071, 0.00000, -0.12341, -0.32325, 0.37060, 0.62437
11.086, 0.00000, -0.12762, -0.32772, 0.38374, 0.64015
11.100, 0.00000, -0.13182, -0.33178, 0.39689, 0.65532
11.114, 0.00000, -0.13603, -0.33544, 0.41006, 0.66988
11.129, 0.00000, -0.14023, -0.33868, 0.42310, 0.68383
11.143, 0.00000, -0.14444, -0.34152, 0.43586, 0.69717
11.157, 0.00000, -0.14864, -0.34395, 0.44827, 0.70990
11.171, 0.00000, -0.15277, -0.34597, 0.46035, 0.72202
11.186, 0.00000, -0.15677, -0.34758, 0.47212, 0.73352
11.200, 0.00000, -0.16067, -0.34878, 0.48355, 0.74442
11.214, 0.00000, -0.16446, -0.34958, 0.49466, 0.75470
11.229, 0.00000, -0.16813, -0.34995, 0.50544, 0.76438
11.243, 0.00000, -0.17170, -0.35001, 0.51590, 0.77344
11.257, 0.00000, -0.17515, -0.35000, 0.52603, 0.78189
11.271, 0.00000, -0.17849, -0.35000, 0.53584, 0.78973
11.286, 0.00000, -0.18172, -0.35000, 0.54531, 0.79696
11.300, 0.00000, -0.18484, -0.35000, 0.55447, 0.80358
11.314, 0.00000, -0.18784, -0.35000, 0.56329, 0.80959
11.329, 0.00000, -0.19074, -0.35000, 0.57179, 0.81499
11.343, 0.00000, -0.19352, -0.35000, 0.57997, 0.81977
11.357, 0.00000, -0.19619, -0.35000, 0.58781, 0.82395
11.371, 0.00000, -0.19876, -0.35000, 0.59533, 0.82751
11.386, 0.00000, -0.20121, -0.35000, 0.60253, 0.83047
11.400, 0.00000, -0.20355, -0.35000, 0.60940, 0.83281
11.414, 0.00000, -0.20577, -0.35000, 0.61594, 0.83454
11.429, 0.00000, -0.20789, -0.35000, 0.62216, 0.83566
11.443, 0.00000, -0.20989, -0.35000, 0.62805, 0.83617
11.457, 0.00000, -0.21179, -0.35000, 0.63362, 0.83618
11.471, 0.00000, -0.21357, -0.35000, 0.63885, 0.83618
11.486, 0.00000, -0.21524, -0.35000, 0.64377, 0.83618
11.500, 0.00000, -0.21680, -0.35000, 0.64835, 0.83618
11.514, 0.00000, -0.21825, -0.35000, 0.65261, 0.83618
11.529, 0.00000, -0.21959, -0.35000, 0.65655, 0.83618
11.543, 0.00000, -0.22081, -0.35000, 0.66016, 0.83618
11.557, 0.00000, -0.22193, -0.35000, 0.66344, 0.83618
11.571, 0.00000, -0.22293, -0.35000, 0.66639, 0.83618
11.586, 0.00000, -0.22382, -0.35000, 0.66902, 0.83618
11.600, 0.00000, -0.22461, -0.35000, 0.67133, 0.83618
11.614, 0.00000, -0.22527, -0.35000, 0.67330, 0.83618
11.629, 0.00000, -0.22583, -0.35000, 0.67496, 0.83618
11.643, 0.00000, -0.22628, -0.35000, 0.67628, 0.83618
11.657, 0.00000, -0.22662, -0.35000, 0.67728, 0.83618
11.671, 0.00000, -0.22684, -0.35000, 0.67795, 0.83618
11.686, 0.00000, -0.22695, -0.35000, 0.67829, 0.83618
11.700, 0.00000, -0.22697, -0.35000, 0.67835, 0.83618
11.714, 0.00000, -0.22696, -0.35000, 0.67832, 0.83618
11.729, 0.00000, -0.22696, -0.35000, 0.67833, 0.83618
11.743, 0.00000, -0.22696, -0.35000, 0.67833, 0.83618
11.757, 0.00000, -0.22696, -0.35000, 0.67833, 0.83618
11.771, 0.00000, -0.22696, -0.35000, 0.67833, 0.83618
11.786, 0.00000, -0.22696, -0.35000, 0.67833, 0.83618
11.800, 0.00000, -0.22696, -0.35000, 0.67833, 0.83618
11.814, 0.00000, -0.22696, -0.35000, 0.67833, 0.83618
11.829, 0.00000, -0.22696, -0.35000, 0.67833, 0.83618
11.843, 0.00000, -0.22696, -0.35000, 0.67833, 0.83618
11.857, 0.00000, -0.22696, -0.35000, 0.67833, 0.83618
11.871, 0.00000, -0.22696, -0.35000, 0.67833, 0.83618
11.886, 0.00000, -0.22696, -0.35000, 0.67833, 0.83618
11.900, 0.00000, -0.22696, -0.35000, 0.67833, 0.83618
11.914, 0.00000, -0.22696, -0.35000, 0.67833, 0.83618
11.929, 0.00000, -0.22696, -0.35000, 0.67833, 0.83618
11.943, 0.00000, -0.22696, -0.35000, 0.67833, 0.83618
11.957, 0.00000, -0.22696, -0.35000, 0.67833, 0.83618
11.971, 0.00000, -0.22696, -0.35000, 0.67833, 0.83618
11.986, 0.00000, -0.22696, -0.35000, 0.67833, 0.83618
12.000, 0.00000, -0.22696, -0.35000, 0.67834, 0.83618
12.014, 0.00000, -0.22697, -0.35000, 0.67826, 0.83618
12.029, 0.00000, -0.22692, -0.35000, 0.67791, 0.83618
12.043, 0.00000, -0.22676, -0.35000, 0.67719, 0.83618
12.057, 0.00000, -0.22649, -0.35000, 0.67616, 0.83618
12.071, 0.00000, -0.22611, -0.35000, 0.67480, 0.83618
12.086, 0.00000, -0.22562, -0.35000, 0.67312, 0.83618
12.100, 0.00000, -0.22501, -0.35000, 0.67111, 0.83618
12.114, 0.00000, -0.22430, -0.35000, 0.66877, 0.83618
12.129, 0.00000, -0.22347, -0.35000, 0.66611, 0.83618
12.143, 0.00000, -0.22253, -0.35000, 0.66312, 0.83618
12.157, 0.00000, -0.22148, -0.35000, 0.65980, 0.83618
12.171, 0.00000, -0.22032, -0.35000, 0.65616, 0.83618
12.186, 0.00000, -0.21905, -0.35000, 0.65219, 0.83618
12.200, 0.00000, -0.21766, -0.35000, 0.64790, 0.83618
12.214, 0.00000, -0.21617, -0.35000, 0.64328, 0.83618
12.229, 0.00000, -0.21456, -0.35000, 0.63833, 0.83618
12.243, 0.00000, -0.21285, -0.35000, 0.63306, 0.83617
12.257, 0.00000, -0.21102, -0.35000, 0.62746, 0.83619
12.271, 0.00000, -0.20908, -0.35000, 0.62154, 0.83604
12.286, 0.00000, -0.20703, -0.35000, 0.61529, 0.83530
12.300, 0.00000, -0.20486, -0.35000, 0.60871, 0.83394
12.314, 0.00000, -0.20259, -0.35000, 0.60181, 0.83197
12.329, 0.00000, -0.20021, -0.35000, 0.59458, 0.82939
12.343, 0.00000, -0.19771, -0.35000, 0.58703, 0.82619
12.357, 0.00000, -0.19510, -0.35000, 0.57914, 0.82239
12.371, 0.00000, -0.19238, -0.35000, 0.57094, 0.81798
12.386, 0.00000, -0.18955, -0.35000, 0.56240, 0.81295
12.400, 0.00000, -0.18661, -0.35000, 0.55354, 0.80732
12.414, 0.00000, -0.18356, -0.35000, 0.54436, 0.80107
12.429, 0.00000, -0.18039, -0.35000, 0.53485, 0.79421
12.443, 0.00000, -0.17712, -0.35000, 0.52501, 0.78675
12.457, 0.00000, -0.17373, -0.34999, 0.51484, 0.77867
12.471, 0.00000, -0.17023, -0.35002, 0.50435, 0.76998
12.486, 0.00000, -0.16662, -0.34986, 0.49354, 0.76068
12.500, 0.00000, -0.16290, -0.34931, 0.48240, 0.75077
12.514, 0.00000, -0.15907, -0.34834, 0.47093, 0.74024
12.529, 0.00000, -0.15513, -0.34697, 0.45913, 0.72911
12.543, 0.00000, -0.15107, -0.34520, 0.44701, 0.71736
12.557, 0.00000, -0.14691, -0.34301, 0.43457, 0.70501
12.571, 0.00000, -0.14270, -0.34042, 0.42179, 0.69204
12.586, 0.00000, -0.13849, -0.33741, 0.40871, 0.67847
12.600, 0.00000, -0.13429, -0.33400, 0.39553, 0.66428
12.614, 0.00000, -0.13008, -0.33018, 0.38240, 0.64948
12.629, 0.00000, -0.12588, -0.32596, 0.36925, 0.63407
12.643, 0.00000, -0.12167, -0.32132, 0.35610, 0.61805
12.657, 0.00000, -0.11747, -0.31628, 0.34296, 0.60142
12.671, 0.00000, -0.11326, -0.31083, 0.32981, 0.58417
12.686, 0.00000, -0.10906, -0.30497, 0.31667, 0.56632
12.700, 0.00000, -0.10485, -0.29870, 0.30352, 0.54786
12.714, 0.00000, -0.10065, -0.29202, 0.29038, 0.52879
12.729, 0.00000, -0.09644, -0.28494, 0.27722, 0.50907
12.743, 0.00000, -0.09224, -0.27745, 0.26408, 0.48909
12.757, 0.00000, -0.08803, -0.26955, 0.25109, 0.46911
12.771, 0.00000, -0.08383, -0.26124, 0.23846, 0.44914
12.786, 0.00000, -0.07962, -0.25252, 0.22615, 0.42916
12.800, 0.00000, -0.07546, -0.24340, 0.21417, 0.40918
12.814, 0.00000, -0.07142, -0.23386, 0.20251, 0.38921
12.829, 0.00000, -0.06749, -0.22395, 0.19118, 0.36923
12.843, 0.00000, -0.06367, -0.21394, 0.18018, 0.34926
12.857, 0.00000, -0.05996, -0.20394, 0.16950, 0.32925
12.871, 0.00000, -0.05636, -0.19394, 0.15915, 0.30950
12.886, 0.00000, -0.05287, -0.18394, 0.14912, 0.29036
12.900, 0.00000, -0.04950, -0.17394, 0.13942, 0.27183
12.914, 0.00000, -0.04623, -0.16394, 0.13005, 0.25391
12.929, 0.00000, -0.04308, -0.15394, 0.12100, 0.23660
12.943, 0.00000, -0.04004, -0.14394, 0.11228, 0.21990
12.957, 0.00000, -0.03711, -0.13394, 0.10388, 0.20382
12.971, 0.00000, -0.03429, -0.12394, 0.09581, 0.18834
12.986, 0.00000, -0.03158, -0.11408, 0.08807, 0.17347
13.000, 0.00000, -0.02899, -0.10464, 0.08065, 0.15922
13.014, 0.00000, -0.02650, -0.09560, 0.07356, 0.14558
13.029, 0.00000, -0.02413, -0.08697, 0.06680, 0.13254
13.043, 0.00000, -0.02187, -0.07874, 0.06036, 0.12012
13.057, 0.00000, -0.01972, -0.07093, 0.05424, 0.10831
13.071, 0.00000, -0.01768, -0.06352, 0.04846, 0.09711
13.086, 0.00000, -0.01575, -0.05653, 0.04300, 0.08652
13.100, 0.00000, -0.01393, -0.04994, 0.03786, 0.07655
13.114, 0.00000, -0.01223, -0.04376, 0.03306, 0.06718
13.129, 0.00000, -0.01063, -0.03798, 0.02857, 0.05842
13.143, 0.00000, -0.00915, -0.03262, 0.02442, 0.05028
13.157, 0.00000, -0.00778, -0.02766, 0.02059, 0.04274
13.171, 0.00000, -0.00652, -0.02311, 0.01708, 0.03582
13.186, 0.00000, -0.00537, -0.01897, 0.01391, 0.02951
13.200, 0.00000, -0.00433, -0.01524, 0.01106, 0.02381
13.214, 0.00000, -0.00340, -0.01192, 0.00853, 0.01871
13.229, 0.00000, -0.00259, -0.00900, 0.00633, 0.01423
13.243, 0.00000, -0.00188, -0.00649, 0.00446, 0.01037
13.257, 0.00000, -0.00129, -0.00439, 0.00291, 0.00711
13.271, 0.00000, -0.00081, -0.00270, 0.00169, 0.00446
13.286, 0.00000, -0.00044, -0.00142, 0.00080, 0.00242
13.300, 0.00000, -0.00018, -0.00054, 0.00023, 0.00100
13.314, 0.00000, -0.00003, -0.00008, -0.00001, 0.00018
13.329, 0.00000, -0.00000, -0.00000, -0.00002, 0.00003
13.343, 0.00000, -0.00000, -0.00000, -0.00002, 0.00002
13.357, 0.00000, -0.00000, -0.00000, -0.00002, 0.00002
13.371, 0.00000, -0.00000, -0.00000, -0.00001, 0.00002
13.386, 0.00000, -0.00000, -0.00000, -0.00001, 0.00002
13.400, 0.00000, -0.00000, -0.00000, -0.00001, 0.00001
13.414, 0.00000, -0.00000, -0.00000, -0.00001, 0.00001
13.429, 0.00000, -0.00000, -0.00000, -0.00001, 0.00001
13.443, 0.00000, -0.00000, -0.00000, -0.00001, 0.00001
13.457, 0.00000, -0.00000, -0.00000, -0.00001, 0.00000
13.471, 0.00000, -0.00000, -0.00000, -0.00001, 0.00000
13.486, 0.00000, -0.00000, -0.00000, -0.00001, 0.00000
13.500, 0.00000, -0.00000, -0.00000, -0.00001, -0.00000
13.514, 0.00000, -0.00000, -0.00000, -0.00001, -0.00000
13.529, 0.00000, -0.00000, -0.00000, -0.00001, -0.00000
13.543, 0.00000, -0.00000, -0.00000, -0.00000, -0.00001
13.557, 0.00001, -0.00000, -0.00000, -0.00000, -0.00001
13.571, 0.00001, -0.00000, -0.00000, -0.00000, -0.00001
13.586, 0.00001, -0.00000, -0.00000, -0.00000, -0.00001
13.600, 0.00001, -0.00000, -0.00000, -0.00000, -0.00001
13.614, 0.00001, -0.00000, -0.00000, -0.00000, -0.00001
13.629, 0.00001, -0.00000, -0.00000, -0.00000, -0.00001
13.643, 0.00001, -0.00000, -0.00000, -0.00000, -0.00002
13.657, 0.00001, 0.00000, 0.00000, 0.00000, -0.00002
13.671, 0.00001, 0.00000, 0.00000, 0.00000, -0.00002
13.686, 0.00001, 0.00000, 0.00000, 0.00000, -0.00002
13.700, 0.00001, 0.00000, 0.00000, 0.00000, -0.00002
13.714, 0.00001, 0.00000, 0.00000, 0.00000, -0.00002
13.729, 0.00001, 0.00000, 0.00000, 0.00000, -0.00002
13.743, 0.00001, 0.00000, 0.00000, 0.00000, -0.00002
13.757, 0.00001, 0.00000, 0.00000, 0.00000, -0.00002
13.771, 0.00000, 0.00000, 0.00000, 0.00000, -0.00002
13.786, 0.00000, 0.00000, 0.00000, 0.00000, -0.00002
13.800, 0.00000, 0.00000, 0.00000, 0.00000, -0.00002
13.814, 0.00000, 0.00000, 0.00000, 0.00000, -0.00002
13.829, 0.00000, 0.00000, 0.00000, 0.00000, -0.00002
13.843, 0.00000, 0.00000, 0.00000, 0.00001, -0.00002
13.857, 0.00000, 0.00000, 0.00000, 0.00001, -0.00002
13.871, 0.00000, 0.00000, 0.00000, 0.00001, -0.00002
13.886, 0.00000, 0.00000, 0.00000, 0.00001, -0.00002
13.900, 0.00000, 0.00000, 0.00000, 0.00001, -0.00002
13.914, 0.00000, 0.00000, 0.00000, 0.00001, -0.00002
13.929, 0.00000, 0.00000, 0.00000, 0.00001, -0.00001
13.943, 0.00000, 0.00000, 0.00000, 0.00001, -0.00001
13.957, 0.00000, 0.00000, 0.00000, 0.00001, -0.00001
13.971, 0.00000, 0.00000, 0.00000, 0.00001, -0.00001
13.986, 0.00000, 0.00000, 0.00000, 0.00001, -0.00001
14.000, -0.00000, 0.00000, 0.00000, 0.00001, -0.00001
14.014, -0.00000, 0.00000, 0.00000, 0.00001, -0.00001
14.029, -0.00000, 0.00000, 0.00000, 0.00001, -0.00001
14.043, -0.00000, 0.00000, 0.00000, 0.00001, -0.00000
14.057, -0.00000, 0.00000, 0.00000, 0.00001, -0.00000
14.071, -0.00000, 0.00000, 0.00000, 0.00001, -0.00000
14.086, -0.00000, 0.00000, 0.00000, 0.00001, 0.00000
14.100, -0.00000, 0.00000, 0.00000, 0.00001, 0.00000
14.114, -0.00001, 0.00000, 0.00000, 0.00001, 0.00001
14.129, -0.00001, 0.00000, 0.00000, 0.00001, 0.00001
14.143, -0.00001, 0.00000, 0.00000, 0.00000, 0.00001
14.157, -0.00001, 0.00000, 0.00000, 0.00000, 0.00001
14.171, -0.00001, 0.00000, 0.00000, 0.00000, 0.00002
14.186, -0.00001, 0.00000, 0.00000, 0.00000, 0.00002
14.200, -0.00001, 0.00000, 0.00000, 0.00000, 0.00002
14.214, -0.00001, 0.00000, 0.00000, 0.00000, 0.00002
14.229, -0.00001, 0.00000, 0.00000, 0.00000, 0.00003
14.243, -0.00001, 0.00000, 0.00000, 0.00000, 0.00003
14.257, -0.00001, 0.00000, 0.00000, 0.00000, 0.00003
14.271, -0.00001, 0.00000, 0.00000, 0.00000, 0.00004
14.286, -0.00001, 0.00000, 0.00000, 0.00000, 0.00004
14.300, -0.00002, 0.00000, 0.00000, 0.00000, 0.00004
14.314, -0.00002, 0.00000, 0.00000, 0.00000, 0.00005
14.329, -0.00018, 0.00000, 0.00000, 0.00000, 0.00025
14.343, -0.00077, 0.00000, 0.00000, 0.00000, 0.00088
14.357, -0.00177, 0.00000, 0.00000, 0.00000, 0.00187
14.371, -0.00318, 0.00000, 0.00000, 0.00000, 0.00323
14.386, -0.00499, 0.00000, 0.00000, 0.00000, 0.00495
14.400, -0.00722, 0.00000, 0.00000, 0.00000, 0.00703
14.414, -0.00985, 0.00000, 0.00000, 0.00000, 0.00948
14.429, -0.01289, 0.00000, 0.00000, 0.00000, 0.01230
14.443, -0.01634, 0.00000, 0.00000, 0.00000, 0.01548
14.457, -0.02020, 0.00000, 0.00000, 0.00000, 0.01902
14.471, -0.02446, 0.00000, 0.00000, 0.00000, 0.02293
14.486, -0.02913, 0.00000, 0.00000, 0.00000, 0.02721
14.500, -0.03422, 0.00000, 0.00000, 0.00000, 0.03184
14.514, -0.03971, 0.00000, 0.00000, 0.00000, 0.03685
14.529, -0.04543, 0.00000, 0.00000, 0.00000, 0.04222
14.543, -0.05114, 0.00000, 0.00000, 0.00000, 0.04795
14.557, -0.05686, 0.00000, 0.00000, 0.00000, 0.05404
14.571, -0.06257, 0.00000, 0.00000, 0.00000, 0.06051
14.586, -0.06829, 0.00000, 0.00000, 0.00000, 0.06733
14.600, -0.07400, 0.00000, 0.00000, 0.00000, 0.07452
14.614, -0.07971, 0.00000, 0.00000, 0.00000, 0.08208
14.629, -0.08543, 0.00000, 0.00000, 0.00000, 0.09000
14.643, -0.09114, 0.00000, 0.00000, 0.00000, 0.09828
14.657, -0.09686, 0.00000, 0.00000, 0.00000, 0.10693
14.671, -0.10257, 0.00000, 0.00000, 0.00000, 0.11595
14.686, -0.10829, 0.00000, 0.00000, 0.00000, 0.12532
14.700, -0.11400, 0.00000, 0.00000, 0.00000, 0.13507
14.714, -0.11971, 0.00000, 0.00000, 0.00000, 0.14518
14.729, -0.12543, 0.00000, 0.00000, 0.00000, 0.15565
14.743, -0.13114, 0.00000, 0.00000, 0.00000, 0.16648
14.757, -0.13686, 0.00000, 0.00000, 0.00000, 0.17769
14.771, -0.14257, 0.00000, 0.00000, 0.00000, 0.18925
14.786, -0.14829, 0.00000, 0.00000, 0.00000, 0.20118
14.800, -0.15400, 0.00000, 0.00000, 0.00000, 0.21348
14.814, -0.15971, 0.00000, 0.00000, 0.00000, 0.22614
14.829, -0.16543, 0.00000, 0.00000, 0.00000, 0.23916
14.843, -0.17114, 0.00000, 0.00000, 0.00000, 0.25255
14.857, -0.17686, 0.00000, 0.00000, 0.00000, 0.26631
14.871, -0.18257, 0.00000, 0.00000, 0.00000, 0.28040
14.886, -0.18829, 0.00000, 0.00000, 0.00000, 0.29459
14.900, -0.19400, 0.00000, 0.00000, 0.00000, 0.30874
14.914, -0.19971, 0.00000, 0.00000, 0.00000, 0.32291
14.929, -0.20543, 0.00000, 0.00000, 0.00000, 0.33707
14.943, -0.21114, 0.00000, 0.00000, 0.00000, 0.35123
14.957, -0.21686, 0.00000, 0.00000, 0.00000, 0.36539
14.971, -0.22257, 0.00000, 0.00000, 0.00000, 0.37955
14.986, -0.22829, 0.00000, 0.00000, 0.00000, 0.39371
15.000, -0.23400, 0.00000, 0.00000, 0.00000, 0.40787
15.014, -0.23971, 0.00000, 0.00000, 0.00000, 0.42206
15.029, -0.24543, 0.00000, 0.00000, 0.00000, 0.43615
15.043, -0.25114, 0.00000, 0.00000, 0.00000, 0.44997
15.057, -0.25686, 0.00000, 0.00000, 0.00000, 0.46340
15.071, -0.26254, 0.00000, 0.00000, 0.00000, 0.47646
15.086, -0.26787, 0.00000, 0.00000, 0.00000, 0.48916
15.100, -0.27278, 0.00000, 0.00000, 0.00000, 0.50150
15.114, -0.27729, 0.00000, 0.00000, 0.00000, 0.51347
15.129, -0.28140, 0.00000, 0.00000, 0.00000, 0.52507
15.143, -0.28509, 0.00000, 0.00000, 0.00000, 0.53632
15.157, -0.28838, 0.00000, 0.00000, 0.00000, 0.54719
15.171, -0.29125, 0.00000, 0.00000, 0.00000, 0.55771
15.186, -0.29372, 0.00000, 0.00000, 0.00000, 0.56785
15.200, -0.29578, 0.00000, 0.00000, 0.00000, 0.57764
15.214, -0.29744, 0.00000, 0.00000, 0.00000, 0.58706
15.229, -0.29868, 0.00000, 0.00000, 0.00000, 0.59611
15.243, -0.29952, 0.00000, 0.00000, 0.00000, 0.60480
15.257, -0.29994, 0.00000, 0.00000, 0.00000, 0.61313
15.271, -0.30001, 0.00000, 0.00000, 0.00000, 0.62109
15.286, -0.30000, 0.00000, 0.00000, 0.00000, 0.62868
15.300, -0.30000, 0.00000, 0.00000, 0.00000, 0.63591
15.314, -0.30000, 0.00000, 0.00000, 0.00000, 0.64278
15.329, -0.30000, 0.00000, 0.00000, 0.00000, 0.64928
15.343, -0.30000, 0.00000, 0.00000, 0.00000, 0.65542
15.357, -0.30000, 0.00000, 0.00000, 0.00000, 0.66119
15.371, -0.30000, 0.00000, 0.00000, 0.00000, 0.66660
15.386, -0.30000, 0.00000, 0.00000, 0.00000, 0.67164
15.400, -0.30000, 0.00000, 0.00000, 0.00000, 0.67632
15.414, -0.30000, 0.00000, 0.00000, 0.00000, 0.68063
15.429, -0.30000, 0.00000, 0.00000, 0.00000, 0.68458
15.443, -0.30000, 0.00000, 0.00000, 0.00000, 0.68817
15.457, -0.30000, 0.00000, 0.00000, 0.00000, 0.69139
15.471, -0.30000, 0.00000, 0.00000, 0.00000, 0.69425
15.486, -0.30000, 0.00000, 0.00000, 0.00000, 0.69674
15.500, -0.30000, 0.00000, 0.00000, 0.00000, 0.69886
15.514, -0.30000, 0.00000, 0.00000, 0.00000, 0.70063
15.529, -0.30000, 0.00000, 0.00000, 0.00000, 0.70202
15.543, -0.30000, 0.00000, 0.00000, 0.00000, 0.70306
15.557, -0.30000, 0.00000, 0.00000, 0.00000, 0.70372
15.571, -0.30000, 0.00000, 0.00000, 0.00000, 0.70402
15.586, -0.30000, 0.00000, 0.00000, 0.00000, 0.70403
15.600, -0.30000, 0.00000, 0.00000, 0.00000, 0.70402
15.614, -0.30000, 0.00000, 0.00000, 0.00000, 0.70403
15.629, -0.30000, 0.00000, 0.00000, 0.00000, 0.70402
15.643, -0.30000, 0.00000, 0.00000, 0.00000, 0.70402
15.657, -0.30000, 0.00000, 0.00000, 0.00000, 0.70402
15.671, -0.30000, 0.00000, 0.00000, 0.00000, 0.70402
15.686, -0.30000, 0.00000, 0.00000, 0.00000, 0.70402
15.700, -0.30000, 0.00000, 0.00000, 0.00000, 0.70402
15.714, -0.30000, 0.00000, 0.00000, 0.00000, 0.70402
15.729, -0.30000, 0.00000, 0.00000, 0.00000, 0.70402
15.743, -0.30000, 0.00000, 0.00000, 0.00000, 0.70402
15.757, -0.30000, 0.00000, 0.00000, 0.00000, 0.70402
15.771, -0.30000, 0.00000, 0.00000, 0.00000, 0.70402
15.786, -0.30000, 0.00000, 0.00000, 0.00000, 0.70402
15.800, -0.30000, 0.00000, 0.00000, 0.00000, 0.70402
15.814, -0.30000, 0.00000, 0.00000, 0.00000, 0.70402
15.829, -0.30000, 0.00000, 0.00000, 0.00000, 0.70402
15.843, -0.30000, 0.00000, 0.00000, 0.00000, 0.70402
15.857, -0.30000, 0.00000, 0.00000, 0.00000, 0.70402
15.871, -0.30000, 0.00000, 0.00000, 0.00000, 0.70402
15.886, -0.30000, 0.00000, 0.00000, 0.00000, 0.70402
15.900, -0.30000, 0.00000, 0.00000, 0.00000, 0.70402
15.914, -0.30000, 0.00000, 0.00000, 0.00000, 0.70402
15.929, -0.30000, 0.00000, 0.00000, 0.00000, 0.70402
15.943, -0.30000, 0.00000, 0.00000, 0.00000, 0.70402
15.957, -0.30000, 0.00000, 0.00000, 0.00000, 0.70402
15.971, -0.30000, 0.00000, 0.00000, 0.00000, 0.70402
15.986, -0.30000, 0.00000, 0.00000, 0.00000, 0.70402
16.000, -0.30000, 0.00000, 0.00000, 0.00000, 0.70402
16.014, -0.30000, 0.00000, 0.00000, 0.00000, 0.70402
16.029, -0.30000, 0.00000, 0.00000, 0.00000, 0.70402
16.043, -0.30000, 0.00000, 0.00000, 0.00000, 0.70402
16.057, -0.30000, 0.00000, 0.00000, 0.00000, 0.70402
16.071, -0.30000, 0.00000, 0.00000, 0.00000, 0.70402
16.086, -0.30000, 0.00000, 0.00000, 0.00000, 0.70402
16.100, -0.30000, 0.00000, 0.00000, 0.00000, 0.70402
16.114, -0.30000, 0.00000, 0.00000, 0.00000, 0.70402
16.129, -0.30000, 0.00000, 0.00000, 0.00000, 0.70402
16.143, -0.30000, 0.00000, 0.00000, 0.00000, 0.70402
16.157, -0.30000, 0.00000, 0.00000, 0.00000, 0.70402
16.171, -0.30000, 0.00000, 0.00000, 0.00000, 0.70402
16.186, -0.30000, 0.00000, 0.00000, 0.00000, 0.70402
16.200, -0.30000, 0.00000, 0.00000, 0.00000, 0.70402
16.214, -0.30000, 0.00000, 0.00000, 0.00000, 0.70402
16.229, -0.30000, 0.00000, 0.00000, 0.00000, 0.70402
16.243, -0.30000, 0.00000, 0.00000, 0.00000, 0.70402
16.257, -0.30000, 0.00000, 0.00000, 0.00000, 0.70402
16.271, -0.30000, 0.00000, 0.00000, 0.00000, 0.70402
16.286, -0.30000, 0.00000, 0.00000, 0.00000, 0.70402
16.300, -0.30000, 0.00000, 0.00000, 0.00000, 0.70402
16.314, -0.30000, 0.00000, 0.00000, 0.00000, 0.70402
16.329, -0.30000, 0.00000, 0.00000, 0.00000, 0.70402
16.343, -0.30000, 0.00000, 0.00000, 0.00000, 0.70402
16.357, -0.30000, 0.00000, 0.00000, 0.00000, 0.70402
16.371, -0.30000, 0.00000, 0.00000, 0.00000, 0.70402
16.386, -0.30000, 0.00000, 0.00000, 0.00000, 0.70402
16.400, -0.30000, 0.00000, 0.00000, 0.00000, 0.70402
16.414, -0.30000, 0.00000, 0.00000, 0.00000, 0.70402
16.429, -0.30000, 0.00000, 0.00000, 0.00000, 0.70402
16.443, -0.30000, 0.00000, 0.00000, 0.00000, 0.70402
16.457, -0.30000, 0.00000, 0.00000, 0.00000, 0.70402
16.471, -0.30000, 0.00000, 0.00000, 0.00000, 0.70402
16.486, -0.30000, 0.00000, 0.00000, 0.00000, 0.70402
16.500, -0.30000, 0.00000, 0.00000, 0.00000, 0.70402
16.514, -0.30000, 0.00000, 0.00000, 0.00000, 0.70402
16.529, -0.30000, 0.00000, 0.00000, 0.00000, 0.70402
16.543, -0.30000, 0.00000, 0.00000, 0.00000, 0.70405
16.557, -0.30000, 0.00000, 0.00000, 0.00000, 0.70385
16.571, -0.30000, 0.00000, 0.00000, 0.00000, 0.70329
16.586, -0.30000, 0.00000, 0.00000, 0.00000, 0.70236
16.600, -0.30000, 0.00000, 0.00000, 0.00000, 0.70107
16.614, -0.30000, 0.00000, 0.00000, 0.00000, 0.69942
16.629, -0.30000, 0.00000, 0.00000, 0.00000, 0.69740
16.643, -0.30000, 0.00000, 0.00000, 0.00000, 0.69501
16.657, -0.30000, 0.00000, 0.00000, 0.00000, 0.69226
16.671, -0.30000, 0.00000, 0.00000, 0.00000, 0.68915
16.686, -0.30000, 0.00000, 0.00000, 0.00000, 0.68567
16.700, -0.30000, 0.00000, 0.00000, 0.00000, 0.68183
16.714, -0.30000, 0.00000, 0.00000, 0.00000, 0.67762
16.729, -0.30000, 0.00000, 0.00000, 0.00000, 0.67305
16.743, -0.30000, 0.00000, 0.00000, 0.00000, 0.66811
16.757, -0.30000, 0.00000, 0.00000, 0.00000, 0.66281
16.771, -0.30000, 0.00000, 0.00000, 0.00000, 0.65715
16.786, -0.30000, 0.00000, 0.00000, 0.00000, 0.65112
16.800, -0.30000, 0.00000, 0.00000, 0.00000, 0.64472
16.814, -0.30000, 0.00000, 0.00000, 0.00000, 0.63796
16.829, -0.29999, 0.00000, 0.00000, 0.00000, 0.63084
16.843, -0.30002, 0.00000, 0.00000, 0.00000, 0.62335
16.857, -0.29996, 0.00000, 0.00000, 0.00000, 0.61550
16.871, -0.29963, 0.00000, 0.00000, 0.00000, 0.60728
16.886, -0.29885, 0.00000, 0.00000, 0.00000, 0.59870
16.900, -0.29768, 0.00000, 0.00000, 0.00000, 0.58975
16.914, -0.29610, 0.00000, 0.00000, 0.00000, 0.58044
16.929, -0.29410, 0.00000, 0.00000, 0.00000, 0.57076
16.943, -0.29170, 0.00000, 0.00000, 0.00000, 0.56072
16.957, -0.28890, 0.00000, 0.00000, 0.00000, 0.55031
16.971, -0.28568, 0.00000, 0.00000, 0.00000, 0.53954
16.986, -0.28206, 0.00000, 0.00000, 0.00000, 0.52841
17.000, -0.27803, 0.00000, 0.00000, 0.00000, 0.51691
17.014, -0.27359, 0.00000, 0.00000, 0.00000, 0.50504
17.029, -0.26874, 0.00000, 0.00000, 0.00000, 0.49281
17.043, -0.26347, 0.00000, 0.00000, 0.00000, 0.48022
17.057, -0.25784, 0.00000, 0.00000, 0.00000, 0.46726
17.071, -0.25212, 0.00000, 0.00000, 0.00000, 0.45395
17.086, -0.24641, 0.00000, 0.00000, 0.00000, 0.44025
17.100, -0.24069, 0.00000, 0.00000, 0.00000, 0.42620
17.114, -0.23498, 0.00000, 0.00000, 0.00000, 0.41202
17.129, -0.22926, 0.00000, 0.00000, 0.00000, 0.39786
17.143, -0.22355, 0.00000, 0.00000, 0.00000, 0.38370
17.157, -0.21784, 0.00000, 0.00000, 0.00000, 0.36954
17.171, -0.21212, 0.00000, 0.00000, 0.00000, 0.35538
17.186, -0.20641, 0.00000, 0.00000, 0.00000, 0.34122
17.200, -0.20069, 0.00000, 0.00000, 0.00000, 0.32706
17.214, -0.19498, 0.00000, 0.00000, 0.00000, 0.31289
17.229, -0.18926, 0.00000, 0.00000, 0.00000, 0.29874
17.243, -0.18355, 0.00000, 0.00000, 0.00000, 0.28457
17.257, -0.17784, 0.00000, 0.00000, 0.00000, 0.27041
17.271, -0.17212, 0.00000, 0.00000, 0.00000, 0.25655
17.286, -0.16641, 0.00000, 0.00000, 0.00000, 0.24305
17.300, -0.16069, 0.00000, 0.00000, 0.00000, 0.22992
17.314, -0.15498, 0.00000, 0.00000, 0.00000, 0.21715
17.329, -0.14926, 0.00000, 0.00000, 0.00000, 0.20475
17.343, -0.14355, 0.00000, 0.00000, 0.00000, 0.19271
17.357, -0.13784, 0.00000, 0.00000, 0.00000, 0.18104
17.371, -0.13212, 0.00000, 0.00000, 0.00000, 0.16973
17.386, -0.12641, 0.00000, 0.00000, 0.00000, 0.15879
17.400, -0.12069, 0.00000, 0.00000, 0.00000, 0.14821
17.414, -0.11498, 0.00000, 0.00000, 0.00000, 0.13799
17.429, -0.10926, 0.00000, 0.00000, 0.00000, 0.12814
17.443, -0.10355, 0.00000, 0.00000, 0.00000, 0.11866
17.457, -0.09784, 0.00000, 0.00000, 0.00000, 0.10954
17.471, -0.09212, 0.00000, 0.00000, 0.00000, 0.10078
17.486, -0.08641, 0.00000, 0.00000, 0.00000, 0.09239
17.500, -0.08069, 0.00000, 0.00000, 0.00000, 0.08436
17.514, -0.07498, 0.00000, 0.00000, 0.00000, 0.07670
17.529, -0.06926, 0.00000, 0.00000, 0.00000, 0.06940
17.543, -0.06355, 0.00000, 0.00000, 0.00000, 0.06247
17.557, -0.05784, 0.00000, 0.00000, 0.00000, 0.05590
17.571, -0.05212, 0.00000, 0.00000, 0.00000, 0.04970
17.586, -0.04640, 0.00000, 0.00000, 0.00000, 0.04386
17.600, -0.04070, 0.00000, 0.00000, 0.00000, 0.03838
17.614, -0.03513, 0.00000, 0.00000, 0.00000, 0.03327
17.629, -0.02998, 0.00000, 0.00000, 0.00000, 0.02853
17.643, -0.02523, 0.00000, 0.00000, 0.00000, 0.02415
17.657, -0.02090, 0.00000, 0.00000, 0.00000, 0.02013
17.671, -0.01697, 0.00000, 0.00000, 0.00000, 0.01648
17.686, -0.01345, 0.00000, 0.00000, 0.00000, 0.01319
17.700, -0.01034, 0.00000, 0.00000, 0.00000, 0.01027
17.714, -0.00764, 0.00000, 0.00000, 0.00000, 0.00771
17.729, -0.00534, 0.00000, 0.00000, 0.00000, 0.00552
17.743, -0.00346, 0.00000, 0.00000, 0.00000, 0.00369
17.757, -0.00198, 0.00000, 0.00000, 0.00000, 0.00223
17.771, -0.00091, 0.00000, 0.00000, 0.00000, 0.00113
17.786, -0.00025, 0.00000, 0.00000, 0.00000, 0.00039
17.800, 0.00001, 0.00000, 0.00000, 0.00000, 0.00002
17.814, 0.00001, -0.00000, -0.00000, 0.00000, 0.00002
17.829, 0.00000, -0.00000, -0.00000, 0.00000, 0.00002
17.843, 0.00000, -0.00000, -0.00000, 0.00000, 0.00002
17.857, 0.00000, -0.00000, -0.00000, 0.00000, 0.00001
17.871, 0.00000, -0.00000, -0.00000, 0.00001, 0.00001
17.886, 0.00000, -0.00000, -0.00000, 0.00001, 0.00001
17.900, 0.00000, -0.00000, -0.00000, 0.00001, 0.00001
17.914, 0.00000, -0.00000, -0.00000, 0.00001, 0.00000
17.929, 0.00000, -0.00000, -0.00000, 0.00001, 0.00000
17.943, 0.00000, -0.00000, -0.00000, 0.00001, -0.00000
17.957, 0.00000, -0.00000, -0.00000, 0.00001, -0.00000
17.971, 0.00000, -0.00000, -0.00000, 0.00001, -0.00000
17.986, 0.00000, -0.00000, -0.00000, 0.00001, -0.00001
18.000, 0.00000, -0.00000, -0.00000, 0.00001, -0.00001
18.014, 0.00000, -0.00000, -0.00000, 0.00001, -0.00001
18.029, 0.00000, -0.00000, -0.00001, 0.00001, -0.00001
18.043, 0.00000, -0.00000, -0.00001, 0.00001, -0.00001
18.057, 0.00000, -0.00000, -0.00001, 0.00001, -0.00001
18.071, 0.00000, -0.00000, -0.00001, 0.00001, -0.00001
18.086, 0.00000, -0.00000, -0.00001, 0.00001, -0.00002
18.100, 0.00000, -0.00000, -0.00001, 0.00001, -0.00002
18.114, 0.00000, -0.00000, -0.00001, 0.00002, -0.00002
18.129, 0.00000, -0.00000, -0.00001, 0.00002, -0.00002
18.143, -0.00000, -0.00000, -0.00001, 0.00002, -0.00002
18.157, -0.00000, -0.00000, -0.00001, 0.00001, -0.00002
18.171, -0.00000, -0.00000, -0.00001, 0.00001, -0.00002
18.186, -0.00000, -0.00000, -0.00001, 0.00001, -0.00002
18.200, -0.00000, -0.00000, -0.00001, 0.00001, -0.00002
18.214, -0.00000, -0.00000, -0.00001, 0.00001, -0.00002
18.229, -0.00000, -0.00000, -0.00001, 0.00001, -0.00002
18.243, -0.00000, -0.00000, -0.00000, 0.00001, -0.00002
18.257, -0.00000, -0.00000, -0.00000, 0.00001, -0.00002
18.271, -0.00000, -0.00000, -0.00000, 0.00001, -0.00002
18.286, -0.00000, -0.00000, -0.00000, 0.00001, -0.00002
18.300, -0.00000, -0.00000, -0.00000, 0.00001, -0.00002
18.314, -0.00000, -0.00000, -0.00000, 0.00001, -0.00002
18.329, -0.00000, -0.00000, -0.00000, 0.00001, -0.00002
18.343, -0.00000, -0.00000, -0.00000, 0.00001, -0.00002
18.357, -0.00000, -0.00000, -0.00000, 0.00001, -0.00002
18.371, -0.00000, -0.00000, -0.00000, 0.00001, -0.00002
18.386, -0.00000, -0.00000, -0.00000, 0.00001, -0.00002
18.400, -0.00000, -0.00000, -0.00000, 0.00001, -0.00001
18.414, -0.00000, -0.00000, -0.00000, 0.00000, -0.00001
18.429, -0.00000, -0.00000, -0.00000, 0.00000, -0.00001
18.443, -0.00000, -0.00000, -0.00000, 0.00000, -0.00001
18.457, -0.00000, -0.00000, -0.00000, 0.00000, -0.00001
18.471, -0.00000, 0.00000, 0.00000, -0.00000, -0.00001
18.486, -0.00000, 0.00000, 0.00000, -0.00000, -0.00001
18.500, -0.00000, 0.00000, 0.00000, -0.00000, -0.00000
18.514, -0.00000, 0.00000, 0.00000, -0.00000, -0.00000
18.529, -0.00000, 0.00000, 0.00000, -0.00001, -0.00000
18.543, -0.00000, 0.00000, 0.00000, -0.00001, 0.00000
18.557, -0.00000, 0.00000, 0.00000, -0.00001, 0.00000
18.571, -0.00000, 0.00000, 0.00000, -0.00001, 0.00001
18.586, -0.00000, 0.00000, 0.00000, -0.00001, 0.00001
18.600, -0.00000, 0.00000, 0.00001, -0.00001, 0.00001
18.614, -0.00000, 0.00000, 0.00001, -0.00002, 0.00001
18.629, -0.00000, 0.00000, 0.00001, -0.00002, 0.00002
18.643, -0.00000, 0.00000, 0.00001, -0.00002, 0.00002
18.657, -0.00000, 0.00001, 0.00001, -0.00002, 0.00002
18.671, -0.00000, 0.00001, 0.00001, -0.00002, 0.00002
18.686, -0.00000, 0.00001, 0.00001, -0.00003, 0.00003
18.700, -0.00000, 0.00001, 0.00001, -0.00003, 0.00003
18.714, -0.00000, 0.00001, 0.00001, -0.00003, 0.00003
18.729, -0.00000, 0.00001, 0.00001, -0.00003, 0.00004
18.743, -0.00000, 0.00001, 0.00001, -0.00004, 0.00004
18.757, -0.00000, 0.00001, 0.00001, -0.00004, 0.00004
18.771, -0.00000, 0.00001, 0.00001, -0.00004, 0.00005
18.786, -0.00000, 0.00001, 0.00002, -0.00004, 0.00005
18.800, -0.00000, 0.00001, 0.00002, -0.00005, 0.00006
18.814, 0.00000, 0.00013, 0.00036, -0.00042, 0.00068
18.829, 0.00000, 0.00035, 0.00112, -0.00112, 0.00192
18.843, 0.00000, 0.00069, 0.00228, -0.00214, 0.00376
18.857, 0.00000, 0.00114, 0.00385, -0.00350, 0.00622
18.871, 0.00000, 0.00170, 0.00583, -0.00517, 0.00929
18.886, 0.00000, 0.00237, 0.00822, -0.00718, 0.01297
18.900, 0.00000, 0.00316, 0.01102, -0.00951, 0.01726
18.914, 0.00000, 0.00405, 0.01422, -0.01216, 0.02216
18.929, 0.00000, 0.00506, 0.01783, -0.01515, 0.02767
18.943, 0.00000, 0.00618, 0.02185, -0.01846, 0.03380
18.957, 0.00000, 0.00741, 0.02628, -0.02209, 0.04053
18.971, 0.00000, 0.00875, 0.03112, -0.02605, 0.04788
18.986, 0.00000, 0.01020, 0.03636, -0.03034, 0.05583
19.000, 0.00000, 0.01176, 0.04202, -0.03495, 0.06440
19.014, 0.00000, 0.01343, 0.04808, -0.03989, 0.07358
19.029, 0.00000, 0.01522, 0.05455, -0.04516, 0.08336
19.043, 0.00000, 0.01711, 0.06142, -0.05075, 0.09376
19.057, 0.00000, 0.01912, 0.06871, -0.05666, 0.10477
19.071, 0.00000, 0.02124, 0.07640, -0.06291, 0.11640
19.086, 0.00000, 0.02347, 0.08451, -0.06948, 0.12863
19.100, 0.00000, 0.02581, 0.09302, -0.07637, 0.14147
19.114, 0.00000, 0.02827, 0.10194, -0.08360, 0.15493
19.129, 0.00000, 0.03083, 0.11126, -0.09114, 0.16899
19.143, 0.00000, 0.03351, 0.12100, -0.09902, 0.18367
19.157, 0.00000, 0.03629, 0.13100, -0.10722, 0.19895
19.171, 0.00000, 0.03919, 0.14100, -0.11575, 0.21485
19.186, 0.00000, 0.04220, 0.15100, -0.12460, 0.23136
19.200, 0.00000, 0.04532, 0.16100, -0.13378, 0.24848
19.214, 0.00000, 0.04855, 0.17100, -0.14328, 0.26621
19.229, 0.00000, 0.05190, 0.18100, -0.15311, 0.28455
19.243, 0.00000, 0.05535, 0.19100, -0.16327, 0.30350
19.257, 0.00000, 0.05892, 0.20100, -0.17376, 0.32307
19.271, 0.00000, 0.06260, 0.21100, -0.18457, 0.34307
19.286, 0.00000, 0.06638, 0.22100, -0.19570, 0.36303
19.300, 0.00000, 0.07028, 0.23098, -0.20716, 0.38301
19.314, 0.00000, 0.07429, 0.24064, -0.21895, 0.40299
19.329, 0.00000, 0.07842, 0.24988, -0.23106, 0.42297
19.343, 0.00000, 0.08262, 0.25872, -0.24350, 0.44294
19.357, 0.00000, 0.08683, 0.26715, -0.25627, 0.46292
19.371, 0.00000, 0.09103, 0.27517, -0.26935, 0.48289
19.386, 0.00000, 0.09524, 0.28278, -0.28252, 0.50290
19.400, 0.00000, 0.09945, 0.28998, -0.29566, 0.52273
19.414, 0.00000, 0.10365, 0.29678, -0.30881, 0.54201
19.429, 0.00000, 0.10786, 0.30317, -0.32196, 0.56066
19.443, 0.00000, 0.11206, 0.30915, -0.33510, 0.57871
19.457, 0.00000, 0.11627, 0.31472, -0.34825, 0.59614
19.471, 0.00000, 0.12047, 0.31988, -0.36139, 0.61296
19.486, 0.00000, 0.12468, 0.32464, -0.37454, 0.62917
19.500, 0.00000, 0.12888, 0.32898, -0.38768, 0.64477
19.514, 0.00000, 0.13309, 0.33292, -0.40084, 0.65976
19.529, 0.00000, 0.13729, 0.33645, -0.41399, 0.67413
19.543, 0.00000, 0.14150, 0.33958, -0.42696, 0.68790
19.557, 0.00000, 0.14570, 0.34229, -0.43962, 0.70106
19.571, 0.00000, 0.14989, 0.34460, -0.45193, 0.71360
19.586, 0.00000, 0.15398, 0.34649, -0.46392, 0.72553
19.600, 0.00000, 0.15795, 0.34798, -0.47558, 0.73686
19.614, 0.00000, 0.16182, 0.34906, -0.48692, 0.74757
19.629, 0.00000, 0.16557, 0.34974, -0.49793, 0.75767
19.643, 0.00000, 0.16921, 0.34999, -0.50861, 0.76716
19.657, 0.00000, 0.17274, 0.35000, -0.51897, 0.77604
19.671, 0.00000, 0.17616, 0.35000, -0.52901, 0.78431
19.686, 0.00000, 0.17947, 0.35000, -0.53871, 0.79196
19.700, 0.00000, 0.18266, 0.35000, -0.54809, 0.79901
19.714, 0.00000, 0.18575, 0.35000, -0.55715, 0.80545
19.729, 0.00000, 0.18872, 0.35000, -0.56588, 0.81127
19.743, 0.00000, 0.19158, 0.35000, -0.57428, 0.81649
19.757, 0.00000, 0.19434, 0.35000, -0.58235, 0.82109
19.771, 0.00000, 0.19697, 0.35000, -0.59010, 0.82508
19.786, 0.00000, 0.19950, 0.35000, -0.59753, 0.82846
19.800, 0.00000, 0.20192, 0.35000, -0.60463, 0.83123
19.814, 0.00000, 0.20423, 0.35000, -0.61140, 0.83339
19.829, 0.00000, 0.20642, 0.35000, -0.61784, 0.83494
19.843, 0.00000, 0.20850, 0.35000, -0.62396, 0.83588
19.857, 0.00000, 0.21047, 0.35000, -0.62975, 0.83621
19.871, 0.00000, 0.21234, 0.35000, -0.63522, 0.83617
19.886, 0.00000, 0.21408, 0.35000, -0.64036, 0.83618
19.900, 0.00000, 0.21572, 0.35000, -0.64518, 0.83618
19.914, 0.00000, 0.21725, 0.35000, -0.64967, 0.83618
19.929, 0.00000, 0.21866, 0.35000, -0.65383, 0.83618
19.943, 0.00000, 0.21997, 0.35000, -0.65766, 0.83618
19.957, 0.00000, 0.22116, 0.35000, -0.66117, 0.83618
19.971, 0.00000, 0.22224, 0.35000, -0.66436, 0.83618
19.986, 0.00000, 0.22321, 0.35000, -0.66722, 0.83618
20.000, 0.00000, 0.22407, 0.35000, -0.66975, 0.83618
20.014, 0.00000, 0.22482, 0.35000, -0.67195, 0.83618
20.029, 0.00000, 0.22545, 0.35000, -0.67383, 0.83618
20.043, 0.00000, 0.22598, 0.35000, -0.67539, 0.83618
20.057, 0.00000, 0.22639, 0.35000, -0.67661, 0.83618
20.071, 0.00000, 0.22670, 0.35000, -0.67752, 0.83618
20.086, 0.00000, 0.22689, 0.35000, -0.67809, 0.83618
20.100, 0.00000, 0.22696, 0.35000, -0.67833, 0.83618
20.114, 0.00000, 0.22697, 0.35000, -0.67834, 0.83618
20.129, 0.00000, 0.22696, 0.35000, -0.67832, 0.83618
20.143, 0.00000, 0.22696, 0.35000, -0.67833, 0.83618
20.157, 0.00000, 0.22696, 0.35000, -0.67833, 0.83618
20.171, 0.00000, 0.22696, 0.35000, -0.67833, 0.83618
20.186, 0.00000, 0.22696, 0.35000, -0.67833, 0.83618
20.200, 0.00000, 0.22696, 0.35000, -0.67833, 0.83618
20.214, 0.00000, 0.22696, 0.35000, -0.67833, 0.83618
20.229, 0.00000, 0.22696, 0.35000, -0.67833, 0.83618
20.243, 0.00000, 0.22696, 0.35000, -0.67833, 0.83618
20.257, 0.00000, 0.22696, 0.35000, -0.67833, 0.83618
20.271, 0.00000, 0.22696, 0.35000, -0.67833, 0.83618
20.286, 0.00000, 0.22696, 0.35000, -0.67833, 0.83618
20.300, 0.00000, 0.22696, 0.35000, -0.67833, 0.83618
20.314, 0.00000, 0.22696, 0.35000, -0.67833, 0.83618
20.329, 0.00000, 0.22696, 0.35000, -0.67833, 0.83618
20.343, 0.00000, 0.22696, 0.35000, -0.67833, 0.83618
20.357, 0.00000, 0.22696, 0.35000, -0.67833, 0.83618
20.371, 0.00000, 0.22696, 0.35000, -0.67833, 0.83618
20.386, 0.00000, 0.22696, 0.35000, -0.67832, 0.83618
20.400, 0.00000, 0.22696, 0.35000, -0.67833, 0.83618
20.414, 0.00000, 0.22697, 0.35000, -0.67833, 0.83618
20.429, 0.00000, 0.22696, 0.35000, -0.67819, 0.83618
20.443, 0.00000, 0.22688, 0.35000, -0.67773, 0.83618
20.457, 0.00000, 0.22669, 0.35000, -0.67691, 0.83618
20.471, 0.00000, 0.22639, 0.35000, -0.67579, 0.83618
20.486, 0.00000, 0.22597, 0.35000, -0.67433, 0.83618
20.500, 0.00000, 0.22545, 0.35000, -0.67255, 0.83618
20.514, 0.00000, 0.22481, 0.35000, -0.67044, 0.83618
20.529, 0.00000, 0.22406, 0.35000, -0.66800, 0.83618
20.543, 0.00000, 0.22320, 0.35000, -0.66524, 0.83618
20.557, 0.00000, 0.22223, 0.35000, -0.66216, 0.83618
20.571, 0.00000, 0.22114, 0.35000, -0.65874, 0.83618
20.586, 0.00000, 0.21995, 0.35000, -0.65500, 0.83618
20.600, 0.00000, 0.21864, 0.35000, -0.65094, 0.83618
20.614, 0.00000, 0.21723, 0.35000, -0.64655, 0.83618
20.629, 0.00000, 0.21570, 0.35000, -0.64183, 0.83618
20.643, 0.00000, 0.21406, 0.35000, -0.63679, 0.83618
20.657, 0.00000, 0.21231, 0.35000, -0.63142, 0.83617
20.671, 0.00000, 0.21045, 0.35000, -0.62572, 0.83621
20.686, 0.00000, 0.20847, 0.35000, -0.61970, 0.83588
20.700, 0.00000, 0.20639, 0.35000, -0.61335, 0.83495
20.714, 0.00000, 0.20419, 0.35000, -0.60668, 0.83341
20.729, 0.00000, 0.20189, 0.35000, -0.59967, 0.83126
20.743, 0.00000, 0.19947, 0.35000, -0.59235, 0.82849
20.757, 0.00000, 0.19694, 0.35000, -0.58470, 0.82511
20.771, 0.00000, 0.19430, 0.35000, -0.57672, 0.82113
20.786, 0.00000, 0.19154, 0.35000, -0.56841, 0.81653
20.800, 0.00000, 0.18868, 0.35000, -0.55978, 0.81132
20.814, 0.00000, 0.18571, 0.35000, -0.55082, 0.80550
20.829, 0.00000, 0.18262, 0.35000, -0.54154, 0.79907
20.843, 0.00000, 0.17942, 0.35000, -0.53193, 0.79203
20.857, 0.00000, 0.17611, 0.35000, -0.52199, 0.78438
20.871, 0.00000, 0.17269, 0.35000, -0.51173, 0.77612
20.886, 0.00000, 0.16916, 0.35000, -0.50114, 0.76724
20.900, 0.00000, 0.16552, 0.34974, -0.49023, 0.75776
20.914, 0.00000, 0.16177, 0.34906, -0.47899, 0.74766
20.929, 0.00000, 0.15790, 0.34798, -0.46742, 0.73696
20.943, 0.00000, 0.15393, 0.34648, -0.45553, 0.72564
20.957, 0.00000, 0.14983, 0.34458, -0.44331, 0.71371
20.971, 0.00000, 0.14564, 0.34227, -0.43077, 0.70117
20.986, 0.00000, 0.14144, 0.33956, -0.41789, 0.68802
21.000, 0.00000, 0.13723, 0.33643, -0.40475, 0.67426
21.014, 0.00000, 0.13303, 0.33290, -0.39160, 0.65989
21.029, 0.00000, 0.12882, 0.32896, -0.37846, 0.64491
21.043, 0.00000, 0.12462, 0.32461, -0.36531, 0.62931
21.057, 0.00000, 0.12041, 0.31985, -0.35216, 0.61311
21.071, 0.00000, 0.11621, 0.31469, -0.33901, 0.59629
21.086, 0.00000, 0.11200, 0.30911, -0.32587, 0.57887
21.100, 0.00000, 0.10780, 0.30313, -0.31272, 0.56083
21.114, 0.00000, 0.10359, 0.29674, -0.29958, 0.54219
21.129, 0.00000, 0.09939, 0.28994, -0.28643, 0.52292
21.143, 0.00000, 0.09518, 0.28273, -0.27327, 0.50308
21.157, 0.00000, 0.09098, 0.27512, -0.26016, 0.48308
21.171, 0.00000, 0.08677, 0.26710, -0.24726, 0.46311
21.186, 0.00000, 0.08256, 0.25867, -0.23473, 0.44313
21.200, 0.00000, 0.07836, 0.24983, -0.22252, 0.42315
21.214, 0.00000, 0.07424, 0.24058, -0.21064, 0.40317
21.229, 0.00000, 0.07023, 0.23092, -0.19908, 0.38320
21.243, 0.00000, 0.06633, 0.22094, -0.18785, 0.36322
21.257, 0.00000, 0.06254, 0.21094, -0.17694, 0.34325
21.271, 0.00000, 0.05887, 0.20094, -0.16636, 0.32325
21.286, 0.00000, 0.05530, 0.19094, -0.15610, 0.30368
21.300, 0.00000, 0.05185, 0.18094, -0.14618, 0.28472
21.314, 0.00000, 0.04851, 0.17094, -0.13657, 0.26637
21.329, 0.00000, 0.04528, 0.16094, -0.12730, 0.24864
21.343, 0.00000, 0.04216, 0.15094, -0.11835, 0.23151
21.357, 0.00000, 0.03915, 0.14094, -0.10972, 0.21500
21.371, 0.00000, 0.03625, 0.13093, -0.10143, 0.19910
21.386, 0.00000, 0.03347, 0.12095, -0.09345, 0.18380
21.400, 0.00000, 0.03079, 0.11120, -0.08581, 0.16912
21.414, 0.00000, 0.02823, 0.10188, -0.07849, 0.15505
21.429, 0.00000, 0.02578, 0.09296, -0.07150, 0.14159
21.443, 0.00000, 0.02344, 0.08446, -0.06483, 0.12874
21.457, 0.00000, 0.02121, 0.07636, -0.05849, 0.11651
21.471, 0.00000, 0.01909, 0.06867, -0.05247, 0.10488
21.486, 0.00000, 0.01709, 0.06138, -0.04679, 0.09386
21.500, 0.00000, 0.01519, 0.05451, -0.04142, 0.08346
21.514, 0.00000, 0.01341, 0.04804, -0.03639, 0.07366
21.529, 0.00000, 0.01174, 0.04198, -0.03168, 0.06448
21.543, 0.00000, 0.01018, 0.03633, -0.02729, 0.05591
21.557, 0.00000, 0.00873, 0.03109, -0.02323, 0.04795
21.571, 0.00000, 0.00739, 0.02625, -0.01950, 0.04060
21.586, 0.00000, 0.00616, 0.02183, -0.01610, 0.03386
21.600, 0.00000, 0.00504, 0.01781, -0.01302, 0.02773
21.614, 0.00000, 0.00404, 0.01420, -0.01026, 0.02221
21.629, 0.00000, 0.00315, 0.01100, -0.00784, 0.01730
21.643, 0.00000, 0.00236, 0.00821, -0.00574, 0.01301
21.657, 0.00000, 0.00169, 0.00582, -0.00396, 0.00932
21.671, 0.00000, 0.00113, 0.00384, -0.00251, 0.00625
21.686, 0.00000, 0.00069, 0.00227, -0.00139, 0.00378
21.700, 0.00000, 0.00035, 0.00111, -0.00059, 0.00193
21.714, 0.00000, 0.00012, 0.00036, -0.00012, 0.00069
21.729, 0.00000, 0.00001, 0.00002, 0.00002, 0.00006
21.743, -0.00000, 0.00000, 0.00000, 0.00002, 0.00003
21.757, -0.00000, 0.00000, 0.00000, 0.00002, 0.00003
21.771, -0.00000, 0.00000, 0.00000, 0.00002, 0.00003
21.786, -0.00000, 0.00000, 0.00000, 0.00002, 0.00003
21.800, -0.00000, 0.00000, 0.00000, 0.00002, 0.00003
21.814, -0.00000, 0.00000, 0.00000, 0.00002, 0.00003
21.829, -0.00000, 0.00000, 0.00001, 0.00002, 0.00003
21.843, -0.00000, -0.00000, 0.00001, 0.00002, 0.00003
21.857, -0.00000, -0.00000, 0.00001, 0.00002, 0.00003
21.871, -0.00000, -0.00000, 0.00001, 0.00002, 0.00003
21.886, -0.00000, -0.00000, 0.00001, 0.00001, 0.00003
21.900, -0.00000, -0.00000, 0.00001, 0.00001, 0.00003
21.914, -0.00000, -0.00000, 0.00001, 0.00001, 0.00003
21.929, -0.00000, -0.00000, 0.00001, 0.00001, 0.00002
21.943, -0.00000, -0.00000, 0.00001, 0.00001, 0.00002
21.957, -0.00000, -0.00000, 0.00001, 0.00001, 0.00002
21.971, -0.00000, -0.00000, 0.00001, 0.00001, 0.00002
21.986, -0.00000, -0.00000, 0.00001, 0.00001, 0.00002
22.000, -0.00000, -0.00000, 0.00001, 0.00001, 0.00002
22.014, -0.00000, -0.00000, 0.00001, 0.00001, 0.00002
22.029, -0.00000, -0.00001, 0.00001, 0.00001, 0.00002
22.043, -0.00000, -0.00001, 0.00001, 0.00001, 0.00002
22.057, -0.00000, -0.00001, 0.00001, 0.00001, 0.00002
22.071, -0.00000, -0.00001, 0.00001, 0.00001, 0.00002
22.086, -0.00000, -0.00001, 0.00001, 0.00001, 0.00002
22.100, -0.00000, -0.00001, 0.00001, 0.00001, 0.00002
22.114, -0.00000, -0.00001, 0.00000, 0.00001, 0.00002
22.129, -0.00000, -0.00001, 0.00000, 0.00001, 0.00001
22.143, -0.00000, -0.00001, 0.00000, 0.00001, 0.00001
22.157, -0.00000, -0.00001, 0.00000, 0.00001, 0.00001
22.171, -0.00000, -0.00001, 0.00000, 0.00000, 0.00001
22.186, -0.00000, -0.00001, 0.00000, 0.00000, 0.00001
22.200, -0.00000, -0.00001, 0.00000, 0.00000, 0.00001
22.214, -0.00000, -0.00001, 0.00000, 0.00000, 0.00001
22.229, -0.00000, -0.00001, 0.00000, 0.00000, 0.00001
22.243, -0.00000, -0.00001, 0.00000, 0.00000, 0.00001
22.257, -0.00000, -0.00000, 0.00000, 0.00000, 0.00000
22.271, -0.00000, -0.00000, 0.00000, 0.00000, 0.00000
22.286, -0.00000, -0.00000, 0.00000, -0.00000, 0.00000
22.300, -0.00000, -0.00000, 0.00000, -0.00000, 0.00000
22.314, -0.00000, -0.00000, 0.00000, -0.00000, -0.00000
22.329, -0.00000, -0.00000, 0.00000, -0.00000, -0.00000
22.343, -0.00000, -0.00000, 0.00000, -0.00000, -0.00000
22.357, -0.00000, -0.00000, -0.00000, -0.00000, -0.00001
22.371, -0.00000, -0.00000, -0.00000, -0.00000, -0.00001
22.386, -0.00000, -0.00000, -0.00000, -0.00001, -0.00001
22.400, 0.00000, -0.00000, -0.00000, -0.00001, -0.00001
22.414, 0.00000, -0.00000, -0.00000, -0.00001, -0.00001
22.429, 0.00000, -0.00000, -0.00000, -0.00001, -0.00001
22.443, 0.00000, 0.00000, -0.00000, -0.00001, -0.00001
22.457, 0.00000, 0.00000, -0.00000, -0.00001, -0.00002
22.471, 0.00000, 0.00000, -0.00000, -0.00001, -0.00002
22.486, 0.00000, 0.00000, -0.00000, -0.00001, -0.00002
22.500, 0.00000, 0.00000, -0.00000, -0.00001, -0.00002
22.514, 0.00000, 0.00000, -0.00001, -0.00001, -0.00002
22.529, 0.00000, 0.00000, -0.00001, -0.00001, -0.00003
22.543, 0.00000, 0.00000, -0.00001, -0.00001, -0.00003
22.557, 0.00000, 0.00001, -0.00001, -0.00002, -0.00003
22.571, 0.00000, 0.00001, -0.00001, -0.00002, -0.00003
22.586, 0.00000, 0.00001, -0.00001, -0.00002, -0.00003
22.600, 0.00000, 0.00001, -0.00001, -0.00002, -0.00004
22.614, 0.00000, 0.00001, -0.00001, -0.00002, -0.00004
22.629, 0.00000, 0.00001, -0.00001, -0.00002, -0.00004
22.643, 0.00001, 0.00001, -0.00001, -0.00002, -0.00004
22.657, 0.00001, 0.00001, -0.00001, -0.00002, -0.00004
22.671, 0.00001, 0.00001, -0.00001, -0.00002, -0.00005
22.686, 0.00001, 0.00001, -0.00001, -0.00002, -0.00005
22.700, 0.00001, 0.00001, -0.00001, -0.00003, -0.00005
22.714, 0.00001, 0.00002, -0.00002, -0.00003, -0.00005
22.729, 0.00001, 0.00002, -0.00002, -0.00003, -0.00005
22.743, 0.00005, 0.00031, -0.00029, -0.00013, -0.00056
22.757, 0.00013, 0.00102, -0.00094, -0.00032, -0.00168
22.771, 0.00025, 0.00215, -0.00196, -0.00058, -0.00337
22.786, 0.00040, 0.00368, -0.00335, -0.00092, -0.00563
22.800, 0.00060, 0.00562, -0.00511, -0.00133, -0.00847
22.814, 0.00083, 0.00796, -0.00724, -0.00182, -0.01189
22.829, 0.00109, 0.01072, -0.00974, -0.00239, -0.01588
22.843, 0.00140, 0.01388, -0.01260, -0.00303, -0.02044
22.857, 0.00174, 0.01745, -0.01584, -0.00375, -0.02559
22.871, 0.00212, 0.02143, -0.01945, -0.00454, -0.03130
22.886, 0.00253, 0.02582, -0.02343, -0.00541, -0.03760
22.900, 0.00299, 0.03062, -0.02777, -0.00636, -0.04447
22.914, 0.00348, 0.03582, -0.03249, -0.00738, -0.05191
22.929, 0.00401, 0.04143, -0.03757, -0.00848, -0.05993
22.943, 0.00457, 0.04745, -0.04303, -0.00966, -0.06853
22.957, 0.00517, 0.05388, -0.04885, -0.01091, -0.07770
22.971, 0.00581, 0.06072, -0.05505, -0.01223, -0.08745
22.986, 0.00649, 0.06796, -0.06161, -0.01364, -0.09777
23.000, 0.00720, 0.07562, -0.06855, -0.01512, -0.10867
23.014, 0.00795, 0.08368, -0.07585, -0.01667, -0.12014
23.029, 0.00874, 0.09215, -0.08352, -0.01830, -0.13219
23.043, 0.00957, 0.10103, -0.09156, -0.02001, -0.14482
23.057, 0.01043, 0.11031, -0.09998, -0.02179, -0.15802
23.071, 0.01133, 0.12001, -0.10875, -0.02365, -0.17179
23.086, 0.01227, 0.13000, -0.11792, -0.02559, -0.18615
23.100, 0.01324, 0.14000, -0.12727, -0.02760, -0.20107
23.114, 0.01425, 0.15000, -0.13663, -0.02969, -0.21658
23.129, 0.01530, 0.16000, -0.14599, -0.03185, -0.23266
23.143, 0.01639, 0.17000, -0.15535, -0.03409, -0.24931
23.157, 0.01751, 0.18000, -0.16471, -0.03640, -0.26654
23.171, 0.01867, 0.19000, -0.17407, -0.03880, -0.28434
23.186, 0.01983, 0.20000, -0.18343, -0.04126, -0.30273
23.200, 0.02098, 0.21000, -0.19279, -0.04381, -0.32167
23.214, 0.02214, 0.22000, -0.20214, -0.04643, -0.34092
23.229, 0.02330, 0.22998, -0.21150, -0.04912, -0.36011
23.243, 0.02446, 0.23969, -0.22086, -0.05189, -0.37931
23.257, 0.02561, 0.24897, -0.23002, -0.05474, -0.39851
23.271, 0.02677, 0.25785, -0.23879, -0.05767, -0.41771
23.286, 0.02793, 0.26632, -0.24719, -0.06067, -0.43691
23.300, 0.02909, 0.27438, -0.25523, -0.06374, -0.45611
23.314, 0.03024, 0.28204, -0.26289, -0.06689, -0.47530
23.329, 0.03140, 0.28928, -0.27019, -0.07012, -0.49454
23.343, 0.03256, 0.29612, -0.27711, -0.07343, -0.51357
23.357, 0.03372, 0.30255, -0.28367, -0.07681, -0.53207
23.371, 0.03488, 0.30857, -0.28986, -0.08026, -0.54998
23.386, 0.03603, 0.31418, -0.29567, -0.08380, -0.56732
23.400, 0.03719, 0.31938, -0.30112, -0.08740, -0.58408
23.414, 0.03835, 0.32418, -0.30620, -0.09109, -0.60026
23.429, 0.03951, 0.32857, -0.31091, -0.09485, -0.61587
23.443, 0.04066, 0.33255, -0.31525, -0.09869, -0.63090
23.457, 0.04182, 0.33612, -0.31922, -0.10260, -0.64536
23.471, 0.04298, 0.33928, -0.32282, -0.10659, -0.65924
23.486, 0.04414, 0.34204, -0.32605, -0.11065, -0.67255
23.500, 0.04529, 0.34438, -0.32891, -0.11479, -0.68528
23.514, 0.04645, 0.34632, -0.33140, -0.11901, -0.69744
23.529, 0.04761, 0.34785, -0.33352, -0.12330, -0.70902
23.543, 0.04877, 0.34897, -0.33528, -0.12767, -0.72002
23.557, 0.04993, 0.34969, -0.33666, -0.13211, -0.73045
23.571, 0.05108, 0.34998, -0.33767, -0.13664, -0.74030
23.586, 0.05224, 0.35001, -0.33832, -0.14123, -0.74958
23.600, 0.05340, 0.35000, -0.33858, -0.14590, -0.75828
23.614, 0.05456, 0.35000, -0.33860, -0.15065, -0.76641
23.629, 0.05571, 0.35000, -0.33859, -0.15548, -0.77396
23.643, 0.05687, 0.35000, -0.33860, -0.16038, -0.78094
23.657, 0.05803, 0.35000, -0.33859, -0.16535, -0.78734
23.671, 0.05919, 0.35000, -0.33859, -0.17035, -0.79316
23.686, 0.06034, 0.35000, -0.33859, -0.17533, -0.79841
23.700, 0.06150, 0.35000, -0.33859, -0.18031, -0.80308
23.714, 0.06266, 0.35000, -0.33859, -0.18529, -0.80718
23.729, 0.06382, 0.35000, -0.33859, -0.19027, -0.81070
23.743, 0.06497, 0.35000, -0.33859, -0.19525, -0.81365
23.757, 0.06613, 0.35000, -0.33859, -0.20023, -0.81602
23.771, 0.06729, 0.35000, -0.33859, -0.20521, -0.81781
23.786, 0.06845, 0.35000, -0.33859, -0.21019, -0.81903
23.800, 0.06961, 0.35000, -0.33859, -0.21517, -0.81967
23.814, 0.07076, 0.35000, -0.33859, -0.22015, -0.81977
23.829, 0.07192, 0.35000, -0.33859, -0.22513, -0.81975
23.843, 0.07308, 0.35000, -0.33859, -0.23011, -0.81976
23.857, 0.07424, 0.35000, -0.33859, -0.23509, -0.81975
23.871, 0.07539, 0.35000, -0.33859, -0.24007, -0.81976
23.886, 0.07655, 0.35000, -0.33859, -0.24505, -0.81976
23.900, 0.07771, 0.35000, -0.33859, -0.25004, -0.81976
23.914, 0.07887, 0.35000, -0.33859, -0.25502, -0.81976
23.929, 0.08002, 0.35000, -0.33859, -0.25995, -0.81976
23.943, 0.08118, 0.35000, -0.33859, -0.26482, -0.81976
23.957, 0.08234, 0.35000, -0.33859, -0.26960, -0.81976
23.971, 0.08350, 0.35000, -0.33859, -0.27430, -0.81976
23.986, 0.08466, 0.35000, -0.33859, -0.27893, -0.81976
24.000, 0.08581, 0.35000, -0.33859, -0.28349, -0.81976
24.014, 0.08697, 0.35000, -0.33859, -0.28797, -0.81976
24.029, 0.08813, 0.35000, -0.33859, -0.29237, -0.81976
24.043, 0.08929, 0.35000, -0.33859, -0.29669, -0.81976
24.057, 0.09044, 0.35000, -0.33859, -0.30094, -0.81976
24.071, 0.09160, 0.35000, -0.33859, -0.30511, -0.81976
24.086, 0.09276, 0.35000, -0.33859, -0.30921, -0.81976
24.100, 0.09392, 0.35000, -0.33859, -0.31323, -0.81976
24.114, 0.09507, 0.35000, -0.33859, -0.31718, -0.81976
24.129, 0.09623, 0.35000, -0.33859, -0.32104, -0.81976
24.143, 0.09739, 0.35000, -0.33859, -0.32484, -0.81976
24.157, 0.09855, 0.35000, -0.33859, -0.32855, -0.81976
24.171, 0.09970, 0.35000, -0.33859, -0.33219, -0.81976
24.186, 0.10086, 0.35000, -0.33859, -0.33576, -0.81976
24.200, 0.10202, 0.35000, -0.33859, -0.33925, -0.81976
24.214, 0.10318, 0.35000, -0.33859, -0.34266, -0.81976
24.229, 0.10434, 0.35000, -0.33859, -0.34600, -0.81976
24.243, 0.10549, 0.35000, -0.33859, -0.34926, -0.81976
24.257, 0.10665, 0.35000, -0.33859, -0.35244, -0.81976
24.271, 0.10781, 0.35000, -0.33859, -0.35555, -0.81976
24.286, 0.10897, 0.35000, -0.33859, -0.35858, -0.81976
24.300, 0.11012, 0.35000, -0.33859, -0.36154, -0.81976
24.314, 0.11128, 0.35000, -0.33859, -0.36442, -0.81976
24.329, 0.11244, 0.35000, -0.33859, -0.36722, -0.81976
24.343, 0.11360, 0.35000, -0.33859, -0.36995, -0.81976
24.357, 0.11475, 0.35000, -0.33859, -0.37260, -0.81976
24.371, 0.11591, 0.35000, -0.33859, -0.37518, -0.81976
24.386, 0.11707, 0.35000, -0.33859, -0.37768, -0.81976
24.400, 0.11821, 0.35000, -0.33859, -0.38010, -0.81976
24.414, 0.11931, 0.35000, -0.33859, -0.38245, -0.81976
24.429, 0.12037, 0.35000, -0.33859, -0.38472, -0.81976
24.443, 0.12140, 0.35000, -0.33859, -0.38692, -0.81976
24.457, 0.12239, 0.35000, -0.33859, -0.38904, -0.81976
24.471, 0.12334, 0.35000, -0.33859, -0.39108, -0.81976
24.486, 0.12426, 0.35000, -0.33859, -0.39305, -0.81976
24.500, 0.12513, 0.35000, -0.33859, -0.39494, -0.81976
24.514, 0.12597, 0.35000, -0.33859, -0.39676, -0.81976
24.529, 0.12678, 0.35000, -0.33859, -0.39850, -0.81976
24.543, 0.12754, 0.35000, -0.33859, -0.40016, -0.81976
24.557, 0.12827, 0.35000, -0.33859, -0.40175, -0.81976
24.571, 0.12896, 0.35000, -0.33859, -0.40326, -0.81976
24.586, 0.12961, 0.35000, -0.33859, -0.40469, -0.81976
24.600, 0.13023, 0.35000, -0.33859, -0.40605, -0.81976
24.614, 0.13081, 0.35000, -0.33859, -0.40734, -0.81976
24.629, 0.13135, 0.35000, -0.33859, -0.40854, -0.81976
24.643, 0.13186, 0.35000, -0.33859, -0.40967, -0.81976
24.657, 0.13232, 0.35000, -0.33859, -0.41073, -0.81976
24.671, 0.13276, 0.35000, -0.33859, -0.41171, -0.81976
24.686, 0.13315, 0.35000, -0.33859, -0.41261, -0.81976
24.700, 0.13350, 0.35000, -0.33859, -0.41344, -0.81976
24.714, 0.13382, 0.35000, -0.33859, -0.41419, -0.81976
24.729, 0.13410, 0.35000, -0.33859, -0.41486, -0.81976
24.743, 0.13435, 0.35000, -0.33859, -0.41546, -0.81976
24.757, 0.13456, 0.35000, -0.33859, -0.41598, -0.81976
24.771, 0.13473, 0.35000, -0.33859, -0.41643, -0.81976
24.786, 0.13486, 0.35000, -0.33859, -0.41680, -0.81976
24.800, 0.13496, 0.35000, -0.33859, -0.41710, -0.81976
24.814, 0.13501, 0.35000, -0.33859, -0.41732, -0.81976
24.829, 0.13503, 0.35000, -0.33859, -0.41745, -0.81976
24.843, 0.13503, 0.35000, -0.33859, -0.41752, -0.81976
24.857, 0.13503, 0.35000, -0.33859, -0.41753, -0.81976
24.871, 0.13503, 0.35000, -0.33859, -0.41751, -0.81976
24.886, 0.13503, 0.35000, -0.33859, -0.41751, -0.81976
24.900, 0.13503, 0.35000, -0.33859, -0.41752, -0.81976
24.914, 0.13503, 0.35000, -0.33859, -0.41752, -0.81976
24.929, 0.13503, 0.35000, -0.33859, -0.41752, -0.81976
24.943, 0.13503, 0.35000, -0.33859, -0.41751, -0.81976
24.957, 0.13503, 0.35000, -0.33859, -0.41752, -0.81976
24.971, 0.13503, 0.35000, -0.33859, -0.41752, -0.81976
24.986, 0.13503, 0.35000, -0.33859, -0.41752, -0.81976
25.000, 0.13503, 0.35000, -0.33859, -0.41752, -0.81976
25.014, 0.13503, 0.35000, -0.33859, -0.41752, -0.81976
25.029, 0.13503, 0.35000, -0.33859, -0.41752, -0.81976
25.043, 0.13503, 0.35000, -0.33859, -0.41752, -0.81976
25.057, 0.13503, 0.35000, -0.33859, -0.41752, -0.81976
25.071, 0.13503, 0.35000, -0.33859, -0.41752, -0.81976
25.086, 0.13503, 0.35000, -0.33859, -0.41752, -0.81976
25.100, 0.13503, 0.35000, -0.33859, -0.41752, -0.81976
25.114, 0.13503, 0.35000, -0.33859, -0.41752, -0.81976
25.129, 0.13503, 0.35000, -0.33859, -0.41752, -0.81976
25.143, 0.13503, 0.35000, -0.33859, -0.41752, -0.81976
25.157, 0.13503, 0.35000, -0.33859, -0.41752, -0.81976
25.171, 0.13503, 0.35000, -0.33859, -0.41752, -0.81976
25.186, 0.13503, 0.35000, -0.33859, -0.41752, -0.81976
25.200, 0.13503, 0.35000, -0.33859, -0.41752, -0.81976
25.214, 0.13503, 0.35000, -0.33859, -0.41752, -0.81976
25.229, 0.13503, 0.35000, -0.33859, -0.41752, -0.81976
25.243, 0.13503, 0.35000, -0.33859, -0.41752, -0.81976
25.257, 0.13503, 0.35000, -0.33859, -0.41752, -0.81976
25.271, 0.13503, 0.35000, -0.33859, -0.41752, -0.81976
25.286, 0.13503, 0.35000, -0.33859, -0.41752, -0.81976
25.300, 0.13503, 0.35000, -0.33859, -0.41752, -0.81976
25.314, 0.13503, 0.35000, -0.33859, -0.41752, -0.81976
25.329, 0.13503, 0.35000, -0.33859, -0.41752, -0.81976
25.343, 0.13503, 0.35000, -0.33859, -0.41752, -0.81976
25.357, 0.13503, 0.35000, -0.33859, -0.41752, -0.81976
25.371, 0.13503, 0.35000, -0.33859, -0.41752, -0.81976
25.386, 0.13503, 0.35000, -0.33859, -0.41752, -0.81976
25.400, 0.13503, 0.35000, -0.33859, -0.41752, -0.81976
25.414, 0.13503, 0.35000, -0.33859, -0.41752, -0.81976
25.429, 0.13503, 0.35000, -0.33859, -0.41752, -0.81976
25.443, 0.13503, 0.35000, -0.33859, -0.41752, -0.81976
25.457, 0.13503, 0.35000, -0.33859, -0.41751, -0.81976
25.471, 0.13503, 0.35000, -0.33859, -0.41752, -0.81976
25.486, 0.13503, 0.35000, -0.33859, -0.41752, -0.81976
25.500, 0.13503, 0.35000, -0.33859, -0.41752, -0.81976
25.514, 0.13503, 0.35000, -0.33859, -0.41750, -0.81976
25.529, 0.13503, 0.35000, -0.33859, -0.41744, -0.81976
25.543, 0.13503, 0.35000, -0.33859, -0.41729, -0.81976
25.557, 0.13500, 0.35000, -0.33859, -0.41705, -0.81976
25.571, 0.13493, 0.35000, -0.33859, -0.41675, -0.81976
25.586, 0.13482, 0.35000, -0.33859, -0.41636, -0.81976
25.600, 0.13467, 0.35000, -0.33859, -0.41590, -0.81976
25.614, 0.13449, 0.35000, -0.33859, -0.41537, -0.81976
25.629, 0.13427, 0.35000, -0.33859, -0.41476, -0.81976
25.643, 0.13401, 0.35000, -0.33859, -0.41407, -0.81976
25.657, 0.13371, 0.35000, -0.33859, -0.41331, -0.81976
25.671, 0.13338, 0.35000, -0.33859, -0.41247, -0.81976
25.686, 0.13301, 0.35000, -0.33859, -0.41155, -0.81976
25.700, 0.13261, 0.35000, -0.33859, -0.41056, -0.81976
25.714, 0.13216, 0.35000, -0.33859, -0.40949, -0.81976
25.729, 0.13168, 0.35000, -0.33859, -0.40835, -0.81976
25.743, 0.13116, 0.35000, -0.33859, -0.40713, -0.81976
25.757, 0.13061, 0.35000, -0.33859, -0.40584, -0.81976
25.771, 0.13002, 0.35000, -0.33859, -0.40446, -0.81976
25.786, 0.12939, 0.35000, -0.33859, -0.40302, -0.81976
25.800, 0.12872, 0.35000, -0.33859, -0.40149, -0.81976
25.814, 0.12802, 0.35000, -0.33859, -0.39989, -0.81976
25.829, 0.12727, 0.35000, -0.33859, -0.39822, -0.81976
25.843, 0.12650, 0.35000, -0.33859, -0.39646, -0.81976
25.857, 0.12568, 0.35000, -0.33859, -0.39464, -0.81976
25.871, 0.12483, 0.35000, -0.33859, -0.39273, -0.81976
25.886, 0.12394, 0.35000, -0.33859, -0.39075, -0.81976
25.900, 0.12301, 0.35000, -0.33859, -0.38870, -0.81976
25.914, 0.12204, 0.35000, -0.33859, -0.38656, -0.81976
25.929, 0.12104, 0.35000, -0.33859, -0.38436, -0.81976
25.943, 0.12000, 0.35000, -0.33859, -0.38207, -0.81976
25.957, 0.11893, 0.35000, -0.33859, -0.37971, -0.81976
25.971, 0.11781, 0.35000, -0.33859, -0.37728, -0.81976
25.986, 0.11666, 0.35000, -0.33859, -0.37476, -0.81976
26.000, 0.11550, 0.35000, -0.33859, -0.37217, -0.81976
26.014, 0.11434, 0.35000, -0.33859, -0.36951, -0.81976
26.029, 0.11319, 0.35000, -0.33859, -0.36677, -0.81976
26.043, 0.11203, 0.35000, -0.33859, -0.36395, -0.81976
26.057, 0.11087, 0.35000, -0.33859, -0.36106, -0.81976
26.071, 0.10971, 0.35000, -0.33859, -0.35809, -0.81976
26.086, 0.10856, 0.35000, -0.33859, -0.35505, -0.81976
26.100, 0.10740, 0.35000, -0.33859, -0.35193, -0.81976
26.114, 0.10624, 0.35000, -0.33859, -0.34873, -0.81976
26.129, 0.10508, 0.35000, -0.33859, -0.34546, -0.81976
26.143, 0.10393, 0.35000, -0.33859, -0.34211, -0.81976
26.157, 0.10277, 0.35000, -0.33859, -0.33868, -0.81976
26.171, 0.10161, 0.35000, -0.33859, -0.33518, -0.81976
26.186, 0.10045, 0.35000, -0.33859, -0.33160, -0.81976
26.200, 0.09929, 0.35000, -0.33859, -0.32795, -0.81976
26.214, 0.09814, 0.35000, -0.33859, -0.32422, -0.81976
26.229, 0.09698, 0.35000, -0.33859, -0.32042, -0.81976
26.243, 0.09582, 0.35000, -0.33859, -0.31654, -0.81976
26.257, 0.09466, 0.35000, -0.33859, -0.31258, -0.81976
26.271, 0.09351, 0.35000, -0.33859, -0.30854, -0.81976
26.286, 0.09235, 0.35000, -0.33859, -0.30443, -0.81976
26.300, 0.09119, 0.35000, -0.33859, -0.30025, -0.81976
26.314, 0.09003, 0.35000, -0.33859, -0.29599, -0.81976
26.329, 0.08888, 0.35000, -0.33859, -0.29165, -0.81976
26.343, 0.08772, 0.35000, -0.33859, -0.28724, -0.81976
26.357, 0.08656, 0.35000, -0.33859, -0.28275, -0.81976
26.371, 0.08540, 0.35000, -0.33859, -0.27818, -0.81976
26.386, 0.08425, 0.35000, -0.33859, -0.27354, -0.81976
26.400, 0.08309, 0.35000, -0.33859, -0.26882, -0.81976
26.414, 0.08193, 0.35000, -0.33859, -0.26403, -0.81976
26.429, 0.08077, 0.35000, -0.33859, -0.25916, -0.81976
26.443, 0.07961, 0.35000, -0.33859, -0.25421, -0.81976
26.457, 0.07846, 0.35000, -0.33859, -0.24922, -0.81976
26.471, 0.07730, 0.35000, -0.33859, -0.24424, -0.81976
26.486, 0.07614, 0.35000, -0.33859, -0.23926, -0.81976
26.500, 0.07498, 0.35000, -0.33859, -0.23428, -0.81976
26.514, 0.07383, 0.35000, -0.33859, -0.22930, -0.81976
26.529, 0.07267, 0.35000, -0.33859, -0.22431, -0.81975
26.543, 0.07151, 0.35000, -0.33859, -0.21933, -0.81976
26.557, 0.07035, 0.35000, -0.33859, -0.21435, -0.81975
26.571, 0.06920, 0.35000, -0.33859, -0.20937, -0.81940
26.586, 0.06804, 0.35000, -0.33859, -0.20439, -0.81843
26.600, 0.06688, 0.35000, -0.33859, -0.19941, -0.81689
26.614, 0.06572, 0.35000, -0.33859, -0.19443, -0.81478
26.629, 0.06456, 0.35000, -0.33859, -0.18945, -0.81209
