kutzer/Scor6AxisToolbox/Scor6AxisToolbox Test Functions/ScorBotBoxData_sCurve/BSEPR_Position_20Hz.csv
Time_(s), Base_Joint_Position_(rad), Shoulder_Joint_Position_(rad), Elbow_Joint_Position_(rad), Wrist_Pitch_Joint_Position_(rad), Wrist_Roll_Joint_Position_(rad)
0.000, 0.00000, 2.09925, -1.65843, -1.54994, 0.00000
0.050, -0.00001, 2.09919, -1.65838, -1.54992, -0.00009
0.100, -0.00004, 2.09886, -1.65808, -1.54985, -0.00058
0.150, -0.00013, 2.09801, -1.65730, -1.54966, -0.00184
0.200, -0.00029, 2.09638, -1.65583, -1.54933, -0.00420
0.250, -0.00054, 2.09372, -1.65342, -1.54879, -0.00803
0.300, -0.00091, 2.08980, -1.64986, -1.54800, -0.01368
0.350, -0.00143, 2.08434, -1.64491, -1.54693, -0.02149
0.400, -0.00211, 2.07716, -1.63838, -1.54551, -0.03183
0.450, -0.00298, 2.06824, -1.63022, -1.54370, -0.04504
0.500, -0.00405, 2.05756, -1.62042, -1.54147, -0.06146
0.550, -0.00532, 2.04519, -1.60899, -1.53875, -0.08124
0.600, -0.00679, 2.03135, -1.59610, -1.53550, -0.10438
0.650, -0.00847, 2.01628, -1.58198, -1.53169, -0.13084
0.700, -0.01035, 2.00024, -1.56684, -1.52725, -0.16031
0.750, -0.01243, 1.98347, -1.55092, -1.52215, -0.19246
0.800, -0.01472, 1.96622, -1.53444, -1.51633, -0.22692
0.850, -0.01721, 1.94875, -1.51762, -1.50976, -0.26336
0.900, -0.01990, 1.93125, -1.50069, -1.50238, -0.30140
0.950, -0.02279, 1.91375, -1.48377, -1.49415, -0.34071
1.000, -0.02588, 1.89625, -1.46684, -1.48505, -0.38092
1.050, -0.02918, 1.87875, -1.44991, -1.47507, -0.42169
1.100, -0.03268, 1.86125, -1.43298, -1.46423, -0.46267
1.150, -0.03639, 1.84375, -1.41605, -1.45251, -0.50366
1.200, -0.04029, 1.82625, -1.39912, -1.43992, -0.54464
1.250, -0.04440, 1.80875, -1.38219, -1.42648, -0.58563
1.300, -0.04871, 1.79125, -1.36526, -1.41223, -0.62662
1.350, -0.05322, 1.77375, -1.34833, -1.39721, -0.66761
1.400, -0.05794, 1.75625, -1.33140, -1.38148, -0.70860
1.450, -0.06286, 1.73875, -1.31447, -1.36509, -0.74958
1.500, -0.06798, 1.72125, -1.29754, -1.34807, -0.79057
1.550, -0.07330, 1.70375, -1.28061, -1.33047, -0.83156
1.600, -0.07883, 1.68625, -1.26368, -1.31234, -0.87255
1.650, -0.08456, 1.66875, -1.24675, -1.29374, -0.91353
1.700, -0.09049, 1.65125, -1.22982, -1.27469, -0.95452
1.750, -0.09660, 1.63375, -1.21289, -1.25526, -0.99551
1.800, -0.10287, 1.61625, -1.19596, -1.23548, -1.03650
1.850, -0.10928, 1.59875, -1.17903, -1.21541, -1.07749
1.900, -0.11580, 1.58125, -1.16210, -1.19508, -1.11847
1.950, -0.12241, 1.56375, -1.14517, -1.17455, -1.15946
2.000, -0.12909, 1.54625, -1.12824, -1.15387, -1.20045
2.050, -0.13582, 1.52875, -1.11131, -1.13308, -1.24144
2.100, -0.14256, 1.51125, -1.09438, -1.11222, -1.28242
2.150, -0.14932, 1.49375, -1.07745, -1.09134, -1.32341
2.200, -0.15607, 1.47625, -1.06052, -1.07047, -1.36440
2.250, -0.16282, 1.45875, -1.04359, -1.04959, -1.40539
2.300, -0.16957, 1.44125, -1.02666, -1.02872, -1.44638
2.350, -0.17632, 1.42375, -1.00973, -1.00784, -1.48736
2.400, -0.18307, 1.40625, -0.99280, -0.98697, -1.52835
2.450, -0.18982, 1.38875, -0.97587, -0.96609, -1.56934
2.500, -0.19658, 1.37125, -0.95894, -0.94521, -1.61033
2.550, -0.20333, 1.35375, -0.94201, -0.92434, -1.65131
2.600, -0.21008, 1.33625, -0.92508, -0.90346, -1.69230
2.650, -0.21683, 1.31875, -0.90815, -0.88259, -1.73329
2.700, -0.22358, 1.30125, -0.89122, -0.86171, -1.77428
2.750, -0.23033, 1.28375, -0.87429, -0.84084, -1.81527
2.800, -0.23709, 1.26625, -0.85736, -0.81996, -1.85625
2.850, -0.24383, 1.24875, -0.84044, -0.79911, -1.89724
2.900, -0.25056, 1.23125, -0.82351, -0.77832, -1.93823
2.950, -0.25725, 1.21375, -0.80658, -0.75765, -1.97922
3.000, -0.26387, 1.19625, -0.78965, -0.73715, -2.02020
3.050, -0.27041, 1.17875, -0.77272, -0.71685, -2.06119
3.100, -0.27683, 1.16125, -0.75579, -0.69680, -2.10218
3.150, -0.28312, 1.14375, -0.73886, -0.67706, -2.14317
3.200, -0.28925, 1.12625, -0.72193, -0.65766, -2.18416
3.250, -0.29521, 1.10875, -0.70500, -0.63866, -2.22514
3.300, -0.30096, 1.09125, -0.68807, -0.62010, -2.26613
3.350, -0.30651, 1.07375, -0.67114, -0.60203, -2.30712
3.400, -0.31186, 1.05625, -0.65421, -0.58449, -2.34811
3.450, -0.31701, 1.03875, -0.63728, -0.56753, -2.38909
3.500, -0.32195, 1.02125, -0.62035, -0.55120, -2.43008
3.550, -0.32670, 1.00375, -0.60342, -0.53554, -2.47107
3.600, -0.33124, 0.98625, -0.58649, -0.52061, -2.51206
3.650, -0.33557, 0.96875, -0.56956, -0.50644, -2.55305
3.700, -0.33971, 0.95125, -0.55263, -0.49308, -2.59403
3.750, -0.34364, 0.93375, -0.53570, -0.48058, -2.63502
3.800, -0.34737, 0.91625, -0.51877, -0.46896, -2.67601
3.850, -0.35089, 0.89875, -0.50184, -0.45820, -2.71699
3.900, -0.35422, 0.88125, -0.48491, -0.44832, -2.75779
3.950, -0.35734, 0.86375, -0.46798, -0.43930, -2.79805
4.000, -0.36026, 0.84625, -0.45105, -0.43116, -2.83743
4.050, -0.36297, 0.82875, -0.43412, -0.42387, -2.87558
4.100, -0.36549, 0.81127, -0.41728, -0.41738, -2.91214
4.150, -0.36780, 0.79396, -0.40073, -0.41164, -2.94675
4.200, -0.36990, 0.77709, -0.38471, -0.40661, -2.97908
4.250, -0.37181, 0.76090, -0.36943, -0.40224, -3.00875
4.300, -0.37351, 0.74563, -0.35514, -0.39848, -3.03543
4.350, -0.37501, 0.73155, -0.34204, -0.39530, -3.05881
4.400, -0.37631, 0.71890, -0.33038, -0.39263, -3.07883
4.450, -0.37741, 0.70791, -0.32032, -0.39044, -3.09549
4.500, -0.37830, 0.69867, -0.31191, -0.38868, -3.10892
4.550, -0.37900, 0.69118, -0.30513, -0.38730, -3.11945
4.600, -0.37954, 0.68543, -0.29995, -0.38625, -3.12743
4.650, -0.37993, 0.68125, -0.29619, -0.38550, -3.13322
4.700, -0.38020, 0.67838, -0.29362, -0.38498, -3.13717
4.750, -0.38037, 0.67659, -0.29201, -0.38466, -3.13963
4.800, -0.38046, 0.67561, -0.29114, -0.38449, -3.14095
4.850, -0.38050, 0.67521, -0.29078, -0.38442, -3.14148
4.900, -0.38051, 0.67512, -0.29071, -0.38441, -3.14159
4.950, -0.38051, 0.67512, -0.29071, -0.38441, -3.14159
5.000, -0.38051, 0.67512, -0.29071, -0.38441, -3.14159
5.050, -0.38051, 0.67512, -0.29071, -0.38441, -3.14159
5.100, -0.38051, 0.67512, -0.29071, -0.38441, -3.14159
5.150, -0.38051, 0.67512, -0.29071, -0.38441, -3.14159
5.200, -0.38051, 0.67512, -0.29071, -0.38441, -3.14159
5.250, -0.38051, 0.67512, -0.29071, -0.38441, -3.14159
5.300, -0.38051, 0.67512, -0.29071, -0.38441, -3.14159
5.350, -0.38051, 0.67512, -0.29071, -0.38441, -3.14159
5.400, -0.38051, 0.67512, -0.29071, -0.38441, -3.14159
5.450, -0.38051, 0.67512, -0.29071, -0.38441, -3.14159
5.500, -0.38051, 0.67512, -0.29071, -0.38441, -3.14159
5.550, -0.38051, 0.67512, -0.29071, -0.38441, -3.14159
5.600, -0.38051, 0.67512, -0.29071, -0.38441, -3.14160
5.650, -0.38051, 0.67512, -0.29071, -0.38441, -3.14160
5.700, -0.38051, 0.67512, -0.29071, -0.38441, -3.14160
5.750, -0.38051, 0.67512, -0.29071, -0.38441, -3.14159
5.800, -0.38051, 0.67512, -0.29071, -0.38441, -3.14159
5.850, -0.38051, 0.67512, -0.29071, -0.38441, -3.14159
5.900, -0.38051, 0.67512, -0.29071, -0.38441, -3.14159
5.950, -0.38048, 0.67512, -0.29071, -0.38441, -3.14156
6.000, -0.38023, 0.67512, -0.29071, -0.38441, -3.14130
6.050, -0.37950, 0.67512, -0.29071, -0.38441, -3.14061
6.100, -0.37804, 0.67512, -0.29071, -0.38441, -3.13925
6.150, -0.37564, 0.67512, -0.29071, -0.38441, -3.13701
6.200, -0.37224, 0.67512, -0.29071, -0.38441, -3.13365
6.250, -0.36784, 0.67512, -0.29071, -0.38441, -3.12895
6.300, -0.36244, 0.67512, -0.29071, -0.38441, -3.12270
6.350, -0.35604, 0.67512, -0.29071, -0.38441, -3.11467
6.400, -0.34864, 0.67512, -0.29071, -0.38441, -3.10463
6.450, -0.34024, 0.67512, -0.29071, -0.38441, -3.09236
6.500, -0.33084, 0.67512, -0.29071, -0.38441, -3.07767
6.550, -0.32044, 0.67512, -0.29071, -0.38441, -3.06050
6.600, -0.30904, 0.67512, -0.29071, -0.38441, -3.04085
6.650, -0.29664, 0.67512, -0.29071, -0.38441, -3.01874
6.700, -0.28327, 0.67512, -0.29071, -0.38441, -2.99432
6.750, -0.26913, 0.67512, -0.29071, -0.38441, -2.96782
6.800, -0.25445, 0.67512, -0.29071, -0.38441, -2.93946
6.850, -0.23951, 0.67512, -0.29071, -0.38441, -2.90947
6.900, -0.22451, 0.67512, -0.29071, -0.38441, -2.87806
6.950, -0.20951, 0.67512, -0.29071, -0.38441, -2.84547
7.000, -0.19451, 0.67512, -0.29071, -0.38441, -2.81191
7.050, -0.17951, 0.67512, -0.29071, -0.38441, -2.77760
7.100, -0.16451, 0.67512, -0.29071, -0.38441, -2.74278
7.150, -0.14951, 0.67512, -0.29071, -0.38441, -2.70766
7.200, -0.13451, 0.67512, -0.29071, -0.38441, -2.67246
7.250, -0.11951, 0.67512, -0.29071, -0.38441, -2.63726
7.300, -0.10451, 0.67512, -0.29071, -0.38441, -2.60206
7.350, -0.08951, 0.67512, -0.29071, -0.38441, -2.56686
7.400, -0.07451, 0.67512, -0.29071, -0.38441, -2.53166
7.450, -0.05951, 0.67512, -0.29071, -0.38441, -2.49646
7.500, -0.04451, 0.67512, -0.29071, -0.38441, -2.46126
7.550, -0.02951, 0.67512, -0.29071, -0.38441, -2.42605
7.600, -0.01451, 0.67512, -0.29071, -0.38441, -2.39085
7.650, 0.00049, 0.67512, -0.29071, -0.38441, -2.35565
7.700, 0.01549, 0.67512, -0.29071, -0.38441, -2.32045
7.750, 0.03049, 0.67512, -0.29071, -0.38441, -2.28525
7.800, 0.04549, 0.67512, -0.29071, -0.38441, -2.25005
7.850, 0.06049, 0.67512, -0.29071, -0.38441, -2.21485
7.900, 0.07549, 0.67512, -0.29071, -0.38441, -2.17965
7.950, 0.09049, 0.67512, -0.29071, -0.38441, -2.14445
8.000, 0.10549, 0.67512, -0.29071, -0.38441, -2.10924
8.050, 0.12049, 0.67512, -0.29071, -0.38441, -2.07404
8.100, 0.13549, 0.67512, -0.29071, -0.38441, -2.03884
8.150, 0.15049, 0.67512, -0.29071, -0.38441, -2.00364
8.200, 0.16549, 0.67512, -0.29071, -0.38441, -1.96853
8.250, 0.18049, 0.67512, -0.29071, -0.38441, -1.93372
8.300, 0.19549, 0.67512, -0.29071, -0.38441, -1.89944
8.350, 0.21049, 0.67512, -0.29071, -0.38441, -1.86590
8.400, 0.22549, 0.67512, -0.29071, -0.38441, -1.83334
8.450, 0.24049, 0.67512, -0.29071, -0.38441, -1.80198
8.500, 0.25542, 0.67512, -0.29071, -0.38441, -1.77203
8.550, 0.27007, 0.67512, -0.29071, -0.38441, -1.74372
8.600, 0.28417, 0.67512, -0.29071, -0.38441, -1.71729
8.650, 0.29748, 0.67512, -0.29071, -0.38441, -1.69294
8.700, 0.30982, 0.67512, -0.29071, -0.38441, -1.67090
8.750, 0.32115, 0.67512, -0.29071, -0.38441, -1.65132
8.800, 0.33148, 0.67512, -0.29071, -0.38441, -1.63423
8.850, 0.34082, 0.67512, -0.29071, -0.38441, -1.61961
8.900, 0.34915, 0.67512, -0.29071, -0.38441, -1.60742
8.950, 0.35649, 0.67512, -0.29071, -0.38441, -1.59744
9.000, 0.36282, 0.67512, -0.29071, -0.38441, -1.58947
9.050, 0.36816, 0.67512, -0.29071, -0.38441, -1.58327
9.100, 0.37249, 0.67512, -0.29071, -0.38441, -1.57862
9.150, 0.37583, 0.67512, -0.29071, -0.38441, -1.57530
9.200, 0.37816, 0.67512, -0.29071, -0.38441, -1.57308
9.250, 0.37956, 0.67512, -0.29071, -0.38441, -1.57175
9.300, 0.38025, 0.67512, -0.29071, -0.38441, -1.57107
9.350, 0.38049, 0.67512, -0.29071, -0.38441, -1.57083
9.400, 0.38051, 0.67512, -0.29071, -0.38441, -1.57080
9.450, 0.38051, 0.67512, -0.29071, -0.38441, -1.57080
9.500, 0.38051, 0.67512, -0.29071, -0.38441, -1.57080
9.550, 0.38051, 0.67512, -0.29071, -0.38441, -1.57080
9.600, 0.38051, 0.67512, -0.29071, -0.38441, -1.57080
9.650, 0.38051, 0.67512, -0.29071, -0.38441, -1.57080
9.700, 0.38051, 0.67512, -0.29071, -0.38441, -1.57080
9.750, 0.38051, 0.67512, -0.29071, -0.38441, -1.57080
9.800, 0.38051, 0.67512, -0.29071, -0.38441, -1.57080
9.850, 0.38051, 0.67512, -0.29071, -0.38442, -1.57080
9.900, 0.38051, 0.67512, -0.29071, -0.38442, -1.57080
9.950, 0.38051, 0.67512, -0.29071, -0.38442, -1.57081
10.000, 0.38051, 0.67512, -0.29071, -0.38442, -1.57081
10.050, 0.38051, 0.67512, -0.29071, -0.38442, -1.57081
10.100, 0.38051, 0.67512, -0.29071, -0.38442, -1.57081
10.150, 0.38051, 0.67512, -0.29071, -0.38442, -1.57081
10.200, 0.38051, 0.67512, -0.29071, -0.38442, -1.57081
10.250, 0.38051, 0.67512, -0.29071, -0.38441, -1.57081
10.300, 0.38051, 0.67512, -0.29071, -0.38441, -1.57080
10.350, 0.38051, 0.67512, -0.29071, -0.38441, -1.57080
10.400, 0.38051, 0.67512, -0.29071, -0.38441, -1.57080
10.450, 0.38051, 0.67509, -0.29080, -0.38432, -1.57065
10.500, 0.38051, 0.67497, -0.29122, -0.38396, -1.56999
10.550, 0.38051, 0.67469, -0.29221, -0.38312, -1.56846
10.600, 0.38051, 0.67418, -0.29402, -0.38161, -1.56567
10.650, 0.38051, 0.67338, -0.29691, -0.37922, -1.56126
10.700, 0.38051, 0.67221, -0.30113, -0.37575, -1.55484
10.750, 0.38051, 0.67060, -0.30691, -0.37101, -1.54605
10.800, 0.38051, 0.66850, -0.31444, -0.36480, -1.53451
10.850, 0.38051, 0.66582, -0.32371, -0.35691, -1.51985
10.900, 0.38051, 0.66251, -0.33474, -0.34714, -1.50174
10.950, 0.38051, 0.65849, -0.34742, -0.33530, -1.48015
11.000, 0.38051, 0.65374, -0.36153, -0.32121, -1.45506
11.050, 0.38051, 0.64826, -0.37682, -0.30482, -1.42663
11.100, 0.38051, 0.64203, -0.39303, -0.28612, -1.39523
11.150, 0.38051, 0.63507, -0.40991, -0.26514, -1.36122
11.200, 0.38051, 0.62739, -0.42722, -0.24198, -1.32499
11.250, 0.38051, 0.61903, -0.44471, -0.21685, -1.28690
11.300, 0.38051, 0.61007, -0.46221, -0.18994, -1.24734
11.350, 0.38051, 0.60057, -0.47971, -0.16147, -1.20667
11.400, 0.38051, 0.59060, -0.49721, -0.13162, -1.16527
11.450, 0.38051, 0.58024, -0.51471, -0.10059, -1.12351
11.500, 0.38051, 0.56954, -0.53221, -0.06860, -1.08171
11.550, 0.38051, 0.55858, -0.54971, -0.03582, -1.03990
11.600, 0.38051, 0.54742, -0.56721, -0.00248, -0.99809
11.650, 0.38051, 0.53614, -0.58471, 0.03124, -0.95628
11.700, 0.38051, 0.52480, -0.60221, 0.06514, -0.91447
11.750, 0.38051, 0.51345, -0.61971, 0.09905, -0.87266
11.800, 0.38051, 0.50210, -0.63721, 0.13297, -0.83085
11.850, 0.38051, 0.49075, -0.65471, 0.16689, -0.78904
11.900, 0.38051, 0.47941, -0.67221, 0.20080, -0.74723
11.950, 0.38051, 0.46806, -0.68971, 0.23472, -0.70543
12.000, 0.38051, 0.45671, -0.70721, 0.26864, -0.66362
12.050, 0.38051, 0.44537, -0.72471, 0.30253, -0.62181
12.100, 0.38051, 0.43407, -0.74221, 0.33624, -0.58000
12.150, 0.38051, 0.42289, -0.75971, 0.36957, -0.53819
12.200, 0.38051, 0.41189, -0.77721, 0.40232, -0.49638
12.250, 0.38051, 0.40114, -0.79471, 0.43430, -0.45457
12.300, 0.38051, 0.39072, -0.81221, 0.46529, -0.41279
12.350, 0.38051, 0.38068, -0.82971, 0.49510, -0.37130
12.400, 0.38051, 0.37110, -0.84721, 0.52353, -0.33048
12.450, 0.38051, 0.36204, -0.86471, 0.55039, -0.29070
12.500, 0.38051, 0.35358, -0.88220, 0.57546, -0.25233
12.550, 0.38051, 0.34577, -0.89956, 0.59856, -0.21574
12.600, 0.38051, 0.33869, -0.91654, 0.61948, -0.18132
12.650, 0.38051, 0.33235, -0.93288, 0.63811, -0.14944
12.700, 0.38051, 0.32673, -0.94834, 0.65443, -0.12047
12.750, 0.38051, 0.32186, -0.96266, 0.66846, -0.09478
12.800, 0.38051, 0.31772, -0.97561, 0.68024, -0.07257
12.850, 0.38051, 0.31430, -0.98693, 0.68994, -0.05386
12.900, 0.38051, 0.31152, -0.99650, 0.69778, -0.03861
12.950, 0.38051, 0.30932, -1.00432, 0.70395, -0.02655
13.000, 0.38051, 0.30764, -1.01040, 0.70865, -0.01731
13.050, 0.38051, 0.30640, -1.01486, 0.71208, -0.01050
13.100, 0.38051, 0.30554, -1.01796, 0.71445, -0.00577
13.150, 0.38051, 0.30499, -1.01994, 0.71594, -0.00272
13.200, 0.38051, 0.30467, -1.02105, 0.71676, -0.00100
13.250, 0.38051, 0.30453, -1.02155, 0.71711, -0.00022
13.300, 0.38051, 0.30449, -1.02168, 0.71719, -0.00001
13.350, 0.38051, 0.30449, -1.02168, 0.71719, 0.00000
13.400, 0.38051, 0.30449, -1.02168, 0.71719, 0.00000
13.450, 0.38051, 0.30449, -1.02168, 0.71719, 0.00000
13.500, 0.38051, 0.30449, -1.02168, 0.71719, 0.00000
13.550, 0.38051, 0.30449, -1.02168, 0.71719, 0.00000
13.600, 0.38051, 0.30449, -1.02168, 0.71719, 0.00000
13.650, 0.38051, 0.30449, -1.02168, 0.71719, 0.00000
13.700, 0.38051, 0.30449, -1.02168, 0.71719, 0.00000
13.750, 0.38051, 0.30449, -1.02168, 0.71719, -0.00000
13.800, 0.38051, 0.30449, -1.02168, 0.71719, -0.00000
13.850, 0.38051, 0.30449, -1.02168, 0.71719, -0.00000
13.900, 0.38051, 0.30449, -1.02168, 0.71719, -0.00000
13.950, 0.38051, 0.30449, -1.02168, 0.71719, -0.00000
14.000, 0.38051, 0.30449, -1.02168, 0.71719, -0.00000
14.050, 0.38051, 0.30449, -1.02168, 0.71719, -0.00001
14.100, 0.38051, 0.30449, -1.02168, 0.71719, -0.00001
14.150, 0.38051, 0.30449, -1.02168, 0.71719, -0.00000
14.200, 0.38051, 0.30449, -1.02168, 0.71719, -0.00000
14.250, 0.38051, 0.30449, -1.02168, 0.71719, -0.00000
14.300, 0.38051, 0.30449, -1.02168, 0.71719, -0.00000
14.350, 0.38050, 0.30449, -1.02168, 0.71719, 0.00002
14.400, 0.38031, 0.30449, -1.02168, 0.71719, 0.00021
14.450, 0.37969, 0.30449, -1.02168, 0.71719, 0.00079
14.500, 0.37840, 0.30449, -1.02168, 0.71719, 0.00200
14.550, 0.37620, 0.30449, -1.02168, 0.71719, 0.00405
14.600, 0.37300, 0.30449, -1.02168, 0.71719, 0.00717
14.650, 0.36880, 0.30449, -1.02168, 0.71719, 0.01158
14.700, 0.36360, 0.30449, -1.02168, 0.71719, 0.01750
14.750, 0.35740, 0.30449, -1.02168, 0.71719, 0.02516
14.800, 0.35020, 0.30449, -1.02168, 0.71719, 0.03478
14.850, 0.34200, 0.30449, -1.02168, 0.71719, 0.04658
14.900, 0.33280, 0.30449, -1.02168, 0.71719, 0.06078
14.950, 0.32260, 0.30449, -1.02168, 0.71719, 0.07746
15.000, 0.31140, 0.30449, -1.02168, 0.71719, 0.09661
15.050, 0.29920, 0.30449, -1.02168, 0.71719, 0.11824
15.100, 0.28601, 0.30449, -1.02168, 0.71719, 0.14221
15.150, 0.27200, 0.30449, -1.02168, 0.71719, 0.16831
15.200, 0.25742, 0.30449, -1.02168, 0.71719, 0.19632
15.250, 0.24251, 0.30449, -1.02168, 0.71719, 0.22600
15.300, 0.22751, 0.30449, -1.02168, 0.71719, 0.25715
15.350, 0.21251, 0.30449, -1.02168, 0.71719, 0.28952
15.400, 0.19751, 0.30449, -1.02168, 0.71719, 0.32291
15.450, 0.18251, 0.30449, -1.02168, 0.71719, 0.35708
15.500, 0.16751, 0.30449, -1.02168, 0.71719, 0.39181
15.550, 0.15251, 0.30449, -1.02168, 0.71719, 0.42689
15.600, 0.13751, 0.30449, -1.02168, 0.71719, 0.46209
15.650, 0.12251, 0.30449, -1.02168, 0.71719, 0.49729
15.700, 0.10751, 0.30449, -1.02168, 0.71719, 0.53249
15.750, 0.09251, 0.30449, -1.02168, 0.71719, 0.56769
15.800, 0.07751, 0.30449, -1.02168, 0.71719, 0.60289
15.850, 0.06251, 0.30449, -1.02168, 0.71719, 0.63809
15.900, 0.04751, 0.30449, -1.02168, 0.71719, 0.67329
15.950, 0.03251, 0.30449, -1.02168, 0.71719, 0.70849
16.000, 0.01751, 0.30449, -1.02168, 0.71719, 0.74370
16.050, 0.00251, 0.30449, -1.02168, 0.71719, 0.77890
16.100, -0.01249, 0.30449, -1.02168, 0.71719, 0.81410
16.150, -0.02749, 0.30449, -1.02168, 0.71719, 0.84930
16.200, -0.04249, 0.30449, -1.02168, 0.71719, 0.88450
16.250, -0.05749, 0.30449, -1.02168, 0.71719, 0.91970
16.300, -0.07249, 0.30449, -1.02168, 0.71719, 0.95490
16.350, -0.08749, 0.30449, -1.02168, 0.71719, 0.99010
16.400, -0.10249, 0.30449, -1.02168, 0.71719, 1.02531
16.450, -0.11749, 0.30449, -1.02168, 0.71719, 1.06051
16.500, -0.13249, 0.30449, -1.02168, 0.71719, 1.09571
16.550, -0.14749, 0.30449, -1.02168, 0.71719, 1.13091
16.600, -0.16249, 0.30449, -1.02168, 0.71719, 1.16605
16.650, -0.17749, 0.30449, -1.02168, 0.71719, 1.20094
16.700, -0.19249, 0.30449, -1.02168, 0.71719, 1.23535
16.750, -0.20749, 0.30449, -1.02168, 0.71719, 1.26905
16.800, -0.22249, 0.30449, -1.02168, 0.71719, 1.30182
16.850, -0.23749, 0.30449, -1.02168, 0.71719, 1.33345
16.900, -0.25245, 0.30449, -1.02168, 0.71719, 1.36370
16.950, -0.26717, 0.30449, -1.02168, 0.71719, 1.39235
17.000, -0.28140, 0.30449, -1.02168, 0.71719, 1.41918
17.050, -0.29489, 0.30449, -1.02168, 0.71719, 1.44396
17.100, -0.30743, 0.30449, -1.02168, 0.71719, 1.46648
17.150, -0.31896, 0.30449, -1.02168, 0.71719, 1.48655
17.200, -0.32950, 0.30449, -1.02168, 0.71719, 1.50415
17.250, -0.33903, 0.30449, -1.02168, 0.71719, 1.51926
17.300, -0.34757, 0.30449, -1.02168, 0.71719, 1.53192
17.350, -0.35510, 0.30449, -1.02168, 0.71719, 1.54232
17.400, -0.36164, 0.30449, -1.02168, 0.71719, 1.55068
17.450, -0.36717, 0.30449, -1.02168, 0.71719, 1.55722
17.500, -0.37171, 0.30449, -1.02168, 0.71719, 1.56216
17.550, -0.37524, 0.30449, -1.02168, 0.71719, 1.56573
17.600, -0.37777, 0.30449, -1.02168, 0.71719, 1.56815
17.650, -0.37935, 0.30449, -1.02168, 0.71719, 1.56964
17.700, -0.38016, 0.30449, -1.02168, 0.71719, 1.57043
17.750, -0.38046, 0.30449, -1.02168, 0.71719, 1.57075
17.800, -0.38051, 0.30449, -1.02168, 0.71719, 1.57080
17.850, -0.38051, 0.30449, -1.02168, 0.71719, 1.57080
17.900, -0.38051, 0.30449, -1.02168, 0.71719, 1.57080
17.950, -0.38051, 0.30449, -1.02168, 0.71719, 1.57080
18.000, -0.38051, 0.30449, -1.02168, 0.71719, 1.57080
18.050, -0.38051, 0.30449, -1.02168, 0.71719, 1.57080
18.100, -0.38051, 0.30449, -1.02168, 0.71719, 1.57080
18.150, -0.38051, 0.30449, -1.02168, 0.71719, 1.57080
18.200, -0.38051, 0.30449, -1.02168, 0.71719, 1.57080
18.250, -0.38051, 0.30449, -1.02168, 0.71720, 1.57080
18.300, -0.38051, 0.30449, -1.02168, 0.71720, 1.57080
18.350, -0.38051, 0.30449, -1.02168, 0.71720, 1.57080
18.400, -0.38051, 0.30449, -1.02168, 0.71720, 1.57079
18.450, -0.38051, 0.30449, -1.02168, 0.71720, 1.57079
18.500, -0.38051, 0.30449, -1.02168, 0.71720, 1.57079
18.550, -0.38051, 0.30449, -1.02168, 0.71720, 1.57079
18.600, -0.38051, 0.30449, -1.02168, 0.71720, 1.57079
18.650, -0.38051, 0.30449, -1.02168, 0.71719, 1.57079
18.700, -0.38051, 0.30449, -1.02168, 0.71719, 1.57080
18.750, -0.38051, 0.30449, -1.02168, 0.71719, 1.57080
18.800, -0.38051, 0.30449, -1.02168, 0.71719, 1.57080
18.850, -0.38051, 0.30451, -1.02162, 0.71714, 1.57089
18.900, -0.38051, 0.30460, -1.02130, 0.71685, 1.57142
18.950, -0.38051, 0.30485, -1.02044, 0.71612, 1.57274
19.000, -0.38051, 0.30530, -1.01881, 0.71476, 1.57525
19.050, -0.38051, 0.30604, -1.01616, 0.71256, 1.57931
19.100, -0.38051, 0.30714, -1.01223, 0.70932, 1.58529
19.150, -0.38051, 0.30865, -1.00677, 0.70485, 1.59358
19.200, -0.38051, 0.31065, -0.99960, 0.69895, 1.60454
19.250, -0.38051, 0.31320, -0.99067, 0.69141, 1.61855
19.300, -0.38051, 0.31638, -0.97999, 0.68203, 1.63596
19.350, -0.38051, 0.32025, -0.96763, 0.67063, 1.65685
19.400, -0.38051, 0.32486, -0.95378, 0.65699, 1.68125
19.450, -0.38051, 0.33020, -0.93871, 0.64106, 1.70904
19.500, -0.38051, 0.33627, -0.92267, 0.62282, 1.73987
19.550, -0.38051, 0.34309, -0.90590, 0.60229, 1.77339
19.600, -0.38051, 0.35063, -0.88865, 0.57955, 1.80920
19.650, -0.38051, 0.35886, -0.87118, 0.55480, 1.84695
19.700, -0.38051, 0.36771, -0.85368, 0.52824, 1.88625
19.750, -0.38051, 0.37710, -0.83618, 0.50006, 1.92673
19.800, -0.38051, 0.38698, -0.81868, 0.47047, 1.96801
19.850, -0.38051, 0.39727, -0.80118, 0.43966, 2.00972
19.900, -0.38051, 0.40791, -0.78368, 0.40784, 2.05153
19.950, -0.38051, 0.41882, -0.76618, 0.37521, 2.09334
20.000, -0.38051, 0.42994, -0.74868, 0.34196, 2.13515
20.050, -0.38051, 0.44121, -0.73118, 0.30830, 2.17696
20.100, -0.38051, 0.45254, -0.71368, 0.27443, 2.21877
20.150, -0.38051, 0.46389, -0.69618, 0.24051, 2.26058
20.200, -0.38051, 0.47524, -0.67868, 0.20659, 2.30239
20.250, -0.38051, 0.48659, -0.66118, 0.17268, 2.34419
20.300, -0.38051, 0.49793, -0.64368, 0.13876, 2.38600
20.350, -0.38051, 0.50928, -0.62618, 0.10484, 2.42781
20.400, -0.38051, 0.52063, -0.60868, 0.07093, 2.46962
20.450, -0.38051, 0.53198, -0.59118, 0.03702, 2.51143
20.500, -0.38051, 0.54329, -0.57368, 0.00326, 2.55324
20.550, -0.38051, 0.55450, -0.55618, -0.03017, 2.59505
20.600, -0.38051, 0.56554, -0.53868, -0.06305, 2.63686
20.650, -0.38051, 0.57634, -0.52118, -0.09519, 2.67867
20.700, -0.38051, 0.58684, -0.50368, -0.12640, 2.72046
20.750, -0.38051, 0.59696, -0.48618, -0.15646, 2.76204
20.800, -0.38051, 0.60663, -0.46868, -0.18519, 2.80303
20.850, -0.38051, 0.61580, -0.45118, -0.21237, 2.84305
20.900, -0.38051, 0.62439, -0.43368, -0.23782, 2.88173
20.950, -0.38051, 0.63233, -0.41628, -0.26133, 2.91870
21.000, -0.38051, 0.63956, -0.39921, -0.28270, 2.95358
21.050, -0.38051, 0.64605, -0.38272, -0.30179, 2.98600
21.100, -0.38051, 0.65181, -0.36706, -0.31857, 3.01558
21.150, -0.38051, 0.65683, -0.35249, -0.33306, 3.04196
21.200, -0.38051, 0.66112, -0.33925, -0.34527, 3.06486
21.250, -0.38051, 0.66468, -0.32759, -0.35538, 3.08427
21.300, -0.38051, 0.66758, -0.31767, -0.36357, 3.10020
21.350, -0.38051, 0.66989, -0.30949, -0.37006, 3.11287
21.400, -0.38051, 0.67167, -0.30307, -0.37504, 3.12264
21.450, -0.38051, 0.67299, -0.29830, -0.37871, 3.12991
21.500, -0.38051, 0.67393, -0.29495, -0.38127, 3.13502
21.550, -0.38051, 0.67454, -0.29277, -0.38292, 3.13838
21.600, -0.38051, 0.67489, -0.29150, -0.38386, 3.14033
21.650, -0.38051, 0.67506, -0.29090, -0.38429, 3.14127
21.700, -0.38051, 0.67512, -0.29072, -0.38440, 3.14157
21.750, -0.38051, 0.67512, -0.29071, -0.38441, 3.14159
21.800, -0.38051, 0.67512, -0.29071, -0.38441, 3.14159
21.850, -0.38051, 0.67512, -0.29071, -0.38441, 3.14159
21.900, -0.38051, 0.67512, -0.29071, -0.38441, 3.14159
21.950, -0.38051, 0.67512, -0.29071, -0.38441, 3.14160
22.000, -0.38051, 0.67512, -0.29071, -0.38441, 3.14160
22.050, -0.38051, 0.67512, -0.29071, -0.38441, 3.14160
22.100, -0.38051, 0.67512, -0.29071, -0.38440, 3.14160
22.150, -0.38051, 0.67512, -0.29071, -0.38440, 3.14160
22.200, -0.38051, 0.67512, -0.29071, -0.38440, 3.14160
22.250, -0.38051, 0.67512, -0.29071, -0.38440, 3.14160
22.300, -0.38051, 0.67512, -0.29071, -0.38440, 3.14160
22.350, -0.38051, 0.67512, -0.29071, -0.38440, 3.14160
22.400, -0.38051, 0.67512, -0.29071, -0.38440, 3.14160
22.450, -0.38051, 0.67512, -0.29071, -0.38440, 3.14160
22.500, -0.38051, 0.67512, -0.29071, -0.38441, 3.14160
22.550, -0.38051, 0.67512, -0.29071, -0.38441, 3.14160
22.600, -0.38051, 0.67512, -0.29071, -0.38441, 3.14160
22.650, -0.38051, 0.67512, -0.29071, -0.38441, 3.14159
22.700, -0.38051, 0.67512, -0.29071, -0.38441, 3.14159
22.750, -0.38051, 0.67513, -0.29071, -0.38441, 3.14158
22.800, -0.38049, 0.67526, -0.29084, -0.38445, 3.14137
22.850, -0.38044, 0.67577, -0.29130, -0.38456, 3.14062
22.900, -0.38033, 0.67690, -0.29233, -0.38480, 3.13896
22.950, -0.38014, 0.67892, -0.29415, -0.38521, 3.13605
23.000, -0.37984, 0.68205, -0.29700, -0.38584, 3.13154
23.050, -0.37941, 0.68656, -0.30108, -0.38674, 3.12507
23.100, -0.37883, 0.69269, -0.30664, -0.38795, 3.11629
23.150, -0.37808, 0.70056, -0.31383, -0.38952, 3.10484
23.200, -0.37713, 0.71019, -0.32265, -0.39149, 3.09038
23.250, -0.37598, 0.72156, -0.33310, -0.39391, 3.07262
23.300, -0.37462, 0.73455, -0.34514, -0.39683, 3.05149
23.350, -0.37307, 0.74892, -0.35855, -0.40030, 3.02701
23.400, -0.37131, 0.76440, -0.37311, -0.40436, 2.99931
23.450, -0.36935, 0.78077, -0.38859, -0.40906, 2.96872
23.500, -0.36719, 0.79776, -0.40476, -0.41444, 2.93560
23.550, -0.36482, 0.81512, -0.42140, -0.42055, 2.90031
23.600, -0.36225, 0.83262, -0.43829, -0.42744, 2.86319
23.650, -0.35948, 0.85012, -0.45522, -0.43516, 2.82460
23.700, -0.35651, 0.86762, -0.47215, -0.44374, 2.78489
23.750, -0.35333, 0.88512, -0.48908, -0.45319, 2.74441
23.800, -0.34995, 0.90262, -0.50601, -0.46351, 2.70351
23.850, -0.34637, 0.92012, -0.52294, -0.47471, 2.66253
23.900, -0.34259, 0.93762, -0.53987, -0.48677, 2.62154
23.950, -0.33860, 0.95512, -0.55680, -0.49971, 2.58055
24.000, -0.33441, 0.97262, -0.57373, -0.51348, 2.53956
24.050, -0.33002, 0.99012, -0.59066, -0.52804, 2.49858
24.100, -0.32542, 1.00762, -0.60758, -0.54334, 2.45759
24.150, -0.32063, 1.02512, -0.62451, -0.55935, 2.41660
24.200, -0.31563, 1.04262, -0.64144, -0.57600, 2.37561
24.250, -0.31042, 1.06012, -0.65837, -0.59326, 2.33462
24.300, -0.30502, 1.07762, -0.67530, -0.61107, 2.29364
24.350, -0.29941, 1.09512, -0.69223, -0.62939, 2.25265
24.400, -0.29360, 1.11262, -0.70916, -0.64818, 2.21166
24.450, -0.28760, 1.13012, -0.72609, -0.66739, 2.17067
24.500, -0.28142, 1.14762, -0.74302, -0.68697, 2.12969
24.550, -0.27509, 1.16512, -0.75995, -0.70687, 2.08870
24.600, -0.26864, 1.18262, -0.77688, -0.72705, 2.04771
24.650, -0.26208, 1.20012, -0.79381, -0.74746, 2.00672
24.700, -0.25543, 1.21762, -0.81074, -0.76805, 1.96573
24.750, -0.24873, 1.23512, -0.82767, -0.78879, 1.92475
24.800, -0.24200, 1.25262, -0.84460, -0.80961, 1.88376
24.850, -0.23525, 1.27012, -0.86153, -0.83048, 1.84277
24.900, -0.22849, 1.28762, -0.87846, -0.85136, 1.80178
24.950, -0.22174, 1.30512, -0.89539, -0.87223, 1.76080
25.000, -0.21499, 1.32262, -0.91232, -0.89311, 1.71981
25.050, -0.20824, 1.34012, -0.92925, -0.91398, 1.67882
25.100, -0.20149, 1.35762, -0.94618, -0.93486, 1.63783
25.150, -0.19474, 1.37512, -0.96311, -0.95573, 1.59684
25.200, -0.18798, 1.39262, -0.98004, -0.97661, 1.55586
25.250, -0.18123, 1.41012, -0.99697, -0.99749, 1.51487
25.300, -0.17448, 1.42762, -1.01390, -1.01836, 1.47388
25.350, -0.16773, 1.44512, -1.03083, -1.03924, 1.43289
25.400, -0.16098, 1.46262, -1.04776, -1.06011, 1.39191
25.450, -0.15423, 1.48012, -1.06469, -1.08099, 1.35092
25.500, -0.14748, 1.49762, -1.08162, -1.10186, 1.30993
25.550, -0.14072, 1.51512, -1.09855, -1.12274, 1.26894
25.600, -0.13398, 1.53262, -1.11548, -1.14357, 1.22795
25.650, -0.12726, 1.55012, -1.13241, -1.16431, 1.18697
25.700, -0.12060, 1.56762, -1.14934, -1.18492, 1.14598
25.750, -0.11401, 1.58512, -1.16627, -1.20535, 1.10499
25.800, -0.10752, 1.60262, -1.18320, -1.22556, 1.06400
25.850, -0.10115, 1.62012, -1.20013, -1.24549, 1.02302
25.900, -0.09492, 1.63762, -1.21706, -1.26510, 0.98203
25.950, -0.08885, 1.65512, -1.23398, -1.28434, 0.94104
26.000, -0.08298, 1.67262, -1.25091, -1.30317, 0.90005
26.050, -0.07730, 1.69012, -1.26784, -1.32154, 0.85906
26.100, -0.07183, 1.70762, -1.28477, -1.33941, 0.81808
26.150, -0.06656, 1.72512, -1.30170, -1.35672, 0.77709
26.200, -0.06150, 1.74262, -1.31863, -1.37343, 0.73610
26.250, -0.05663, 1.76012, -1.33556, -1.38950, 0.69511
26.300, -0.05197, 1.77762, -1.35249, -1.40487, 0.65413
26.350, -0.04752, 1.79512, -1.36942, -1.41951, 0.61314
26.400, -0.04326, 1.81262, -1.38635, -1.43336, 0.57215
26.450, -0.03921, 1.83012, -1.40328, -1.44637, 0.53116
26.500, -0.03536, 1.84762, -1.42021, -1.45852, 0.49017
26.550, -0.03171, 1.86512, -1.43714, -1.46980, 0.44919
26.600, -0.02826, 1.88262, -1.45407, -1.48021, 0.40824
26.650, -0.02502, 1.90012, -1.47100, -1.48974, 0.36761
26.700, -0.02198, 1.91762, -1.48793, -1.49841, 0.32766
26.750, -0.01914, 1.93512, -1.50486, -1.50620, 0.28873
26.800, -0.01651, 1.95262, -1.52178, -1.51317, 0.25118
26.850, -0.01408, 1.97006, -1.53853, -1.51936, 0.21535
26.900, -0.01185, 1.98722, -1.55490, -1.52481, 0.18161
26.950, -0.00982, 2.00385, -1.57065, -1.52957, 0.15030
27.000, -0.00799, 2.01971, -1.58556, -1.53369, 0.12178
27.050, -0.00637, 2.03453, -1.59940, -1.53721, 0.09640
27.100, -0.00495, 2.04807, -1.61195, -1.54018, 0.07437
27.150, -0.00374, 2.06008, -1.62298, -1.54265, 0.05569
27.200, -0.00272, 2.07036, -1.63238, -1.54466, 0.04035
27.250, -0.00191, 2.07890, -1.64014, -1.54627, 0.02813
27.300, -0.00127, 2.08569, -1.64627, -1.54751, 0.01866
27.350, -0.00080, 2.09079, -1.65085, -1.54843, 0.01160
27.400, -0.00046, 2.09441, -1.65411, -1.54909, 0.00659
27.450, -0.00023, 2.09682, -1.65627, -1.54952, 0.00328
27.500, -0.00010, 2.09826, -1.65755, -1.54977, 0.00132
27.550, -0.00003, 2.09897, -1.65819, -1.54990, 0.00035
27.600, -0.00000, 2.09922, -1.65841, -1.54994, 0.00003
