kutzer/Scor6AxisToolbox/Scor6AxisToolbox Test Functions/ScorBotBoxData_sCurve/BSEPR_Position_90Hz.csv
Time_(s), Base_Joint_Position_(rad), Shoulder_Joint_Position_(rad), Elbow_Joint_Position_(rad), Wrist_Pitch_Joint_Position_(rad), Wrist_Roll_Joint_Position_(rad)
0.000, 0.00000, 2.09925, -1.65843, -1.54994, 0.00000
0.011, -0.00000, 2.09925, -1.65843, -1.54994, -0.00000
0.022, -0.00000, 2.09924, -1.65842, -1.54994, -0.00001
0.033, -0.00000, 2.09923, -1.65841, -1.54993, -0.00003
0.044, -0.00001, 2.09921, -1.65839, -1.54993, -0.00006
0.056, -0.00001, 2.09918, -1.65836, -1.54992, -0.00012
0.067, -0.00001, 2.09913, -1.65832, -1.54991, -0.00019
0.078, -0.00002, 2.09906, -1.65826, -1.54989, -0.00029
0.089, -0.00003, 2.09897, -1.65818, -1.54987, -0.00042
0.100, -0.00004, 2.09886, -1.65808, -1.54985, -0.00058
0.111, -0.00006, 2.09873, -1.65796, -1.54982, -0.00078
0.122, -0.00007, 2.09856, -1.65781, -1.54978, -0.00103
0.133, -0.00009, 2.09837, -1.65763, -1.54974, -0.00131
0.144, -0.00011, 2.09814, -1.65742, -1.54969, -0.00165
0.156, -0.00014, 2.09787, -1.65718, -1.54963, -0.00204
0.167, -0.00017, 2.09757, -1.65690, -1.54957, -0.00248
0.178, -0.00020, 2.09722, -1.65658, -1.54950, -0.00299
0.189, -0.00024, 2.09682, -1.65623, -1.54942, -0.00356
0.200, -0.00029, 2.09638, -1.65583, -1.54933, -0.00420
0.211, -0.00033, 2.09589, -1.65538, -1.54923, -0.00491
0.222, -0.00039, 2.09534, -1.65488, -1.54911, -0.00570
0.233, -0.00044, 2.09474, -1.65434, -1.54899, -0.00657
0.244, -0.00051, 2.09408, -1.65374, -1.54886, -0.00752
0.256, -0.00058, 2.09336, -1.65308, -1.54871, -0.00856
0.267, -0.00065, 2.09257, -1.65237, -1.54856, -0.00969
0.278, -0.00073, 2.09172, -1.65160, -1.54839, -0.01092
0.289, -0.00082, 2.09079, -1.65076, -1.54820, -0.01225
0.300, -0.00091, 2.08980, -1.64986, -1.54800, -0.01368
0.311, -0.00102, 2.08872, -1.64888, -1.54779, -0.01521
0.322, -0.00112, 2.08757, -1.64784, -1.54756, -0.01686
0.333, -0.00124, 2.08634, -1.64673, -1.54732, -0.01862
0.344, -0.00136, 2.08503, -1.64554, -1.54706, -0.02050
0.356, -0.00150, 2.08363, -1.64427, -1.54679, -0.02251
0.367, -0.00164, 2.08214, -1.64292, -1.54649, -0.02464
0.378, -0.00179, 2.08057, -1.64149, -1.54618, -0.02690
0.389, -0.00194, 2.07891, -1.63998, -1.54585, -0.02929
0.400, -0.00211, 2.07716, -1.63838, -1.54551, -0.03183
0.411, -0.00229, 2.07533, -1.63671, -1.54514, -0.03450
0.422, -0.00247, 2.07341, -1.63496, -1.54476, -0.03732
0.433, -0.00267, 2.07141, -1.63312, -1.54435, -0.04029
0.444, -0.00287, 2.06932, -1.63121, -1.54392, -0.04342
0.456, -0.00309, 2.06714, -1.62921, -1.54348, -0.04670
0.467, -0.00331, 2.06488, -1.62713, -1.54301, -0.05014
0.478, -0.00355, 2.06253, -1.62497, -1.54252, -0.05375
0.489, -0.00379, 2.06009, -1.62274, -1.54200, -0.05752
0.500, -0.00405, 2.05756, -1.62042, -1.54147, -0.06146
0.511, -0.00431, 2.05496, -1.61801, -1.54090, -0.06557
0.522, -0.00459, 2.05227, -1.61553, -1.54032, -0.06984
0.533, -0.00487, 2.04949, -1.61297, -1.53971, -0.07428
0.544, -0.00517, 2.04665, -1.61034, -1.53908, -0.07888
0.556, -0.00547, 2.04372, -1.60763, -1.53841, -0.08365
0.567, -0.00579, 2.04073, -1.60485, -1.53773, -0.08858
0.578, -0.00611, 2.03767, -1.60200, -1.53701, -0.09368
0.589, -0.00645, 2.03454, -1.59908, -1.53627, -0.09895
0.600, -0.00679, 2.03135, -1.59610, -1.53550, -0.10438
0.611, -0.00715, 2.02810, -1.59306, -1.53471, -0.10998
0.622, -0.00751, 2.02479, -1.58996, -1.53388, -0.11575
0.633, -0.00789, 2.02142, -1.58681, -1.53303, -0.12167
0.644, -0.00828, 2.01801, -1.58360, -1.53214, -0.12774
0.656, -0.00867, 2.01454, -1.58034, -1.53123, -0.13397
0.667, -0.00908, 2.01103, -1.57703, -1.53028, -0.14034
0.678, -0.00949, 2.00747, -1.57368, -1.52930, -0.14686
0.689, -0.00992, 2.00387, -1.57028, -1.52829, -0.15352
0.700, -0.01035, 2.00024, -1.56684, -1.52725, -0.16031
0.711, -0.01080, 1.99656, -1.56336, -1.52618, -0.16724
0.722, -0.01125, 1.99286, -1.55985, -1.52507, -0.17429
0.733, -0.01172, 1.98912, -1.55630, -1.52393, -0.18147
0.744, -0.01219, 1.98536, -1.55272, -1.52275, -0.18877
0.756, -0.01268, 1.98157, -1.54911, -1.52154, -0.19618
0.767, -0.01317, 1.97776, -1.54547, -1.52029, -0.20371
0.778, -0.01368, 1.97393, -1.54181, -1.51901, -0.21134
0.789, -0.01419, 1.97008, -1.53813, -1.51769, -0.21908
0.800, -0.01472, 1.96622, -1.53444, -1.51633, -0.22692
0.811, -0.01525, 1.96235, -1.53072, -1.51494, -0.23486
0.822, -0.01580, 1.95847, -1.52699, -1.51351, -0.24289
0.833, -0.01635, 1.95458, -1.52325, -1.51204, -0.25102
0.844, -0.01692, 1.95069, -1.51950, -1.51053, -0.25922
0.856, -0.01750, 1.94681, -1.51574, -1.50898, -0.26751
0.867, -0.01808, 1.94292, -1.51198, -1.50739, -0.27588
0.878, -0.01868, 1.93903, -1.50822, -1.50576, -0.28432
0.889, -0.01928, 1.93514, -1.50446, -1.50409, -0.29283
0.900, -0.01990, 1.93125, -1.50069, -1.50238, -0.30140
0.911, -0.02052, 1.92736, -1.49693, -1.50063, -0.31004
0.922, -0.02116, 1.92347, -1.49317, -1.49883, -0.31874
0.933, -0.02180, 1.91958, -1.48941, -1.49699, -0.32749
0.944, -0.02246, 1.91569, -1.48565, -1.49511, -0.33629
0.956, -0.02312, 1.91181, -1.48188, -1.49318, -0.34514
0.967, -0.02380, 1.90792, -1.47812, -1.49121, -0.35403
0.978, -0.02448, 1.90403, -1.47436, -1.48920, -0.36296
0.989, -0.02518, 1.90014, -1.47060, -1.48714, -0.37192
1.000, -0.02588, 1.89625, -1.46684, -1.48505, -0.38092
1.011, -0.02660, 1.89236, -1.46307, -1.48291, -0.38995
1.022, -0.02733, 1.88847, -1.45931, -1.48072, -0.39899
1.033, -0.02806, 1.88458, -1.45555, -1.47849, -0.40806
1.044, -0.02881, 1.88069, -1.45179, -1.47622, -0.41714
1.056, -0.02956, 1.87681, -1.44802, -1.47391, -0.42624
1.067, -0.03033, 1.87292, -1.44426, -1.47155, -0.43534
1.078, -0.03110, 1.86903, -1.44050, -1.46915, -0.44445
1.089, -0.03189, 1.86514, -1.43674, -1.46671, -0.45356
1.100, -0.03268, 1.86125, -1.43298, -1.46423, -0.46267
1.111, -0.03349, 1.85736, -1.42921, -1.46170, -0.47178
1.122, -0.03430, 1.85347, -1.42545, -1.45913, -0.48089
1.133, -0.03513, 1.84958, -1.42169, -1.45651, -0.48999
1.144, -0.03596, 1.84569, -1.41793, -1.45385, -0.49910
1.156, -0.03681, 1.84181, -1.41417, -1.45115, -0.50821
1.167, -0.03767, 1.83792, -1.41040, -1.44841, -0.51732
1.178, -0.03853, 1.83403, -1.40664, -1.44562, -0.52643
1.189, -0.03941, 1.83014, -1.40288, -1.44279, -0.53554
1.200, -0.04029, 1.82625, -1.39912, -1.43992, -0.54464
1.211, -0.04119, 1.82236, -1.39535, -1.43701, -0.55375
1.222, -0.04209, 1.81847, -1.39159, -1.43405, -0.56286
1.233, -0.04301, 1.81458, -1.38783, -1.43105, -0.57197
1.244, -0.04393, 1.81069, -1.38407, -1.42801, -0.58108
1.256, -0.04487, 1.80681, -1.38031, -1.42493, -0.59019
1.267, -0.04581, 1.80292, -1.37654, -1.42182, -0.59929
1.278, -0.04677, 1.79903, -1.37278, -1.41866, -0.60840
1.289, -0.04774, 1.79514, -1.36902, -1.41546, -0.61751
1.300, -0.04871, 1.79125, -1.36526, -1.41223, -0.62662
1.311, -0.04970, 1.78736, -1.36149, -1.40896, -0.63573
1.322, -0.05069, 1.78347, -1.35773, -1.40565, -0.64484
1.333, -0.05170, 1.77958, -1.35397, -1.40230, -0.65394
1.344, -0.05271, 1.77569, -1.35021, -1.39892, -0.66305
1.356, -0.05374, 1.77181, -1.34645, -1.39550, -0.67216
1.367, -0.05477, 1.76792, -1.34268, -1.39205, -0.68127
1.378, -0.05582, 1.76403, -1.33892, -1.38856, -0.69038
1.389, -0.05687, 1.76014, -1.33516, -1.38504, -0.69949
1.400, -0.05794, 1.75625, -1.33140, -1.38148, -0.70860
1.411, -0.05902, 1.75236, -1.32764, -1.37790, -0.71770
1.422, -0.06010, 1.74847, -1.32387, -1.37428, -0.72681
1.433, -0.06120, 1.74458, -1.32011, -1.37062, -0.73592
1.444, -0.06230, 1.74069, -1.31635, -1.36694, -0.74503
1.456, -0.06342, 1.73681, -1.31259, -1.36323, -0.75414
1.467, -0.06454, 1.73292, -1.30882, -1.35948, -0.76325
1.478, -0.06568, 1.72903, -1.30506, -1.35570, -0.77235
1.489, -0.06682, 1.72514, -1.30130, -1.35190, -0.78146
1.500, -0.06798, 1.72125, -1.29754, -1.34807, -0.79057
1.511, -0.06915, 1.71736, -1.29378, -1.34420, -0.79968
1.522, -0.07032, 1.71347, -1.29001, -1.34031, -0.80879
1.533, -0.07151, 1.70958, -1.28625, -1.33640, -0.81790
1.544, -0.07270, 1.70569, -1.28249, -1.33245, -0.82700
1.556, -0.07391, 1.70181, -1.27873, -1.32848, -0.83611
1.567, -0.07512, 1.69792, -1.27496, -1.32448, -0.84522
1.578, -0.07635, 1.69403, -1.27120, -1.32046, -0.85433
1.589, -0.07759, 1.69014, -1.26744, -1.31642, -0.86344
1.600, -0.07883, 1.68625, -1.26368, -1.31234, -0.87255
1.611, -0.08009, 1.68236, -1.25992, -1.30825, -0.88165
1.622, -0.08135, 1.67847, -1.25615, -1.30413, -0.89076
1.633, -0.08263, 1.67458, -1.25239, -1.29999, -0.89987
1.644, -0.08391, 1.67069, -1.24863, -1.29583, -0.90898
1.656, -0.08521, 1.66681, -1.24487, -1.29164, -0.91809
1.667, -0.08651, 1.66292, -1.24111, -1.28743, -0.92720
1.678, -0.08783, 1.65903, -1.23734, -1.28321, -0.93631
1.689, -0.08915, 1.65514, -1.23358, -1.27896, -0.94541
1.700, -0.09049, 1.65125, -1.22982, -1.27469, -0.95452
1.711, -0.09183, 1.64736, -1.22606, -1.27040, -0.96363
1.722, -0.09318, 1.64347, -1.22229, -1.26610, -0.97274
1.733, -0.09454, 1.63958, -1.21853, -1.26177, -0.98185
1.744, -0.09591, 1.63569, -1.21477, -1.25743, -0.99096
1.756, -0.09729, 1.63181, -1.21101, -1.25307, -1.00006
1.767, -0.09867, 1.62792, -1.20725, -1.24870, -1.00917
1.778, -0.10007, 1.62403, -1.20348, -1.24431, -1.01828
1.789, -0.10146, 1.62014, -1.19972, -1.23990, -1.02739
1.800, -0.10287, 1.61625, -1.19596, -1.23548, -1.03650
1.811, -0.10428, 1.61236, -1.19220, -1.23104, -1.04561
1.822, -0.10570, 1.60847, -1.18844, -1.22659, -1.05471
1.833, -0.10713, 1.60458, -1.18467, -1.22213, -1.06382
1.844, -0.10856, 1.60069, -1.18091, -1.21765, -1.07293
1.856, -0.11000, 1.59681, -1.17715, -1.21316, -1.08204
1.867, -0.11144, 1.59292, -1.17339, -1.20866, -1.09115
1.878, -0.11289, 1.58903, -1.16962, -1.20414, -1.10026
1.889, -0.11434, 1.58514, -1.16586, -1.19962, -1.10936
1.900, -0.11580, 1.58125, -1.16210, -1.19508, -1.11847
1.911, -0.11726, 1.57736, -1.15834, -1.19054, -1.12758
1.922, -0.11873, 1.57347, -1.15458, -1.18598, -1.13669
1.933, -0.12020, 1.56958, -1.15081, -1.18142, -1.14580
1.944, -0.12167, 1.56569, -1.14705, -1.17684, -1.15491
1.956, -0.12315, 1.56181, -1.14329, -1.17226, -1.16402
1.967, -0.12463, 1.55792, -1.13953, -1.16768, -1.17312
1.978, -0.12611, 1.55403, -1.13576, -1.16308, -1.18223
1.989, -0.12760, 1.55014, -1.13200, -1.15848, -1.19134
2.000, -0.12909, 1.54625, -1.12824, -1.15387, -1.20045
2.011, -0.13058, 1.54236, -1.12448, -1.14926, -1.20956
2.022, -0.13208, 1.53847, -1.12072, -1.14464, -1.21867
2.033, -0.13357, 1.53458, -1.11695, -1.14002, -1.22777
2.044, -0.13507, 1.53069, -1.11319, -1.13539, -1.23688
2.056, -0.13657, 1.52681, -1.10943, -1.13076, -1.24599
2.067, -0.13806, 1.52292, -1.10567, -1.12613, -1.25510
2.078, -0.13956, 1.51903, -1.10191, -1.12150, -1.26421
2.089, -0.14106, 1.51514, -1.09814, -1.11686, -1.27332
2.100, -0.14256, 1.51125, -1.09438, -1.11222, -1.28242
2.111, -0.14406, 1.50736, -1.09062, -1.10758, -1.29153
2.122, -0.14556, 1.50347, -1.08686, -1.10294, -1.30064
2.133, -0.14707, 1.49958, -1.08309, -1.09830, -1.30975
2.144, -0.14857, 1.49569, -1.07933, -1.09366, -1.31886
2.156, -0.15007, 1.49181, -1.07557, -1.08903, -1.32797
2.167, -0.15157, 1.48792, -1.07181, -1.08439, -1.33707
2.178, -0.15307, 1.48403, -1.06805, -1.07975, -1.34618
2.189, -0.15457, 1.48014, -1.06428, -1.07511, -1.35529
2.200, -0.15607, 1.47625, -1.06052, -1.07047, -1.36440
2.211, -0.15757, 1.47236, -1.05676, -1.06583, -1.37351
2.222, -0.15907, 1.46847, -1.05300, -1.06119, -1.38262
2.233, -0.16057, 1.46458, -1.04924, -1.05655, -1.39173
2.244, -0.16207, 1.46069, -1.04547, -1.05191, -1.40083
2.256, -0.16357, 1.45681, -1.04171, -1.04727, -1.40994
2.267, -0.16507, 1.45292, -1.03795, -1.04263, -1.41905
2.278, -0.16657, 1.44903, -1.03419, -1.03800, -1.42816
2.289, -0.16807, 1.44514, -1.03042, -1.03336, -1.43727
2.300, -0.16957, 1.44125, -1.02666, -1.02872, -1.44638
2.311, -0.17107, 1.43736, -1.02290, -1.02408, -1.45548
2.322, -0.17257, 1.43347, -1.01914, -1.01944, -1.46459
2.333, -0.17407, 1.42958, -1.01538, -1.01480, -1.47370
2.344, -0.17557, 1.42569, -1.01161, -1.01016, -1.48281
2.356, -0.17707, 1.42181, -1.00785, -1.00552, -1.49192
2.367, -0.17857, 1.41792, -1.00409, -1.00088, -1.50103
2.378, -0.18007, 1.41403, -1.00033, -0.99624, -1.51013
2.389, -0.18157, 1.41014, -0.99656, -0.99160, -1.51924
2.400, -0.18307, 1.40625, -0.99280, -0.98697, -1.52835
2.411, -0.18457, 1.40236, -0.98904, -0.98233, -1.53746
2.422, -0.18607, 1.39847, -0.98528, -0.97769, -1.54657
2.433, -0.18757, 1.39458, -0.98152, -0.97305, -1.55568
2.444, -0.18907, 1.39069, -0.97775, -0.96841, -1.56478
2.456, -0.19058, 1.38681, -0.97399, -0.96377, -1.57389
2.467, -0.19208, 1.38292, -0.97023, -0.95913, -1.58300
2.478, -0.19358, 1.37903, -0.96647, -0.95449, -1.59211
2.489, -0.19508, 1.37514, -0.96271, -0.94985, -1.60122
2.500, -0.19658, 1.37125, -0.95894, -0.94521, -1.61033
2.511, -0.19808, 1.36736, -0.95518, -0.94058, -1.61943
2.522, -0.19958, 1.36347, -0.95142, -0.93594, -1.62854
2.533, -0.20108, 1.35958, -0.94766, -0.93130, -1.63765
2.544, -0.20258, 1.35569, -0.94389, -0.92666, -1.64676
2.556, -0.20408, 1.35181, -0.94013, -0.92202, -1.65587
2.567, -0.20558, 1.34792, -0.93637, -0.91738, -1.66498
2.578, -0.20708, 1.34403, -0.93261, -0.91274, -1.67409
2.589, -0.20858, 1.34014, -0.92885, -0.90810, -1.68319
2.600, -0.21008, 1.33625, -0.92508, -0.90346, -1.69230
2.611, -0.21158, 1.33236, -0.92132, -0.89882, -1.70141
2.622, -0.21308, 1.32847, -0.91756, -0.89418, -1.71052
2.633, -0.21458, 1.32458, -0.91380, -0.88955, -1.71963
2.644, -0.21608, 1.32069, -0.91004, -0.88491, -1.72874
2.656, -0.21758, 1.31681, -0.90627, -0.88027, -1.73784
2.667, -0.21908, 1.31292, -0.90251, -0.87563, -1.74695
2.678, -0.22058, 1.30903, -0.89875, -0.87099, -1.75606
2.689, -0.22208, 1.30514, -0.89499, -0.86635, -1.76517
2.700, -0.22358, 1.30125, -0.89122, -0.86171, -1.77428
2.711, -0.22508, 1.29736, -0.88746, -0.85707, -1.78339
2.722, -0.22658, 1.29347, -0.88370, -0.85243, -1.79249
2.733, -0.22808, 1.28958, -0.87994, -0.84779, -1.80160
2.744, -0.22958, 1.28569, -0.87618, -0.84316, -1.81071
2.756, -0.23108, 1.28181, -0.87241, -0.83852, -1.81982
2.767, -0.23258, 1.27792, -0.86865, -0.83388, -1.82893
2.778, -0.23408, 1.27403, -0.86489, -0.82924, -1.83804
2.789, -0.23559, 1.27014, -0.86113, -0.82460, -1.84714
2.800, -0.23709, 1.26625, -0.85736, -0.81996, -1.85625
2.811, -0.23859, 1.26236, -0.85360, -0.81532, -1.86536
2.822, -0.24009, 1.25847, -0.84984, -0.81069, -1.87447
2.833, -0.24159, 1.25458, -0.84608, -0.80605, -1.88358
2.844, -0.24309, 1.25069, -0.84232, -0.80142, -1.89269
2.856, -0.24458, 1.24681, -0.83855, -0.79679, -1.90180
2.867, -0.24608, 1.24292, -0.83479, -0.79217, -1.91090
2.878, -0.24758, 1.23903, -0.83103, -0.78755, -1.92001
2.889, -0.24907, 1.23514, -0.82727, -0.78293, -1.92912
2.900, -0.25056, 1.23125, -0.82351, -0.77832, -1.93823
2.911, -0.25205, 1.22736, -0.81974, -0.77372, -1.94734
2.922, -0.25354, 1.22347, -0.81598, -0.76912, -1.95645
2.933, -0.25503, 1.21958, -0.81222, -0.76453, -1.96555
2.944, -0.25651, 1.21569, -0.80846, -0.75994, -1.97466
2.956, -0.25799, 1.21181, -0.80469, -0.75537, -1.98377
2.967, -0.25947, 1.20792, -0.80093, -0.75080, -1.99288
2.978, -0.26094, 1.20403, -0.79717, -0.74624, -2.00199
2.989, -0.26241, 1.20014, -0.79341, -0.74169, -2.01110
3.000, -0.26387, 1.19625, -0.78965, -0.73715, -2.02020
3.011, -0.26533, 1.19236, -0.78588, -0.73262, -2.02931
3.022, -0.26679, 1.18847, -0.78212, -0.72810, -2.03842
3.033, -0.26824, 1.18458, -0.77836, -0.72359, -2.04753
3.044, -0.26969, 1.18069, -0.77460, -0.71909, -2.05664
3.056, -0.27113, 1.17681, -0.77084, -0.71461, -2.06575
3.067, -0.27256, 1.17292, -0.76707, -0.71013, -2.07485
3.078, -0.27399, 1.16903, -0.76331, -0.70568, -2.08396
3.089, -0.27541, 1.16514, -0.75955, -0.70123, -2.09307
3.100, -0.27683, 1.16125, -0.75579, -0.69680, -2.10218
3.111, -0.27824, 1.15736, -0.75202, -0.69239, -2.11129
3.122, -0.27964, 1.15347, -0.74826, -0.68799, -2.12040
3.133, -0.28104, 1.14958, -0.74450, -0.68360, -2.12951
3.144, -0.28243, 1.14569, -0.74074, -0.67923, -2.13861
3.156, -0.28381, 1.14181, -0.73698, -0.67488, -2.14772
3.167, -0.28518, 1.13792, -0.73321, -0.67055, -2.15683
3.178, -0.28655, 1.13403, -0.72945, -0.66624, -2.16594
3.189, -0.28790, 1.13014, -0.72569, -0.66194, -2.17505
3.200, -0.28925, 1.12625, -0.72193, -0.65766, -2.18416
3.211, -0.29059, 1.12236, -0.71816, -0.65340, -2.19326
3.222, -0.29192, 1.11847, -0.71440, -0.64916, -2.20237
3.233, -0.29324, 1.11458, -0.71064, -0.64495, -2.21148
3.244, -0.29455, 1.11069, -0.70688, -0.64075, -2.22059
3.256, -0.29586, 1.10681, -0.70312, -0.63657, -2.22970
3.267, -0.29715, 1.10292, -0.69935, -0.63242, -2.23881
3.278, -0.29843, 1.09903, -0.69559, -0.62829, -2.24791
3.289, -0.29970, 1.09514, -0.69183, -0.62418, -2.25702
3.300, -0.30096, 1.09125, -0.68807, -0.62010, -2.26613
3.311, -0.30221, 1.08736, -0.68431, -0.61604, -2.27524
3.322, -0.30345, 1.08347, -0.68054, -0.61200, -2.28435
3.333, -0.30468, 1.07958, -0.67678, -0.60799, -2.29346
3.344, -0.30591, 1.07569, -0.67302, -0.60401, -2.30256
3.356, -0.30712, 1.07181, -0.66926, -0.60005, -2.31167
3.367, -0.30832, 1.06792, -0.66549, -0.59612, -2.32078
3.378, -0.30951, 1.06403, -0.66173, -0.59221, -2.32989
3.389, -0.31069, 1.06014, -0.65797, -0.58834, -2.33900
3.400, -0.31186, 1.05625, -0.65421, -0.58449, -2.34811
3.411, -0.31302, 1.05236, -0.65045, -0.58067, -2.35721
3.422, -0.31418, 1.04847, -0.64668, -0.57688, -2.36632
3.433, -0.31532, 1.04458, -0.64292, -0.57311, -2.37543
3.444, -0.31645, 1.04069, -0.63916, -0.56938, -2.38454
3.456, -0.31757, 1.03681, -0.63540, -0.56568, -2.39365
3.467, -0.31868, 1.03292, -0.63164, -0.56201, -2.40276
3.478, -0.31978, 1.02903, -0.62787, -0.55838, -2.41187
3.489, -0.32087, 1.02514, -0.62411, -0.55477, -2.42097
3.500, -0.32195, 1.02125, -0.62035, -0.55120, -2.43008
3.511, -0.32303, 1.01736, -0.61659, -0.54766, -2.43919
3.522, -0.32409, 1.01347, -0.61282, -0.54415, -2.44830
3.533, -0.32514, 1.00958, -0.60906, -0.54068, -2.45741
3.544, -0.32618, 1.00569, -0.60530, -0.53725, -2.46652
3.556, -0.32721, 1.00181, -0.60154, -0.53385, -2.47562
3.567, -0.32823, 0.99792, -0.59778, -0.53048, -2.48473
3.578, -0.32924, 0.99403, -0.59401, -0.52715, -2.49384
3.589, -0.33024, 0.99014, -0.59025, -0.52386, -2.50295
3.600, -0.33124, 0.98625, -0.58649, -0.52061, -2.51206
3.611, -0.33222, 0.98236, -0.58273, -0.51739, -2.52117
3.622, -0.33319, 0.97847, -0.57896, -0.51421, -2.53027
3.633, -0.33415, 0.97458, -0.57520, -0.51107, -2.53938
3.644, -0.33510, 0.97069, -0.57144, -0.50797, -2.54849
3.656, -0.33604, 0.96681, -0.56768, -0.50491, -2.55760
3.667, -0.33697, 0.96292, -0.56392, -0.50189, -2.56671
3.678, -0.33789, 0.95903, -0.56015, -0.49891, -2.57582
3.689, -0.33880, 0.95514, -0.55639, -0.49598, -2.58492
3.700, -0.33971, 0.95125, -0.55263, -0.49308, -2.59403
3.711, -0.34060, 0.94736, -0.54887, -0.49023, -2.60314
3.722, -0.34148, 0.94347, -0.54511, -0.48742, -2.61225
3.733, -0.34235, 0.93958, -0.54134, -0.48465, -2.62136
3.744, -0.34321, 0.93569, -0.53758, -0.48193, -2.63047
3.756, -0.34406, 0.93181, -0.53382, -0.47925, -2.63958
3.767, -0.34490, 0.92792, -0.53006, -0.47661, -2.64868
3.778, -0.34573, 0.92403, -0.52629, -0.47401, -2.65779
3.789, -0.34656, 0.92014, -0.52253, -0.47146, -2.66690
3.800, -0.34737, 0.91625, -0.51877, -0.46896, -2.67601
3.811, -0.34817, 0.91236, -0.51501, -0.46649, -2.68512
3.822, -0.34896, 0.90847, -0.51125, -0.46407, -2.69423
3.833, -0.34974, 0.90458, -0.50748, -0.46169, -2.70333
3.844, -0.35051, 0.90069, -0.50372, -0.45935, -2.71244
3.856, -0.35127, 0.89681, -0.49996, -0.45706, -2.72154
3.867, -0.35202, 0.89292, -0.49620, -0.45481, -2.73063
3.878, -0.35276, 0.88903, -0.49243, -0.45260, -2.73970
3.889, -0.35350, 0.88514, -0.48867, -0.45044, -2.74875
3.900, -0.35422, 0.88125, -0.48491, -0.44832, -2.75779
3.911, -0.35493, 0.87736, -0.48115, -0.44624, -2.76679
3.922, -0.35563, 0.87347, -0.47739, -0.44420, -2.77577
3.933, -0.35632, 0.86958, -0.47362, -0.44221, -2.78471
3.944, -0.35700, 0.86569, -0.46986, -0.44026, -2.79361
3.956, -0.35767, 0.86181, -0.46610, -0.43836, -2.80248
3.967, -0.35833, 0.85792, -0.46234, -0.43649, -2.81129
3.978, -0.35898, 0.85403, -0.45858, -0.43467, -2.82006
3.989, -0.35963, 0.85014, -0.45481, -0.43290, -2.82878
4.000, -0.36026, 0.84625, -0.45105, -0.43116, -2.83743
4.011, -0.36088, 0.84236, -0.44729, -0.42947, -2.84603
4.022, -0.36149, 0.83847, -0.44353, -0.42782, -2.85456
4.033, -0.36209, 0.83458, -0.43976, -0.42621, -2.86302
4.044, -0.36268, 0.83069, -0.43600, -0.42464, -2.87141
4.056, -0.36326, 0.82681, -0.43224, -0.42311, -2.87973
4.067, -0.36383, 0.82292, -0.42849, -0.42162, -2.88796
4.078, -0.36439, 0.81903, -0.42474, -0.42017, -2.89611
4.089, -0.36494, 0.81514, -0.42100, -0.41875, -2.90417
4.100, -0.36549, 0.81127, -0.41728, -0.41738, -2.91214
4.111, -0.36602, 0.80740, -0.41357, -0.41604, -2.92001
4.122, -0.36654, 0.80354, -0.40987, -0.41474, -2.92778
4.133, -0.36705, 0.79969, -0.40620, -0.41347, -2.93545
4.144, -0.36755, 0.79587, -0.40255, -0.41224, -2.94301
4.156, -0.36804, 0.79206, -0.39892, -0.41105, -2.95047
4.167, -0.36852, 0.78828, -0.39532, -0.40988, -2.95780
4.178, -0.36899, 0.78452, -0.39175, -0.40876, -2.96502
4.189, -0.36945, 0.78079, -0.38821, -0.40767, -2.97211
4.200, -0.36990, 0.77709, -0.38471, -0.40661, -2.97908
4.211, -0.37035, 0.77342, -0.38124, -0.40558, -2.98591
4.222, -0.37078, 0.76979, -0.37781, -0.40459, -2.99261
4.233, -0.37120, 0.76620, -0.37443, -0.40362, -2.99918
4.244, -0.37161, 0.76265, -0.37109, -0.40269, -3.00560
4.256, -0.37201, 0.75915, -0.36779, -0.40179, -3.01187
4.267, -0.37240, 0.75569, -0.36455, -0.40092, -3.01800
4.278, -0.37278, 0.75229, -0.36135, -0.40008, -3.02397
4.289, -0.37315, 0.74893, -0.35822, -0.39927, -3.02978
4.300, -0.37351, 0.74563, -0.35514, -0.39848, -3.03543
4.311, -0.37386, 0.74239, -0.35211, -0.39773, -3.04092
4.322, -0.37421, 0.73921, -0.34915, -0.39700, -3.04624
4.333, -0.37454, 0.73610, -0.34626, -0.39630, -3.05139
4.344, -0.37486, 0.73305, -0.34343, -0.39562, -3.05638
4.356, -0.37517, 0.73007, -0.34067, -0.39497, -3.06120
4.367, -0.37547, 0.72716, -0.33798, -0.39435, -3.06586
4.378, -0.37576, 0.72433, -0.33537, -0.39375, -3.07035
4.389, -0.37604, 0.72157, -0.33284, -0.39318, -3.07467
4.400, -0.37631, 0.71890, -0.33038, -0.39263, -3.07883
4.411, -0.37657, 0.71631, -0.32800, -0.39210, -3.08283
4.422, -0.37682, 0.71380, -0.32571, -0.39160, -3.08665
4.433, -0.37706, 0.71138, -0.32349, -0.39112, -3.09031
4.444, -0.37730, 0.70905, -0.32136, -0.39066, -3.09381
4.456, -0.37752, 0.70680, -0.31931, -0.39022, -3.09714
4.467, -0.37773, 0.70464, -0.31734, -0.38981, -3.10031
4.478, -0.37793, 0.70256, -0.31544, -0.38941, -3.10333
4.489, -0.37812, 0.70057, -0.31364, -0.38903, -3.10620
4.500, -0.37830, 0.69867, -0.31191, -0.38868, -3.10892
4.511, -0.37847, 0.69686, -0.31026, -0.38834, -3.11150
4.522, -0.37863, 0.69513, -0.30869, -0.38802, -3.11394
4.533, -0.37879, 0.69349, -0.30720, -0.38772, -3.11624
4.544, -0.37893, 0.69193, -0.30580, -0.38743, -3.11841
4.556, -0.37907, 0.69046, -0.30447, -0.38717, -3.12046
4.567, -0.37920, 0.68908, -0.30323, -0.38691, -3.12238
4.578, -0.37932, 0.68778, -0.30206, -0.38668, -3.12418
4.589, -0.37943, 0.68657, -0.30097, -0.38646, -3.12586
4.600, -0.37954, 0.68543, -0.29995, -0.38625, -3.12743
4.611, -0.37964, 0.68437, -0.29900, -0.38606, -3.12890
4.622, -0.37973, 0.68339, -0.29812, -0.38588, -3.13026
4.633, -0.37981, 0.68248, -0.29730, -0.38572, -3.13151
4.644, -0.37989, 0.68164, -0.29654, -0.38557, -3.13268
4.656, -0.37996, 0.68087, -0.29585, -0.38543, -3.13375
4.667, -0.38003, 0.68016, -0.29521, -0.38530, -3.13472
4.678, -0.38009, 0.67951, -0.29463, -0.38518, -3.13562
4.689, -0.38015, 0.67892, -0.29410, -0.38508, -3.13643
4.700, -0.38020, 0.67838, -0.29362, -0.38498, -3.13717
4.711, -0.38024, 0.67790, -0.29319, -0.38489, -3.13783
4.722, -0.38028, 0.67747, -0.29280, -0.38482, -3.13842
4.733, -0.38032, 0.67708, -0.29245, -0.38475, -3.13895
4.744, -0.38035, 0.67674, -0.29215, -0.38469, -3.13942
4.756, -0.38038, 0.67644, -0.29188, -0.38464, -3.13982
4.767, -0.38041, 0.67618, -0.29165, -0.38459, -3.14018
4.778, -0.38043, 0.67596, -0.29145, -0.38455, -3.14048
4.789, -0.38045, 0.67577, -0.29128, -0.38452, -3.14073
4.800, -0.38046, 0.67561, -0.29114, -0.38449, -3.14095
4.811, -0.38047, 0.67548, -0.29103, -0.38447, -3.14112
4.822, -0.38048, 0.67538, -0.29093, -0.38445, -3.14126
4.833, -0.38049, 0.67529, -0.29086, -0.38444, -3.14137
4.844, -0.38050, 0.67523, -0.29081, -0.38443, -3.14145
4.856, -0.38050, 0.67519, -0.29077, -0.38442, -3.14151
4.867, -0.38051, 0.67515, -0.29074, -0.38441, -3.14155
4.878, -0.38051, 0.67514, -0.29072, -0.38441, -3.14157
4.889, -0.38051, 0.67513, -0.29071, -0.38441, -3.14159
4.900, -0.38051, 0.67512, -0.29071, -0.38441, -3.14159
4.911, -0.38051, 0.67512, -0.29071, -0.38441, -3.14159
4.922, -0.38051, 0.67512, -0.29071, -0.38441, -3.14159
4.933, -0.38051, 0.67512, -0.29071, -0.38441, -3.14159
4.944, -0.38051, 0.67512, -0.29071, -0.38441, -3.14159
4.956, -0.38051, 0.67512, -0.29071, -0.38441, -3.14159
4.967, -0.38051, 0.67512, -0.29071, -0.38441, -3.14159
4.978, -0.38051, 0.67512, -0.29071, -0.38441, -3.14159
4.989, -0.38051, 0.67512, -0.29071, -0.38441, -3.14159
5.000, -0.38051, 0.67512, -0.29071, -0.38441, -3.14159
5.011, -0.38051, 0.67512, -0.29071, -0.38441, -3.14159
5.022, -0.38051, 0.67512, -0.29071, -0.38441, -3.14159
5.033, -0.38051, 0.67512, -0.29071, -0.38441, -3.14159
5.044, -0.38051, 0.67512, -0.29071, -0.38441, -3.14159
5.056, -0.38051, 0.67512, -0.29071, -0.38441, -3.14159
5.067, -0.38051, 0.67512, -0.29071, -0.38441, -3.14159
5.078, -0.38051, 0.67512, -0.29071, -0.38441, -3.14159
5.089, -0.38051, 0.67512, -0.29071, -0.38441, -3.14159
5.100, -0.38051, 0.67512, -0.29071, -0.38441, -3.14159
5.111, -0.38051, 0.67512, -0.29071, -0.38441, -3.14159
5.122, -0.38051, 0.67512, -0.29071, -0.38441, -3.14159
5.133, -0.38051, 0.67512, -0.29071, -0.38441, -3.14159
5.144, -0.38051, 0.67512, -0.29071, -0.38441, -3.14159
5.156, -0.38051, 0.67512, -0.29071, -0.38441, -3.14159
5.167, -0.38051, 0.67512, -0.29071, -0.38441, -3.14159
5.178, -0.38051, 0.67512, -0.29071, -0.38441, -3.14159
5.189, -0.38051, 0.67512, -0.29071, -0.38441, -3.14159
5.200, -0.38051, 0.67512, -0.29071, -0.38441, -3.14159
5.211, -0.38051, 0.67512, -0.29071, -0.38441, -3.14159
5.222, -0.38051, 0.67512, -0.29071, -0.38441, -3.14159
5.233, -0.38051, 0.67512, -0.29071, -0.38441, -3.14159
5.244, -0.38051, 0.67512, -0.29071, -0.38441, -3.14159
5.256, -0.38051, 0.67512, -0.29071, -0.38441, -3.14159
5.267, -0.38051, 0.67512, -0.29071, -0.38441, -3.14159
5.278, -0.38051, 0.67512, -0.29071, -0.38441, -3.14159
5.289, -0.38051, 0.67512, -0.29071, -0.38441, -3.14159
5.300, -0.38051, 0.67512, -0.29071, -0.38441, -3.14159
5.311, -0.38051, 0.67512, -0.29071, -0.38441, -3.14159
5.322, -0.38051, 0.67512, -0.29071, -0.38441, -3.14159
5.333, -0.38051, 0.67512, -0.29071, -0.38441, -3.14159
5.344, -0.38051, 0.67512, -0.29071, -0.38441, -3.14159
5.356, -0.38051, 0.67512, -0.29071, -0.38441, -3.14159
5.367, -0.38051, 0.67512, -0.29071, -0.38441, -3.14159
5.378, -0.38051, 0.67512, -0.29071, -0.38441, -3.14159
5.389, -0.38051, 0.67512, -0.29071, -0.38441, -3.14159
5.400, -0.38051, 0.67512, -0.29071, -0.38441, -3.14159
5.411, -0.38051, 0.67512, -0.29071, -0.38441, -3.14159
5.422, -0.38051, 0.67512, -0.29071, -0.38441, -3.14159
5.433, -0.38051, 0.67512, -0.29071, -0.38441, -3.14159
5.444, -0.38051, 0.67512, -0.29071, -0.38441, -3.14159
5.456, -0.38051, 0.67512, -0.29071, -0.38441, -3.14159
5.467, -0.38051, 0.67512, -0.29071, -0.38441, -3.14159
5.478, -0.38051, 0.67512, -0.29071, -0.38441, -3.14159
5.489, -0.38051, 0.67512, -0.29071, -0.38441, -3.14159
5.500, -0.38051, 0.67512, -0.29071, -0.38441, -3.14159
5.511, -0.38051, 0.67512, -0.29071, -0.38441, -3.14159
5.522, -0.38051, 0.67512, -0.29071, -0.38441, -3.14159
5.533, -0.38051, 0.67512, -0.29071, -0.38441, -3.14159
5.544, -0.38051, 0.67512, -0.29071, -0.38441, -3.14159
5.556, -0.38051, 0.67512, -0.29071, -0.38441, -3.14159
5.567, -0.38051, 0.67512, -0.29071, -0.38441, -3.14159
5.578, -0.38051, 0.67512, -0.29071, -0.38441, -3.14160
5.589, -0.38051, 0.67512, -0.29071, -0.38441, -3.14160
5.600, -0.38051, 0.67512, -0.29071, -0.38441, -3.14160
5.611, -0.38051, 0.67512, -0.29071, -0.38441, -3.14160
5.622, -0.38051, 0.67512, -0.29071, -0.38441, -3.14160
5.633, -0.38051, 0.67512, -0.29071, -0.38441, -3.14160
5.644, -0.38051, 0.67512, -0.29071, -0.38441, -3.14160
5.656, -0.38051, 0.67512, -0.29071, -0.38441, -3.14160
5.667, -0.38051, 0.67512, -0.29071, -0.38441, -3.14160
5.678, -0.38051, 0.67512, -0.29071, -0.38441, -3.14160
5.689, -0.38051, 0.67512, -0.29071, -0.38441, -3.14160
5.700, -0.38051, 0.67512, -0.29071, -0.38441, -3.14160
5.711, -0.38051, 0.67512, -0.29071, -0.38441, -3.14160
5.722, -0.38051, 0.67512, -0.29071, -0.38441, -3.14160
5.733, -0.38051, 0.67512, -0.29071, -0.38441, -3.14159
5.744, -0.38051, 0.67512, -0.29071, -0.38441, -3.14159
5.756, -0.38051, 0.67512, -0.29071, -0.38441, -3.14159
5.767, -0.38051, 0.67512, -0.29071, -0.38441, -3.14159
5.778, -0.38051, 0.67512, -0.29071, -0.38441, -3.14159
5.789, -0.38051, 0.67512, -0.29071, -0.38441, -3.14159
5.800, -0.38051, 0.67512, -0.29071, -0.38441, -3.14159
5.811, -0.38051, 0.67512, -0.29071, -0.38441, -3.14159
5.822, -0.38051, 0.67512, -0.29071, -0.38441, -3.14159
5.833, -0.38051, 0.67512, -0.29071, -0.38441, -3.14159
5.844, -0.38051, 0.67512, -0.29071, -0.38441, -3.14159
5.856, -0.38051, 0.67512, -0.29071, -0.38441, -3.14159
5.867, -0.38051, 0.67512, -0.29071, -0.38441, -3.14159
5.878, -0.38051, 0.67512, -0.29071, -0.38441, -3.14159
5.889, -0.38051, 0.67512, -0.29071, -0.38441, -3.14159
5.900, -0.38051, 0.67512, -0.29071, -0.38441, -3.14159
5.911, -0.38051, 0.67512, -0.29071, -0.38441, -3.14159
5.922, -0.38051, 0.67512, -0.29071, -0.38441, -3.14159
5.933, -0.38050, 0.67512, -0.29071, -0.38441, -3.14158
5.944, -0.38049, 0.67512, -0.29071, -0.38441, -3.14157
5.956, -0.38047, 0.67512, -0.29071, -0.38441, -3.14154
5.967, -0.38043, 0.67512, -0.29071, -0.38441, -3.14151
5.978, -0.38038, 0.67512, -0.29071, -0.38441, -3.14146
5.989, -0.38031, 0.67512, -0.29071, -0.38441, -3.14139
6.000, -0.38023, 0.67512, -0.29071, -0.38441, -3.14130
6.011, -0.38011, 0.67512, -0.29071, -0.38441, -3.14120
6.022, -0.37997, 0.67512, -0.29071, -0.38441, -3.14106
6.033, -0.37981, 0.67512, -0.29071, -0.38441, -3.14090
6.044, -0.37961, 0.67512, -0.29071, -0.38441, -3.14072
6.056, -0.37937, 0.67512, -0.29071, -0.38441, -3.14050
6.067, -0.37910, 0.67512, -0.29071, -0.38441, -3.14024
6.078, -0.37879, 0.67512, -0.29071, -0.38441, -3.13995
6.089, -0.37844, 0.67512, -0.29071, -0.38441, -3.13962
6.100, -0.37804, 0.67512, -0.29071, -0.38441, -3.13925
6.111, -0.37759, 0.67512, -0.29071, -0.38441, -3.13884
6.122, -0.37710, 0.67512, -0.29071, -0.38441, -3.13838
6.133, -0.37655, 0.67512, -0.29071, -0.38441, -3.13787
6.144, -0.37596, 0.67512, -0.29071, -0.38441, -3.13731
6.156, -0.37531, 0.67512, -0.29071, -0.38441, -3.13669
6.167, -0.37462, 0.67512, -0.29071, -0.38441, -3.13602
6.178, -0.37387, 0.67512, -0.29071, -0.38441, -3.13529
6.189, -0.37308, 0.67512, -0.29071, -0.38441, -3.13450
6.200, -0.37224, 0.67512, -0.29071, -0.38441, -3.13365
6.211, -0.37135, 0.67512, -0.29071, -0.38441, -3.13273
6.222, -0.37041, 0.67512, -0.29071, -0.38441, -3.13174
6.233, -0.36942, 0.67512, -0.29071, -0.38441, -3.13068
6.244, -0.36838, 0.67512, -0.29071, -0.38441, -3.12955
6.256, -0.36729, 0.67512, -0.29071, -0.38441, -3.12834
6.267, -0.36615, 0.67512, -0.29071, -0.38441, -3.12705
6.278, -0.36496, 0.67512, -0.29071, -0.38441, -3.12569
6.289, -0.36373, 0.67512, -0.29071, -0.38441, -3.12424
6.300, -0.36244, 0.67512, -0.29071, -0.38441, -3.12270
6.311, -0.36110, 0.67512, -0.29071, -0.38441, -3.12108
6.322, -0.35972, 0.67512, -0.29071, -0.38441, -3.11937
6.333, -0.35828, 0.67512, -0.29071, -0.38441, -3.11756
6.344, -0.35680, 0.67512, -0.29071, -0.38441, -3.11566
6.356, -0.35527, 0.67512, -0.29071, -0.38441, -3.11366
6.367, -0.35368, 0.67512, -0.29071, -0.38441, -3.11156
6.378, -0.35205, 0.67512, -0.29071, -0.38441, -3.10935
6.389, -0.35037, 0.67512, -0.29071, -0.38441, -3.10705
6.400, -0.34864, 0.67512, -0.29071, -0.38441, -3.10463
6.411, -0.34686, 0.67512, -0.29071, -0.38441, -3.10211
6.422, -0.34503, 0.67512, -0.29071, -0.38441, -3.09947
6.433, -0.34315, 0.67512, -0.29071, -0.38441, -3.09671
6.444, -0.34122, 0.67512, -0.29071, -0.38441, -3.09384
6.456, -0.33924, 0.67512, -0.29071, -0.38441, -3.09085
6.467, -0.33722, 0.67512, -0.29071, -0.38441, -3.08774
6.478, -0.33514, 0.67512, -0.29071, -0.38441, -3.08451
6.489, -0.33302, 0.67512, -0.29071, -0.38441, -3.08115
6.500, -0.33084, 0.67512, -0.29071, -0.38441, -3.07767
6.511, -0.32862, 0.67512, -0.29071, -0.38441, -3.07407
6.522, -0.32634, 0.67512, -0.29071, -0.38441, -3.07034
6.533, -0.32402, 0.67512, -0.29071, -0.38441, -3.06650
6.544, -0.32164, 0.67512, -0.29071, -0.38441, -3.06253
6.556, -0.31922, 0.67512, -0.29071, -0.38441, -3.05844
6.567, -0.31675, 0.67512, -0.29071, -0.38441, -3.05422
6.578, -0.31423, 0.67512, -0.29071, -0.38441, -3.04989
6.589, -0.31166, 0.67512, -0.29071, -0.38441, -3.04543
6.600, -0.30904, 0.67512, -0.29071, -0.38441, -3.04085
6.611, -0.30637, 0.67512, -0.29071, -0.38441, -3.03615
6.622, -0.30365, 0.67512, -0.29071, -0.38441, -3.03132
6.633, -0.30088, 0.67512, -0.29071, -0.38441, -3.02637
6.644, -0.29807, 0.67512, -0.29071, -0.38441, -3.02131
6.656, -0.29520, 0.67512, -0.29071, -0.38441, -3.01613
6.667, -0.29228, 0.67512, -0.29071, -0.38441, -3.01084
6.678, -0.28932, 0.67512, -0.29071, -0.38441, -3.00544
6.689, -0.28632, 0.67512, -0.29071, -0.38441, -2.99993
6.700, -0.28327, 0.67512, -0.29071, -0.38441, -2.99432
6.711, -0.28018, 0.67512, -0.29071, -0.38441, -2.98860
6.722, -0.27706, 0.67512, -0.29071, -0.38441, -2.98279
6.733, -0.27391, 0.67512, -0.29071, -0.38441, -2.97687
6.744, -0.27073, 0.67512, -0.29071, -0.38441, -2.97086
6.756, -0.26752, 0.67512, -0.29071, -0.38441, -2.96476
6.767, -0.26428, 0.67512, -0.29071, -0.38441, -2.95856
6.778, -0.26102, 0.67512, -0.29071, -0.38441, -2.95228
6.789, -0.25775, 0.67512, -0.29071, -0.38441, -2.94591
6.800, -0.25445, 0.67512, -0.29071, -0.38441, -2.93946
6.811, -0.25115, 0.67512, -0.29071, -0.38441, -2.93293
6.822, -0.24783, 0.67512, -0.29071, -0.38441, -2.92632
6.833, -0.24451, 0.67512, -0.29071, -0.38441, -2.91963
6.844, -0.24118, 0.67512, -0.29071, -0.38441, -2.91287
6.856, -0.23784, 0.67512, -0.29071, -0.38441, -2.90604
6.867, -0.23451, 0.67512, -0.29071, -0.38441, -2.89914
6.878, -0.23118, 0.67512, -0.29071, -0.38441, -2.89218
6.889, -0.22784, 0.67512, -0.29071, -0.38441, -2.88515
6.900, -0.22451, 0.67512, -0.29071, -0.38441, -2.87806
6.911, -0.22118, 0.67512, -0.29071, -0.38441, -2.87091
6.922, -0.21784, 0.67512, -0.29071, -0.38441, -2.86371
6.933, -0.21451, 0.67512, -0.29071, -0.38441, -2.85645
6.944, -0.21118, 0.67512, -0.29071, -0.38441, -2.84914
6.956, -0.20784, 0.67512, -0.29071, -0.38441, -2.84178
6.967, -0.20451, 0.67512, -0.29071, -0.38441, -2.83438
6.978, -0.20118, 0.67512, -0.29071, -0.38441, -2.82693
6.989, -0.19784, 0.67512, -0.29071, -0.38441, -2.81943
7.000, -0.19451, 0.67512, -0.29071, -0.38441, -2.81191
7.011, -0.19118, 0.67512, -0.29071, -0.38441, -2.80434
7.022, -0.18784, 0.67512, -0.29071, -0.38441, -2.79674
7.033, -0.18451, 0.67512, -0.29071, -0.38441, -2.78911
7.044, -0.18118, 0.67512, -0.29071, -0.38441, -2.78144
7.056, -0.17784, 0.67512, -0.29071, -0.38441, -2.77375
7.067, -0.17451, 0.67512, -0.29071, -0.38441, -2.76604
7.078, -0.17118, 0.67512, -0.29071, -0.38441, -2.75831
7.089, -0.16784, 0.67512, -0.29071, -0.38441, -2.75055
7.100, -0.16451, 0.67512, -0.29071, -0.38441, -2.74278
7.111, -0.16118, 0.67512, -0.29071, -0.38441, -2.73499
7.122, -0.15784, 0.67512, -0.29071, -0.38441, -2.72720
7.133, -0.15451, 0.67512, -0.29071, -0.38441, -2.71939
7.144, -0.15118, 0.67512, -0.29071, -0.38441, -2.71157
7.156, -0.14784, 0.67512, -0.29071, -0.38441, -2.70375
7.167, -0.14451, 0.67512, -0.29071, -0.38441, -2.69593
7.178, -0.14118, 0.67512, -0.29071, -0.38441, -2.68811
7.189, -0.13784, 0.67512, -0.29071, -0.38441, -2.68029
7.200, -0.13451, 0.67512, -0.29071, -0.38441, -2.67246
7.211, -0.13118, 0.67512, -0.29071, -0.38441, -2.66464
7.222, -0.12784, 0.67512, -0.29071, -0.38441, -2.65682
7.233, -0.12451, 0.67512, -0.29071, -0.38441, -2.64900
7.244, -0.12118, 0.67512, -0.29071, -0.38441, -2.64117
7.256, -0.11784, 0.67512, -0.29071, -0.38441, -2.63335
7.267, -0.11451, 0.67512, -0.29071, -0.38441, -2.62553
7.278, -0.11118, 0.67512, -0.29071, -0.38441, -2.61771
7.289, -0.10784, 0.67512, -0.29071, -0.38441, -2.60988
7.300, -0.10451, 0.67512, -0.29071, -0.38441, -2.60206
7.311, -0.10118, 0.67512, -0.29071, -0.38441, -2.59424
7.322, -0.09784, 0.67512, -0.29071, -0.38441, -2.58642
7.333, -0.09451, 0.67512, -0.29071, -0.38441, -2.57859
7.344, -0.09118, 0.67512, -0.29071, -0.38441, -2.57077
7.356, -0.08784, 0.67512, -0.29071, -0.38441, -2.56295
7.367, -0.08451, 0.67512, -0.29071, -0.38441, -2.55513
7.378, -0.08118, 0.67512, -0.29071, -0.38441, -2.54730
7.389, -0.07784, 0.67512, -0.29071, -0.38441, -2.53948
7.400, -0.07451, 0.67512, -0.29071, -0.38441, -2.53166
7.411, -0.07118, 0.67512, -0.29071, -0.38441, -2.52384
7.422, -0.06784, 0.67512, -0.29071, -0.38441, -2.51601
7.433, -0.06451, 0.67512, -0.29071, -0.38441, -2.50819
7.444, -0.06118, 0.67512, -0.29071, -0.38441, -2.50037
7.456, -0.05784, 0.67512, -0.29071, -0.38441, -2.49255
7.467, -0.05451, 0.67512, -0.29071, -0.38441, -2.48472
7.478, -0.05118, 0.67512, -0.29071, -0.38441, -2.47690
7.489, -0.04784, 0.67512, -0.29071, -0.38441, -2.46908
7.500, -0.04451, 0.67512, -0.29071, -0.38441, -2.46126
7.511, -0.04118, 0.67512, -0.29071, -0.38441, -2.45343
7.522, -0.03784, 0.67512, -0.29071, -0.38441, -2.44561
7.533, -0.03451, 0.67512, -0.29071, -0.38441, -2.43779
7.544, -0.03118, 0.67512, -0.29071, -0.38441, -2.42997
7.556, -0.02784, 0.67512, -0.29071, -0.38441, -2.42214
7.567, -0.02451, 0.67512, -0.29071, -0.38441, -2.41432
7.578, -0.02118, 0.67512, -0.29071, -0.38441, -2.40650
7.589, -0.01784, 0.67512, -0.29071, -0.38441, -2.39868
7.600, -0.01451, 0.67512, -0.29071, -0.38441, -2.39085
7.611, -0.01118, 0.67512, -0.29071, -0.38441, -2.38303
7.622, -0.00784, 0.67512, -0.29071, -0.38441, -2.37521
7.633, -0.00451, 0.67512, -0.29071, -0.38441, -2.36739
7.644, -0.00118, 0.67512, -0.29071, -0.38441, -2.35956
7.656, 0.00216, 0.67512, -0.29071, -0.38441, -2.35174
7.667, 0.00549, 0.67512, -0.29071, -0.38441, -2.34392
7.678, 0.00882, 0.67512, -0.29071, -0.38441, -2.33610
7.689, 0.01216, 0.67512, -0.29071, -0.38441, -2.32827
7.700, 0.01549, 0.67512, -0.29071, -0.38441, -2.32045
7.711, 0.01882, 0.67512, -0.29071, -0.38441, -2.31263
7.722, 0.02216, 0.67512, -0.29071, -0.38441, -2.30481
7.733, 0.02549, 0.67512, -0.29071, -0.38441, -2.29698
7.744, 0.02882, 0.67512, -0.29071, -0.38441, -2.28916
7.756, 0.03216, 0.67512, -0.29071, -0.38441, -2.28134
7.767, 0.03549, 0.67512, -0.29071, -0.38441, -2.27352
7.778, 0.03882, 0.67512, -0.29071, -0.38441, -2.26569
7.789, 0.04216, 0.67512, -0.29071, -0.38441, -2.25787
7.800, 0.04549, 0.67512, -0.29071, -0.38441, -2.25005
7.811, 0.04882, 0.67512, -0.29071, -0.38441, -2.24223
7.822, 0.05216, 0.67512, -0.29071, -0.38441, -2.23440
7.833, 0.05549, 0.67512, -0.29071, -0.38441, -2.22658
7.844, 0.05882, 0.67512, -0.29071, -0.38441, -2.21876
7.856, 0.06216, 0.67512, -0.29071, -0.38441, -2.21094
7.867, 0.06549, 0.67512, -0.29071, -0.38441, -2.20311
7.878, 0.06882, 0.67512, -0.29071, -0.38441, -2.19529
7.889, 0.07216, 0.67512, -0.29071, -0.38441, -2.18747
7.900, 0.07549, 0.67512, -0.29071, -0.38441, -2.17965
7.911, 0.07882, 0.67512, -0.29071, -0.38441, -2.17182
7.922, 0.08216, 0.67512, -0.29071, -0.38441, -2.16400
7.933, 0.08549, 0.67512, -0.29071, -0.38441, -2.15618
7.944, 0.08882, 0.67512, -0.29071, -0.38441, -2.14836
7.956, 0.09216, 0.67512, -0.29071, -0.38441, -2.14053
7.967, 0.09549, 0.67512, -0.29071, -0.38441, -2.13271
7.978, 0.09882, 0.67512, -0.29071, -0.38441, -2.12489
7.989, 0.10216, 0.67512, -0.29071, -0.38441, -2.11707
8.000, 0.10549, 0.67512, -0.29071, -0.38441, -2.10924
8.011, 0.10882, 0.67512, -0.29071, -0.38441, -2.10142
8.022, 0.11216, 0.67512, -0.29071, -0.38441, -2.09360
8.033, 0.11549, 0.67512, -0.29071, -0.38441, -2.08578
8.044, 0.11882, 0.67512, -0.29071, -0.38441, -2.07795
8.056, 0.12216, 0.67512, -0.29071, -0.38441, -2.07013
8.067, 0.12549, 0.67512, -0.29071, -0.38441, -2.06231
8.078, 0.12882, 0.67512, -0.29071, -0.38441, -2.05449
8.089, 0.13216, 0.67512, -0.29071, -0.38441, -2.04666
8.100, 0.13549, 0.67512, -0.29071, -0.38441, -2.03884
8.111, 0.13882, 0.67512, -0.29071, -0.38441, -2.03102
8.122, 0.14216, 0.67512, -0.29071, -0.38441, -2.02320
8.133, 0.14549, 0.67512, -0.29071, -0.38441, -2.01537
8.144, 0.14882, 0.67512, -0.29071, -0.38441, -2.00755
8.156, 0.15216, 0.67512, -0.29071, -0.38441, -1.99973
8.167, 0.15549, 0.67512, -0.29071, -0.38441, -1.99192
8.178, 0.15882, 0.67512, -0.29071, -0.38441, -1.98411
8.189, 0.16216, 0.67512, -0.29071, -0.38441, -1.97631
8.200, 0.16549, 0.67512, -0.29071, -0.38441, -1.96853
8.211, 0.16882, 0.67512, -0.29071, -0.38441, -1.96076
8.222, 0.17216, 0.67512, -0.29071, -0.38441, -1.95301
8.233, 0.17549, 0.67512, -0.29071, -0.38441, -1.94528
8.244, 0.17882, 0.67512, -0.29071, -0.38441, -1.93757
8.256, 0.18216, 0.67512, -0.29071, -0.38441, -1.92988
8.267, 0.18549, 0.67512, -0.29071, -0.38441, -1.92222
8.278, 0.18882, 0.67512, -0.29071, -0.38441, -1.91460
8.289, 0.19216, 0.67512, -0.29071, -0.38441, -1.90700
8.300, 0.19549, 0.67512, -0.29071, -0.38441, -1.89944
8.311, 0.19882, 0.67512, -0.29071, -0.38441, -1.89191
8.322, 0.20216, 0.67512, -0.29071, -0.38441, -1.88443
8.333, 0.20549, 0.67512, -0.29071, -0.38441, -1.87699
8.344, 0.20882, 0.67512, -0.29071, -0.38441, -1.86959
8.356, 0.21216, 0.67512, -0.29071, -0.38441, -1.86223
8.367, 0.21549, 0.67512, -0.29071, -0.38441, -1.85493
8.378, 0.21882, 0.67512, -0.29071, -0.38441, -1.84768
8.389, 0.22216, 0.67512, -0.29071, -0.38441, -1.84048
8.400, 0.22549, 0.67512, -0.29071, -0.38441, -1.83334
8.411, 0.22882, 0.67512, -0.29071, -0.38441, -1.82626
8.422, 0.23216, 0.67512, -0.29071, -0.38441, -1.81924
8.433, 0.23549, 0.67512, -0.29071, -0.38441, -1.81229
8.444, 0.23882, 0.67512, -0.29071, -0.38441, -1.80540
8.456, 0.24216, 0.67512, -0.29071, -0.38441, -1.79857
8.467, 0.24549, 0.67512, -0.29071, -0.38441, -1.79183
8.478, 0.24881, 0.67512, -0.29071, -0.38441, -1.78515
8.489, 0.25212, 0.67512, -0.29071, -0.38441, -1.77855
8.500, 0.25542, 0.67512, -0.29071, -0.38441, -1.77203
8.511, 0.25871, 0.67512, -0.29071, -0.38441, -1.76559
8.522, 0.26198, 0.67512, -0.29071, -0.38441, -1.75923
8.533, 0.26523, 0.67512, -0.29071, -0.38441, -1.75296
8.544, 0.26846, 0.67512, -0.29071, -0.38441, -1.74678
8.556, 0.27167, 0.67512, -0.29071, -0.38441, -1.74069
8.567, 0.27484, 0.67512, -0.29071, -0.38441, -1.73469
8.578, 0.27799, 0.67512, -0.29071, -0.38441, -1.72879
8.589, 0.28110, 0.67512, -0.29071, -0.38441, -1.72299
8.600, 0.28417, 0.67512, -0.29071, -0.38441, -1.71729
8.611, 0.28721, 0.67512, -0.29071, -0.38441, -1.71169
8.622, 0.29020, 0.67512, -0.29071, -0.38441, -1.70619
8.633, 0.29315, 0.67512, -0.29071, -0.38441, -1.70081
8.644, 0.29605, 0.67512, -0.29071, -0.38441, -1.69553
8.656, 0.29890, 0.67512, -0.29071, -0.38441, -1.69037
8.667, 0.30170, 0.67512, -0.29071, -0.38441, -1.68532
8.678, 0.30446, 0.67512, -0.29071, -0.38441, -1.68039
8.689, 0.30716, 0.67512, -0.29071, -0.38441, -1.67559
8.700, 0.30982, 0.67512, -0.29071, -0.38441, -1.67090
8.711, 0.31242, 0.67512, -0.29071, -0.38441, -1.66633
8.722, 0.31498, 0.67512, -0.29071, -0.38441, -1.66189
8.733, 0.31748, 0.67512, -0.29071, -0.38441, -1.65757
8.744, 0.31994, 0.67512, -0.29071, -0.38441, -1.65338
8.756, 0.32235, 0.67512, -0.29071, -0.38441, -1.64930
8.767, 0.32471, 0.67512, -0.29071, -0.38441, -1.64535
8.778, 0.32701, 0.67512, -0.29071, -0.38441, -1.64152
8.789, 0.32927, 0.67512, -0.29071, -0.38441, -1.63781
8.800, 0.33148, 0.67512, -0.29071, -0.38441, -1.63423
8.811, 0.33365, 0.67512, -0.29071, -0.38441, -1.63077
8.822, 0.33576, 0.67512, -0.29071, -0.38441, -1.62743
8.833, 0.33782, 0.67512, -0.29071, -0.38441, -1.62421
8.844, 0.33983, 0.67512, -0.29071, -0.38441, -1.62111
8.856, 0.34179, 0.67512, -0.29071, -0.38441, -1.61814
8.867, 0.34371, 0.67512, -0.29071, -0.38441, -1.61529
8.878, 0.34557, 0.67512, -0.29071, -0.38441, -1.61255
8.889, 0.34739, 0.67512, -0.29071, -0.38441, -1.60993
8.900, 0.34915, 0.67512, -0.29071, -0.38441, -1.60742
8.911, 0.35087, 0.67512, -0.29071, -0.38441, -1.60502
8.922, 0.35254, 0.67512, -0.29071, -0.38441, -1.60272
8.933, 0.35415, 0.67512, -0.29071, -0.38441, -1.60054
8.944, 0.35572, 0.67512, -0.29071, -0.38441, -1.59845
8.956, 0.35724, 0.67512, -0.29071, -0.38441, -1.59646
8.967, 0.35871, 0.67512, -0.29071, -0.38441, -1.59458
8.978, 0.36013, 0.67512, -0.29071, -0.38441, -1.59278
8.989, 0.36150, 0.67512, -0.29071, -0.38441, -1.59108
9.000, 0.36282, 0.67512, -0.29071, -0.38441, -1.58947
9.011, 0.36410, 0.67512, -0.29071, -0.38441, -1.58795
9.022, 0.36532, 0.67512, -0.29071, -0.38441, -1.58651
9.033, 0.36649, 0.67512, -0.29071, -0.38441, -1.58515
9.044, 0.36761, 0.67512, -0.29071, -0.38441, -1.58388
9.056, 0.36869, 0.67512, -0.29071, -0.38441, -1.58268
9.067, 0.36971, 0.67512, -0.29071, -0.38441, -1.58156
9.078, 0.37069, 0.67512, -0.29071, -0.38441, -1.58051
9.089, 0.37162, 0.67512, -0.29071, -0.38441, -1.57953
9.100, 0.37249, 0.67512, -0.29071, -0.38441, -1.57862
9.111, 0.37332, 0.67512, -0.29071, -0.38441, -1.57778
9.122, 0.37410, 0.67512, -0.29071, -0.38441, -1.57699
9.133, 0.37483, 0.67512, -0.29071, -0.38441, -1.57627
9.144, 0.37551, 0.67512, -0.29071, -0.38441, -1.57561
9.156, 0.37614, 0.67512, -0.29071, -0.38441, -1.57500
9.167, 0.37672, 0.67512, -0.29071, -0.38441, -1.57445
9.178, 0.37725, 0.67512, -0.29071, -0.38441, -1.57395
9.189, 0.37773, 0.67512, -0.29071, -0.38441, -1.57349
9.200, 0.37816, 0.67512, -0.29071, -0.38441, -1.57308
9.211, 0.37855, 0.67512, -0.29071, -0.38441, -1.57272
9.222, 0.37889, 0.67512, -0.29071, -0.38441, -1.57239
9.233, 0.37919, 0.67512, -0.29071, -0.38441, -1.57211
9.244, 0.37945, 0.67512, -0.29071, -0.38441, -1.57186
9.256, 0.37967, 0.67512, -0.29071, -0.38441, -1.57165
9.267, 0.37986, 0.67512, -0.29071, -0.38441, -1.57146
9.278, 0.38002, 0.67512, -0.29071, -0.38441, -1.57131
9.289, 0.38015, 0.67512, -0.29071, -0.38441, -1.57118
9.300, 0.38025, 0.67512, -0.29071, -0.38441, -1.57107
9.311, 0.38034, 0.67512, -0.29071, -0.38441, -1.57099
9.322, 0.38040, 0.67512, -0.29071, -0.38441, -1.57092
9.333, 0.38044, 0.67512, -0.29071, -0.38441, -1.57088
9.344, 0.38048, 0.67512, -0.29071, -0.38441, -1.57084
9.356, 0.38049, 0.67512, -0.29071, -0.38441, -1.57082
9.367, 0.38050, 0.67512, -0.29071, -0.38441, -1.57081
9.378, 0.38051, 0.67512, -0.29071, -0.38441, -1.57080
9.389, 0.38051, 0.67512, -0.29071, -0.38441, -1.57080
9.400, 0.38051, 0.67512, -0.29071, -0.38441, -1.57080
9.411, 0.38051, 0.67512, -0.29071, -0.38441, -1.57080
9.422, 0.38051, 0.67512, -0.29071, -0.38441, -1.57080
9.433, 0.38051, 0.67512, -0.29071, -0.38441, -1.57080
9.444, 0.38051, 0.67512, -0.29071, -0.38441, -1.57080
9.456, 0.38051, 0.67512, -0.29071, -0.38441, -1.57080
9.467, 0.38051, 0.67512, -0.29071, -0.38441, -1.57080
9.478, 0.38051, 0.67512, -0.29071, -0.38441, -1.57080
9.489, 0.38051, 0.67512, -0.29071, -0.38441, -1.57080
9.500, 0.38051, 0.67512, -0.29071, -0.38441, -1.57080
9.511, 0.38051, 0.67512, -0.29071, -0.38441, -1.57080
9.522, 0.38051, 0.67512, -0.29071, -0.38441, -1.57080
9.533, 0.38051, 0.67512, -0.29071, -0.38441, -1.57080
9.544, 0.38051, 0.67512, -0.29071, -0.38441, -1.57080
9.556, 0.38051, 0.67512, -0.29071, -0.38441, -1.57080
9.567, 0.38051, 0.67512, -0.29071, -0.38441, -1.57080
9.578, 0.38051, 0.67512, -0.29071, -0.38441, -1.57080
9.589, 0.38051, 0.67512, -0.29071, -0.38441, -1.57080
9.600, 0.38051, 0.67512, -0.29071, -0.38441, -1.57080
9.611, 0.38051, 0.67512, -0.29071, -0.38441, -1.57080
9.622, 0.38051, 0.67512, -0.29071, -0.38441, -1.57080
9.633, 0.38051, 0.67512, -0.29071, -0.38441, -1.57080
9.644, 0.38051, 0.67512, -0.29071, -0.38441, -1.57080
9.656, 0.38051, 0.67512, -0.29071, -0.38441, -1.57080
9.667, 0.38051, 0.67512, -0.29071, -0.38441, -1.57080
9.678, 0.38051, 0.67512, -0.29071, -0.38441, -1.57080
9.689, 0.38051, 0.67512, -0.29071, -0.38441, -1.57080
9.700, 0.38051, 0.67512, -0.29071, -0.38441, -1.57080
9.711, 0.38051, 0.67512, -0.29071, -0.38441, -1.57080
9.722, 0.38051, 0.67512, -0.29071, -0.38441, -1.57080
9.733, 0.38051, 0.67512, -0.29071, -0.38441, -1.57080
9.744, 0.38051, 0.67512, -0.29071, -0.38441, -1.57080
9.756, 0.38051, 0.67512, -0.29071, -0.38441, -1.57080
9.767, 0.38051, 0.67512, -0.29071, -0.38441, -1.57080
9.778, 0.38051, 0.67512, -0.29071, -0.38441, -1.57080
9.789, 0.38051, 0.67512, -0.29071, -0.38441, -1.57080
9.800, 0.38051, 0.67512, -0.29071, -0.38441, -1.57080
9.811, 0.38051, 0.67512, -0.29071, -0.38441, -1.57080
9.822, 0.38051, 0.67512, -0.29071, -0.38441, -1.57080
9.833, 0.38051, 0.67512, -0.29071, -0.38441, -1.57080
9.844, 0.38051, 0.67512, -0.29071, -0.38442, -1.57080
9.856, 0.38051, 0.67512, -0.29071, -0.38442, -1.57080
9.867, 0.38051, 0.67512, -0.29071, -0.38442, -1.57080
9.878, 0.38051, 0.67512, -0.29071, -0.38442, -1.57080
9.889, 0.38051, 0.67512, -0.29071, -0.38442, -1.57080
9.900, 0.38051, 0.67512, -0.29071, -0.38442, -1.57080
9.911, 0.38051, 0.67512, -0.29071, -0.38442, -1.57080
9.922, 0.38051, 0.67512, -0.29071, -0.38442, -1.57080
9.933, 0.38051, 0.67512, -0.29071, -0.38442, -1.57080
9.944, 0.38051, 0.67512, -0.29071, -0.38442, -1.57080
9.956, 0.38051, 0.67512, -0.29071, -0.38442, -1.57081
9.967, 0.38051, 0.67512, -0.29071, -0.38442, -1.57081
9.978, 0.38051, 0.67512, -0.29071, -0.38442, -1.57081
9.989, 0.38051, 0.67512, -0.29071, -0.38442, -1.57081
10.000, 0.38051, 0.67512, -0.29071, -0.38442, -1.57081
10.011, 0.38051, 0.67512, -0.29071, -0.38442, -1.57081
10.022, 0.38051, 0.67512, -0.29071, -0.38442, -1.57081
10.033, 0.38051, 0.67512, -0.29071, -0.38442, -1.57081
10.044, 0.38051, 0.67512, -0.29071, -0.38442, -1.57081
10.056, 0.38051, 0.67512, -0.29071, -0.38442, -1.57081
10.067, 0.38051, 0.67512, -0.29071, -0.38442, -1.57081
10.078, 0.38051, 0.67512, -0.29071, -0.38442, -1.57081
10.089, 0.38051, 0.67512, -0.29071, -0.38442, -1.57081
10.100, 0.38051, 0.67512, -0.29071, -0.38442, -1.57081
10.111, 0.38051, 0.67512, -0.29071, -0.38442, -1.57081
10.122, 0.38051, 0.67512, -0.29071, -0.38442, -1.57081
10.133, 0.38051, 0.67512, -0.29071, -0.38442, -1.57081
10.144, 0.38051, 0.67512, -0.29071, -0.38442, -1.57081
10.156, 0.38051, 0.67512, -0.29071, -0.38442, -1.57081
10.167, 0.38051, 0.67512, -0.29071, -0.38442, -1.57081
10.178, 0.38051, 0.67512, -0.29071, -0.38442, -1.57081
10.189, 0.38051, 0.67512, -0.29071, -0.38442, -1.57081
10.200, 0.38051, 0.67512, -0.29071, -0.38442, -1.57081
10.211, 0.38051, 0.67512, -0.29071, -0.38442, -1.57081
10.222, 0.38051, 0.67512, -0.29071, -0.38442, -1.57081
10.233, 0.38051, 0.67512, -0.29071, -0.38442, -1.57081
10.244, 0.38051, 0.67512, -0.29071, -0.38441, -1.57081
10.256, 0.38051, 0.67512, -0.29071, -0.38441, -1.57081
10.267, 0.38051, 0.67512, -0.29071, -0.38441, -1.57080
10.278, 0.38051, 0.67512, -0.29071, -0.38441, -1.57080
10.289, 0.38051, 0.67512, -0.29071, -0.38441, -1.57080
10.300, 0.38051, 0.67512, -0.29071, -0.38441, -1.57080
10.311, 0.38051, 0.67512, -0.29071, -0.38441, -1.57080
10.322, 0.38051, 0.67512, -0.29071, -0.38441, -1.57080
10.333, 0.38051, 0.67512, -0.29071, -0.38441, -1.57080
10.344, 0.38051, 0.67512, -0.29071, -0.38441, -1.57080
10.356, 0.38051, 0.67512, -0.29071, -0.38441, -1.57080
10.367, 0.38051, 0.67512, -0.29071, -0.38441, -1.57080
10.378, 0.38051, 0.67512, -0.29071, -0.38441, -1.57080
10.389, 0.38051, 0.67512, -0.29071, -0.38441, -1.57080
10.400, 0.38051, 0.67512, -0.29071, -0.38441, -1.57080
10.411, 0.38051, 0.67512, -0.29072, -0.38440, -1.57079
10.422, 0.38051, 0.67511, -0.29073, -0.38439, -1.57077
10.433, 0.38051, 0.67511, -0.29075, -0.38437, -1.57074
10.444, 0.38051, 0.67510, -0.29078, -0.38434, -1.57068
10.456, 0.38051, 0.67508, -0.29083, -0.38430, -1.57061
10.467, 0.38051, 0.67507, -0.29089, -0.38424, -1.57051
10.478, 0.38051, 0.67504, -0.29098, -0.38417, -1.57037
10.489, 0.38051, 0.67501, -0.29108, -0.38408, -1.57020
10.500, 0.38051, 0.67497, -0.29122, -0.38396, -1.56999
10.511, 0.38051, 0.67493, -0.29138, -0.38382, -1.56974
10.522, 0.38051, 0.67487, -0.29157, -0.38366, -1.56944
10.533, 0.38051, 0.67481, -0.29180, -0.38347, -1.56909
10.544, 0.38051, 0.67473, -0.29206, -0.38325, -1.56869
10.556, 0.38051, 0.67465, -0.29236, -0.38299, -1.56822
10.567, 0.38051, 0.67455, -0.29271, -0.38270, -1.56769
10.578, 0.38051, 0.67444, -0.29310, -0.38238, -1.56709
10.589, 0.38051, 0.67432, -0.29353, -0.38201, -1.56642
10.600, 0.38051, 0.67418, -0.29402, -0.38161, -1.56567
10.611, 0.38051, 0.67403, -0.29456, -0.38116, -1.56485
10.622, 0.38051, 0.67387, -0.29516, -0.38067, -1.56394
10.633, 0.38051, 0.67368, -0.29581, -0.38013, -1.56294
10.644, 0.38051, 0.67348, -0.29653, -0.37953, -1.56184
10.656, 0.38051, 0.67327, -0.29731, -0.37889, -1.56065
10.667, 0.38051, 0.67303, -0.29816, -0.37819, -1.55936
10.678, 0.38051, 0.67278, -0.29907, -0.37744, -1.55797
10.689, 0.38051, 0.67250, -0.30006, -0.37663, -1.55646
10.700, 0.38051, 0.67221, -0.30113, -0.37575, -1.55484
10.711, 0.38051, 0.67189, -0.30227, -0.37482, -1.55311
10.722, 0.38051, 0.67155, -0.30349, -0.37382, -1.55125
10.733, 0.38051, 0.67119, -0.30480, -0.37275, -1.54927
10.744, 0.38051, 0.67080, -0.30619, -0.37161, -1.54716
10.756, 0.38051, 0.67039, -0.30766, -0.37040, -1.54491
10.767, 0.38051, 0.66996, -0.30923, -0.36912, -1.54253
10.778, 0.38051, 0.66950, -0.31088, -0.36775, -1.54000
10.789, 0.38051, 0.66901, -0.31262, -0.36632, -1.53733
10.800, 0.38051, 0.66850, -0.31444, -0.36480, -1.53451
10.811, 0.38051, 0.66795, -0.31635, -0.36320, -1.53154
10.822, 0.38051, 0.66738, -0.31835, -0.36151, -1.52840
10.833, 0.38051, 0.66678, -0.32043, -0.35974, -1.52510
10.844, 0.38051, 0.66615, -0.32260, -0.35787, -1.52164
10.856, 0.38051, 0.66549, -0.32485, -0.35592, -1.51801
10.867, 0.38051, 0.66479, -0.32720, -0.35387, -1.51420
10.878, 0.38051, 0.66407, -0.32962, -0.35173, -1.51022
10.889, 0.38051, 0.66331, -0.33214, -0.34948, -1.50607
10.900, 0.38051, 0.66251, -0.33474, -0.34714, -1.50174
10.911, 0.38051, 0.66168, -0.33742, -0.34470, -1.49725
10.922, 0.38051, 0.66082, -0.34018, -0.34215, -1.49258
10.933, 0.38051, 0.65991, -0.34302, -0.33949, -1.48773
10.944, 0.38051, 0.65898, -0.34594, -0.33673, -1.48272
10.956, 0.38051, 0.65800, -0.34893, -0.33385, -1.47753
10.967, 0.38051, 0.65699, -0.35198, -0.33086, -1.47217
10.978, 0.38051, 0.65595, -0.35510, -0.32776, -1.46664
10.989, 0.38051, 0.65486, -0.35829, -0.32454, -1.46093
11.000, 0.38051, 0.65374, -0.36153, -0.32121, -1.45506
11.011, 0.38051, 0.65259, -0.36484, -0.31777, -1.44902
11.022, 0.38051, 0.65139, -0.36820, -0.31421, -1.44281
11.033, 0.38051, 0.65017, -0.37161, -0.31054, -1.43645
11.044, 0.38051, 0.64890, -0.37507, -0.30675, -1.42994
11.056, 0.38051, 0.64760, -0.37858, -0.30285, -1.42328
11.067, 0.38051, 0.64626, -0.38213, -0.29884, -1.41647
11.078, 0.38051, 0.64489, -0.38573, -0.29471, -1.40953
11.089, 0.38051, 0.64348, -0.38936, -0.29047, -1.40244
11.100, 0.38051, 0.64203, -0.39303, -0.28612, -1.39523
11.111, 0.38051, 0.64055, -0.39673, -0.28166, -1.38788
11.122, 0.38051, 0.63903, -0.40046, -0.27707, -1.38041
11.133, 0.38051, 0.63747, -0.40423, -0.27238, -1.37282
11.144, 0.38051, 0.63588, -0.40801, -0.26758, -1.36512
11.156, 0.38051, 0.63425, -0.41182, -0.26267, -1.35730
11.167, 0.38051, 0.63259, -0.41565, -0.25765, -1.34937
11.178, 0.38051, 0.63089, -0.41949, -0.25253, -1.34134
11.189, 0.38051, 0.62916, -0.42335, -0.24730, -1.33321
11.200, 0.38051, 0.62739, -0.42722, -0.24198, -1.32499
11.211, 0.38051, 0.62558, -0.43110, -0.23656, -1.31667
11.222, 0.38051, 0.62375, -0.43499, -0.23104, -1.30827
11.233, 0.38051, 0.62188, -0.43888, -0.22543, -1.29978
11.244, 0.38051, 0.61999, -0.44277, -0.21973, -1.29122
11.256, 0.38051, 0.61806, -0.44665, -0.21394, -1.28257
11.267, 0.38051, 0.61610, -0.45054, -0.20807, -1.27386
11.278, 0.38051, 0.61412, -0.45443, -0.20211, -1.26508
11.289, 0.38051, 0.61211, -0.45832, -0.19606, -1.25624
11.300, 0.38051, 0.61007, -0.46221, -0.18994, -1.24734
11.311, 0.38051, 0.60800, -0.46610, -0.18374, -1.23838
11.322, 0.38051, 0.60591, -0.46999, -0.17747, -1.22938
11.333, 0.38051, 0.60379, -0.47388, -0.17112, -1.22033
11.344, 0.38051, 0.60165, -0.47777, -0.16470, -1.21123
11.356, 0.38051, 0.59948, -0.48165, -0.15821, -1.20210
11.367, 0.38051, 0.59729, -0.48554, -0.15166, -1.19293
11.378, 0.38051, 0.59508, -0.48943, -0.14504, -1.18374
11.389, 0.38051, 0.59285, -0.49332, -0.13836, -1.17451
11.400, 0.38051, 0.59060, -0.49721, -0.13162, -1.16527
11.411, 0.38051, 0.58833, -0.50110, -0.12482, -1.15601
11.422, 0.38051, 0.58604, -0.50499, -0.11796, -1.14673
11.433, 0.38051, 0.58373, -0.50888, -0.11105, -1.13745
11.444, 0.38051, 0.58140, -0.51277, -0.10409, -1.12816
11.456, 0.38051, 0.57906, -0.51665, -0.09708, -1.11887
11.467, 0.38051, 0.57670, -0.52054, -0.09003, -1.10958
11.478, 0.38051, 0.57433, -0.52443, -0.08292, -1.10029
11.489, 0.38051, 0.57194, -0.52832, -0.07578, -1.09100
11.500, 0.38051, 0.56954, -0.53221, -0.06860, -1.08171
11.511, 0.38051, 0.56712, -0.53610, -0.06137, -1.07241
11.522, 0.38051, 0.56470, -0.53999, -0.05411, -1.06312
11.533, 0.38051, 0.56226, -0.54388, -0.04682, -1.05383
11.544, 0.38051, 0.55981, -0.54777, -0.03950, -1.04454
11.556, 0.38051, 0.55735, -0.55165, -0.03214, -1.03525
11.567, 0.38051, 0.55488, -0.55554, -0.02476, -1.02596
11.578, 0.38051, 0.55240, -0.55943, -0.01736, -1.01667
11.589, 0.38051, 0.54991, -0.56332, -0.00993, -1.00738
11.600, 0.38051, 0.54742, -0.56721, -0.00248, -0.99809
11.611, 0.38051, 0.54492, -0.57110, 0.00499, -0.98880
11.622, 0.38051, 0.54242, -0.57499, 0.01247, -0.97951
11.633, 0.38051, 0.53991, -0.57888, 0.01997, -0.97022
11.644, 0.38051, 0.53740, -0.58277, 0.02748, -0.96092
11.656, 0.38051, 0.53488, -0.58665, 0.03500, -0.95163
11.667, 0.38051, 0.53236, -0.59054, 0.04253, -0.94234
11.678, 0.38051, 0.52984, -0.59443, 0.05006, -0.93305
11.689, 0.38051, 0.52732, -0.59832, 0.05760, -0.92376
11.700, 0.38051, 0.52480, -0.60221, 0.06514, -0.91447
11.711, 0.38051, 0.52228, -0.60610, 0.07267, -0.90518
11.722, 0.38051, 0.51976, -0.60999, 0.08021, -0.89589
11.733, 0.38051, 0.51723, -0.61388, 0.08775, -0.88660
11.744, 0.38051, 0.51471, -0.61777, 0.09528, -0.87731
11.756, 0.38051, 0.51219, -0.62165, 0.10282, -0.86802
11.767, 0.38051, 0.50967, -0.62554, 0.11036, -0.85872
11.778, 0.38051, 0.50715, -0.62943, 0.11790, -0.84943
11.789, 0.38051, 0.50462, -0.63332, 0.12543, -0.84014
11.800, 0.38051, 0.50210, -0.63721, 0.13297, -0.83085
11.811, 0.38051, 0.49958, -0.64110, 0.14051, -0.82156
11.822, 0.38051, 0.49706, -0.64499, 0.14804, -0.81227
11.833, 0.38051, 0.49454, -0.64888, 0.15558, -0.80298
11.844, 0.38051, 0.49202, -0.65277, 0.16312, -0.79369
11.856, 0.38051, 0.48949, -0.65665, 0.17065, -0.78440
11.867, 0.38051, 0.48697, -0.66054, 0.17819, -0.77511
11.878, 0.38051, 0.48445, -0.66443, 0.18573, -0.76582
11.889, 0.38051, 0.48193, -0.66832, 0.19327, -0.75653
11.900, 0.38051, 0.47941, -0.67221, 0.20080, -0.74723
11.911, 0.38051, 0.47688, -0.67610, 0.20834, -0.73794
11.922, 0.38051, 0.47436, -0.67999, 0.21588, -0.72865
11.933, 0.38051, 0.47184, -0.68388, 0.22341, -0.71936
11.944, 0.38051, 0.46932, -0.68777, 0.23095, -0.71007
11.956, 0.38051, 0.46680, -0.69165, 0.23849, -0.70078
11.967, 0.38051, 0.46428, -0.69554, 0.24602, -0.69149
11.978, 0.38051, 0.46175, -0.69943, 0.25356, -0.68220
11.989, 0.38051, 0.45923, -0.70332, 0.26110, -0.67291
12.000, 0.38051, 0.45671, -0.70721, 0.26864, -0.66362
12.011, 0.38051, 0.45419, -0.71110, 0.27617, -0.65433
12.022, 0.38051, 0.45167, -0.71499, 0.28371, -0.64504
12.033, 0.38051, 0.44915, -0.71888, 0.29124, -0.63574
12.044, 0.38051, 0.44663, -0.72277, 0.29877, -0.62645
12.056, 0.38051, 0.44411, -0.72665, 0.30629, -0.61716
12.067, 0.38051, 0.44159, -0.73054, 0.31380, -0.60787
12.078, 0.38051, 0.43908, -0.73443, 0.32129, -0.59858
12.089, 0.38051, 0.43657, -0.73832, 0.32877, -0.58929
12.100, 0.38051, 0.43407, -0.74221, 0.33624, -0.58000
12.111, 0.38051, 0.43157, -0.74610, 0.34369, -0.57071
12.122, 0.38051, 0.42908, -0.74999, 0.35111, -0.56142
12.133, 0.38051, 0.42660, -0.75388, 0.35852, -0.55213
12.144, 0.38051, 0.42412, -0.75777, 0.36589, -0.54284
12.156, 0.38051, 0.42166, -0.76165, 0.37324, -0.53354
12.167, 0.38051, 0.41920, -0.76554, 0.38056, -0.52425
12.178, 0.38051, 0.41675, -0.76943, 0.38785, -0.51496
12.189, 0.38051, 0.41431, -0.77332, 0.39511, -0.50567
12.200, 0.38051, 0.41189, -0.77721, 0.40232, -0.49638
12.211, 0.38051, 0.40948, -0.78110, 0.40950, -0.48709
12.222, 0.38051, 0.40708, -0.78499, 0.41664, -0.47780
12.233, 0.38051, 0.40469, -0.78888, 0.42374, -0.46851
12.244, 0.38051, 0.40232, -0.79277, 0.43079, -0.45922
12.256, 0.38051, 0.39997, -0.79665, 0.43779, -0.44993
12.267, 0.38051, 0.39763, -0.80054, 0.44474, -0.44064
12.278, 0.38051, 0.39531, -0.80443, 0.45165, -0.43135
12.289, 0.38051, 0.39300, -0.80832, 0.45849, -0.42206
12.300, 0.38051, 0.39072, -0.81221, 0.46529, -0.41279
12.311, 0.38051, 0.38845, -0.81610, 0.47202, -0.40353
12.322, 0.38051, 0.38620, -0.81999, 0.47869, -0.39429
12.333, 0.38051, 0.38398, -0.82388, 0.48531, -0.38508
12.344, 0.38051, 0.38177, -0.82777, 0.49185, -0.37589
12.356, 0.38051, 0.37959, -0.83165, 0.49833, -0.36673
12.367, 0.38051, 0.37743, -0.83554, 0.50474, -0.35760
12.378, 0.38051, 0.37530, -0.83943, 0.51108, -0.34852
12.389, 0.38051, 0.37318, -0.84332, 0.51734, -0.33947
12.400, 0.38051, 0.37110, -0.84721, 0.52353, -0.33048
12.411, 0.38051, 0.36904, -0.85110, 0.52964, -0.32154
12.422, 0.38051, 0.36700, -0.85499, 0.53568, -0.31265
12.433, 0.38051, 0.36500, -0.85888, 0.54162, -0.30382
12.444, 0.38051, 0.36302, -0.86277, 0.54749, -0.29505
12.456, 0.38051, 0.36107, -0.86665, 0.55327, -0.28636
12.467, 0.38051, 0.35915, -0.87054, 0.55895, -0.27773
12.478, 0.38051, 0.35726, -0.87443, 0.56455, -0.26918
12.489, 0.38051, 0.35540, -0.87832, 0.57005, -0.26071
12.500, 0.38051, 0.35358, -0.88220, 0.57546, -0.25233
12.511, 0.38051, 0.35178, -0.88608, 0.58077, -0.24403
12.522, 0.38051, 0.35002, -0.88995, 0.58598, -0.23582
12.533, 0.38051, 0.34830, -0.89381, 0.59109, -0.22772
12.544, 0.38051, 0.34661, -0.89765, 0.59610, -0.21971
12.556, 0.38051, 0.34495, -0.90147, 0.60100, -0.21181
12.567, 0.38051, 0.34333, -0.90527, 0.60579, -0.20401
12.578, 0.38051, 0.34175, -0.90905, 0.61046, -0.19633
12.589, 0.38051, 0.34020, -0.91281, 0.61503, -0.18877
12.600, 0.38051, 0.33869, -0.91654, 0.61948, -0.18132
12.611, 0.38051, 0.33722, -0.92023, 0.62382, -0.17401
12.622, 0.38051, 0.33578, -0.92389, 0.62804, -0.16682
12.633, 0.38051, 0.33438, -0.92752, 0.63215, -0.15976
12.644, 0.38051, 0.33301, -0.93110, 0.63615, -0.15285
12.656, 0.38051, 0.33169, -0.93464, 0.64004, -0.14607
12.667, 0.38051, 0.33039, -0.93814, 0.64381, -0.13944
12.678, 0.38051, 0.32914, -0.94159, 0.64746, -0.13296
12.689, 0.38051, 0.32792, -0.94499, 0.65100, -0.12664
12.700, 0.38051, 0.32673, -0.94834, 0.65443, -0.12047
12.711, 0.38051, 0.32559, -0.95163, 0.65775, -0.11446
12.722, 0.38051, 0.32448, -0.95486, 0.66095, -0.10862
12.733, 0.38051, 0.32340, -0.95803, 0.66404, -0.10295
12.744, 0.38051, 0.32237, -0.96114, 0.66701, -0.09746
12.756, 0.38051, 0.32136, -0.96418, 0.66988, -0.09214
12.767, 0.38051, 0.32040, -0.96715, 0.67263, -0.08698
12.778, 0.38051, 0.31947, -0.97004, 0.67527, -0.08201
12.789, 0.38051, 0.31858, -0.97287, 0.67780, -0.07720
12.800, 0.38051, 0.31772, -0.97561, 0.68024, -0.07257
12.811, 0.38051, 0.31690, -0.97827, 0.68256, -0.06811
12.822, 0.38051, 0.31611, -0.98085, 0.68479, -0.06382
12.833, 0.38051, 0.31536, -0.98335, 0.68692, -0.05971
12.844, 0.38051, 0.31464, -0.98576, 0.68896, -0.05576
12.856, 0.38051, 0.31396, -0.98808, 0.69090, -0.05199
12.867, 0.38051, 0.31330, -0.99031, 0.69275, -0.04840
12.878, 0.38051, 0.31268, -0.99246, 0.69452, -0.04497
12.889, 0.38051, 0.31208, -0.99452, 0.69619, -0.04171
12.900, 0.38051, 0.31152, -0.99650, 0.69778, -0.03861
12.911, 0.38051, 0.31098, -0.99839, 0.69929, -0.03567
12.922, 0.38051, 0.31048, -1.00019, 0.70072, -0.03288
12.933, 0.38051, 0.30999, -1.00191, 0.70207, -0.03024
12.944, 0.38051, 0.30954, -1.00354, 0.70334, -0.02774
12.956, 0.38051, 0.30911, -1.00508, 0.70454, -0.02539
12.967, 0.38051, 0.30871, -1.00654, 0.70567, -0.02317
12.978, 0.38051, 0.30833, -1.00791, 0.70673, -0.02109
12.989, 0.38051, 0.30797, -1.00920, 0.70772, -0.01914
13.000, 0.38051, 0.30764, -1.01040, 0.70865, -0.01731
13.011, 0.38051, 0.30733, -1.01152, 0.70952, -0.01560
13.022, 0.38051, 0.30704, -1.01257, 0.71032, -0.01400
13.033, 0.38051, 0.30677, -1.01354, 0.71107, -0.01252
13.044, 0.38051, 0.30652, -1.01444, 0.71176, -0.01115
13.056, 0.38051, 0.30629, -1.01527, 0.71240, -0.00988
13.067, 0.38051, 0.30608, -1.01604, 0.71298, -0.00871
13.078, 0.38051, 0.30588, -1.01674, 0.71351, -0.00764
13.089, 0.38051, 0.30570, -1.01738, 0.71400, -0.00666
13.100, 0.38051, 0.30554, -1.01796, 0.71445, -0.00577
13.111, 0.38051, 0.30539, -1.01849, 0.71484, -0.00496
13.122, 0.38051, 0.30526, -1.01896, 0.71520, -0.00423
13.133, 0.38051, 0.30514, -1.01939, 0.71552, -0.00357
13.144, 0.38051, 0.30503, -1.01977, 0.71581, -0.00299
13.156, 0.38051, 0.30494, -1.02010, 0.71606, -0.00247
13.167, 0.38051, 0.30486, -1.02040, 0.71627, -0.00202
13.178, 0.38051, 0.30479, -1.02065, 0.71646, -0.00163
13.189, 0.38051, 0.30472, -1.02087, 0.71662, -0.00129
13.200, 0.38051, 0.30467, -1.02105, 0.71676, -0.00100
13.211, 0.38051, 0.30463, -1.02121, 0.71687, -0.00076
13.222, 0.38051, 0.30459, -1.02133, 0.71696, -0.00056
13.233, 0.38051, 0.30456, -1.02144, 0.71703, -0.00040
13.244, 0.38051, 0.30454, -1.02152, 0.71709, -0.00027
13.256, 0.38051, 0.30452, -1.02158, 0.71713, -0.00017
13.267, 0.38051, 0.30451, -1.02162, 0.71716, -0.00010
13.278, 0.38051, 0.30450, -1.02165, 0.71717, -0.00006
13.289, 0.38051, 0.30449, -1.02167, 0.71718, -0.00002
13.300, 0.38051, 0.30449, -1.02168, 0.71719, -0.00001
13.311, 0.38051, 0.30449, -1.02168, 0.71719, -0.00000
13.322, 0.38051, 0.30449, -1.02168, 0.71719, 0.00000
13.333, 0.38051, 0.30449, -1.02168, 0.71719, 0.00000
13.344, 0.38051, 0.30449, -1.02168, 0.71719, 0.00000
13.356, 0.38051, 0.30449, -1.02168, 0.71719, 0.00000
13.367, 0.38051, 0.30449, -1.02168, 0.71719, 0.00000
13.378, 0.38051, 0.30449, -1.02168, 0.71719, 0.00000
13.389, 0.38051, 0.30449, -1.02168, 0.71719, 0.00000
13.400, 0.38051, 0.30449, -1.02168, 0.71719, 0.00000
13.411, 0.38051, 0.30449, -1.02168, 0.71719, 0.00000
13.422, 0.38051, 0.30449, -1.02168, 0.71719, 0.00000
13.433, 0.38051, 0.30449, -1.02168, 0.71719, 0.00000
13.444, 0.38051, 0.30449, -1.02168, 0.71719, 0.00000
13.456, 0.38051, 0.30449, -1.02168, 0.71719, 0.00000
13.467, 0.38051, 0.30449, -1.02168, 0.71719, 0.00000
13.478, 0.38051, 0.30449, -1.02168, 0.71719, 0.00000
13.489, 0.38051, 0.30449, -1.02168, 0.71719, 0.00000
13.500, 0.38051, 0.30449, -1.02168, 0.71719, 0.00000
13.511, 0.38051, 0.30449, -1.02168, 0.71719, 0.00000
13.522, 0.38051, 0.30449, -1.02168, 0.71719, 0.00000
13.533, 0.38051, 0.30449, -1.02168, 0.71719, 0.00000
13.544, 0.38051, 0.30449, -1.02168, 0.71719, 0.00000
13.556, 0.38051, 0.30449, -1.02168, 0.71719, 0.00000
13.567, 0.38051, 0.30449, -1.02168, 0.71719, 0.00000
13.578, 0.38051, 0.30449, -1.02168, 0.71719, 0.00000
13.589, 0.38051, 0.30449, -1.02168, 0.71719, 0.00000
13.600, 0.38051, 0.30449, -1.02168, 0.71719, 0.00000
13.611, 0.38051, 0.30449, -1.02168, 0.71719, 0.00000
13.622, 0.38051, 0.30449, -1.02168, 0.71719, 0.00000
13.633, 0.38051, 0.30449, -1.02168, 0.71719, 0.00000
13.644, 0.38051, 0.30449, -1.02168, 0.71719, 0.00000
13.656, 0.38051, 0.30449, -1.02168, 0.71719, 0.00000
13.667, 0.38051, 0.30449, -1.02168, 0.71719, 0.00000
13.678, 0.38051, 0.30449, -1.02168, 0.71719, 0.00000
13.689, 0.38051, 0.30449, -1.02168, 0.71719, 0.00000
13.700, 0.38051, 0.30449, -1.02168, 0.71719, 0.00000
13.711, 0.38051, 0.30449, -1.02168, 0.71719, -0.00000
13.722, 0.38051, 0.30449, -1.02168, 0.71719, -0.00000
13.733, 0.38051, 0.30449, -1.02168, 0.71719, -0.00000
13.744, 0.38051, 0.30449, -1.02168, 0.71719, -0.00000
13.756, 0.38051, 0.30449, -1.02168, 0.71719, -0.00000
13.767, 0.38051, 0.30449, -1.02168, 0.71719, -0.00000
13.778, 0.38051, 0.30449, -1.02168, 0.71719, -0.00000
13.789, 0.38051, 0.30449, -1.02168, 0.71719, -0.00000
13.800, 0.38051, 0.30449, -1.02168, 0.71719, -0.00000
13.811, 0.38051, 0.30449, -1.02168, 0.71719, -0.00000
13.822, 0.38051, 0.30449, -1.02168, 0.71719, -0.00000
13.833, 0.38051, 0.30449, -1.02168, 0.71719, -0.00000
13.844, 0.38051, 0.30449, -1.02168, 0.71719, -0.00000
13.856, 0.38051, 0.30449, -1.02168, 0.71719, -0.00000
13.867, 0.38051, 0.30449, -1.02168, 0.71719, -0.00000
13.878, 0.38051, 0.30449, -1.02168, 0.71719, -0.00000
13.889, 0.38051, 0.30449, -1.02168, 0.71719, -0.00000
13.900, 0.38051, 0.30449, -1.02168, 0.71719, -0.00000
13.911, 0.38051, 0.30449, -1.02168, 0.71719, -0.00000
13.922, 0.38051, 0.30449, -1.02168, 0.71719, -0.00000
13.933, 0.38051, 0.30449, -1.02168, 0.71719, -0.00000
13.944, 0.38051, 0.30449, -1.02168, 0.71719, -0.00000
13.956, 0.38051, 0.30449, -1.02168, 0.71719, -0.00000
13.967, 0.38051, 0.30449, -1.02168, 0.71719, -0.00000
13.978, 0.38051, 0.30449, -1.02168, 0.71719, -0.00000
13.989, 0.38051, 0.30449, -1.02168, 0.71719, -0.00000
14.000, 0.38051, 0.30449, -1.02168, 0.71719, -0.00000
14.011, 0.38051, 0.30449, -1.02168, 0.71719, -0.00000
14.022, 0.38051, 0.30449, -1.02168, 0.71719, -0.00001
14.033, 0.38051, 0.30449, -1.02168, 0.71719, -0.00001
14.044, 0.38051, 0.30449, -1.02168, 0.71719, -0.00001
14.056, 0.38051, 0.30449, -1.02168, 0.71719, -0.00001
14.067, 0.38051, 0.30449, -1.02168, 0.71719, -0.00001
14.078, 0.38051, 0.30449, -1.02168, 0.71719, -0.00001
14.089, 0.38051, 0.30449, -1.02168, 0.71719, -0.00001
14.100, 0.38051, 0.30449, -1.02168, 0.71719, -0.00001
14.111, 0.38051, 0.30449, -1.02168, 0.71719, -0.00001
14.122, 0.38051, 0.30449, -1.02168, 0.71719, -0.00001
14.133, 0.38051, 0.30449, -1.02168, 0.71719, -0.00000
14.144, 0.38051, 0.30449, -1.02168, 0.71719, -0.00000
14.156, 0.38051, 0.30449, -1.02168, 0.71719, -0.00000
14.167, 0.38051, 0.30449, -1.02168, 0.71719, -0.00000
14.178, 0.38051, 0.30449, -1.02168, 0.71719, -0.00000
14.189, 0.38051, 0.30449, -1.02168, 0.71719, -0.00000
14.200, 0.38051, 0.30449, -1.02168, 0.71719, -0.00000
14.211, 0.38051, 0.30449, -1.02168, 0.71719, -0.00000
14.222, 0.38051, 0.30449, -1.02168, 0.71719, -0.00000
14.233, 0.38051, 0.30449, -1.02168, 0.71719, -0.00000
14.244, 0.38051, 0.30449, -1.02168, 0.71719, -0.00000
14.256, 0.38051, 0.30449, -1.02168, 0.71719, -0.00000
14.267, 0.38051, 0.30449, -1.02168, 0.71719, -0.00000
14.278, 0.38051, 0.30449, -1.02168, 0.71719, -0.00000
14.289, 0.38051, 0.30449, -1.02168, 0.71719, -0.00000
14.300, 0.38051, 0.30449, -1.02168, 0.71719, -0.00000
14.311, 0.38051, 0.30449, -1.02168, 0.71719, -0.00000
14.322, 0.38051, 0.30449, -1.02168, 0.71719, 0.00000
14.333, 0.38051, 0.30449, -1.02168, 0.71719, 0.00000
14.344, 0.38050, 0.30449, -1.02168, 0.71719, 0.00001
14.356, 0.38049, 0.30449, -1.02168, 0.71719, 0.00003
14.367, 0.38046, 0.30449, -1.02168, 0.71719, 0.00005
14.378, 0.38043, 0.30449, -1.02168, 0.71719, 0.00009
14.389, 0.38038, 0.30449, -1.02168, 0.71719, 0.00014
14.400, 0.38031, 0.30449, -1.02168, 0.71719, 0.00021
14.411, 0.38021, 0.30449, -1.02168, 0.71719, 0.00030
14.422, 0.38010, 0.30449, -1.02168, 0.71719, 0.00041
14.433, 0.37996, 0.30449, -1.02168, 0.71719, 0.00054
14.444, 0.37979, 0.30449, -1.02168, 0.71719, 0.00070
14.456, 0.37959, 0.30449, -1.02168, 0.71719, 0.00089
14.467, 0.37935, 0.30449, -1.02168, 0.71719, 0.00112
14.478, 0.37907, 0.30449, -1.02168, 0.71719, 0.00137
14.489, 0.37876, 0.30449, -1.02168, 0.71719, 0.00167
14.500, 0.37840, 0.30449, -1.02168, 0.71719, 0.00200
14.511, 0.37800, 0.30449, -1.02168, 0.71719, 0.00238
14.522, 0.37755, 0.30449, -1.02168, 0.71719, 0.00280
14.533, 0.37704, 0.30449, -1.02168, 0.71719, 0.00326
14.544, 0.37649, 0.30449, -1.02168, 0.71719, 0.00378
14.556, 0.37589, 0.30449, -1.02168, 0.71719, 0.00434
14.567, 0.37524, 0.30449, -1.02168, 0.71719, 0.00496
14.578, 0.37455, 0.30449, -1.02168, 0.71719, 0.00564
14.589, 0.37380, 0.30449, -1.02168, 0.71719, 0.00637
14.600, 0.37300, 0.30449, -1.02168, 0.71719, 0.00717
14.611, 0.37215, 0.30449, -1.02168, 0.71719, 0.00803
14.622, 0.37126, 0.30449, -1.02168, 0.71719, 0.00896
14.633, 0.37031, 0.30449, -1.02168, 0.71719, 0.00995
14.644, 0.36932, 0.30449, -1.02168, 0.71719, 0.01102
14.656, 0.36827, 0.30449, -1.02168, 0.71719, 0.01216
14.667, 0.36718, 0.30449, -1.02168, 0.71719, 0.01337
14.678, 0.36603, 0.30449, -1.02168, 0.71719, 0.01467
14.689, 0.36484, 0.30449, -1.02168, 0.71719, 0.01604
14.700, 0.36360, 0.30449, -1.02168, 0.71719, 0.01750
14.711, 0.36231, 0.30449, -1.02168, 0.71719, 0.01905
14.722, 0.36097, 0.30449, -1.02168, 0.71719, 0.02068
14.733, 0.35958, 0.30449, -1.02168, 0.71719, 0.02240
14.744, 0.35814, 0.30449, -1.02168, 0.71719, 0.02422
14.756, 0.35665, 0.30449, -1.02168, 0.71719, 0.02613
14.767, 0.35511, 0.30449, -1.02168, 0.71719, 0.02814
14.778, 0.35352, 0.30449, -1.02168, 0.71719, 0.03025
14.789, 0.35189, 0.30449, -1.02168, 0.71719, 0.03246
14.800, 0.35020, 0.30449, -1.02168, 0.71719, 0.03478
14.811, 0.34846, 0.30449, -1.02168, 0.71719, 0.03721
14.822, 0.34668, 0.30449, -1.02168, 0.71719, 0.03974
14.833, 0.34484, 0.30449, -1.02168, 0.71719, 0.04239
14.844, 0.34296, 0.30449, -1.02168, 0.71719, 0.04516
14.856, 0.34103, 0.30449, -1.02168, 0.71719, 0.04804
14.867, 0.33904, 0.30449, -1.02168, 0.71719, 0.05104
14.878, 0.33701, 0.30449, -1.02168, 0.71719, 0.05417
14.889, 0.33493, 0.30449, -1.02168, 0.71719, 0.05741
14.900, 0.33280, 0.30449, -1.02168, 0.71719, 0.06078
14.911, 0.33062, 0.30449, -1.02168, 0.71719, 0.06427
14.922, 0.32839, 0.30449, -1.02168, 0.71719, 0.06789
14.933, 0.32611, 0.30449, -1.02168, 0.71719, 0.07162
14.944, 0.32378, 0.30449, -1.02168, 0.71719, 0.07548
14.956, 0.32140, 0.30449, -1.02168, 0.71719, 0.07946
14.967, 0.31898, 0.30449, -1.02168, 0.71719, 0.08357
14.978, 0.31650, 0.30449, -1.02168, 0.71719, 0.08779
14.989, 0.31398, 0.30449, -1.02168, 0.71719, 0.09214
15.000, 0.31140, 0.30449, -1.02168, 0.71719, 0.09661
15.011, 0.30878, 0.30449, -1.02168, 0.71719, 0.10121
15.022, 0.30610, 0.30449, -1.02168, 0.71719, 0.10592
15.033, 0.30338, 0.30449, -1.02168, 0.71719, 0.11076
15.044, 0.30060, 0.30449, -1.02168, 0.71719, 0.11572
15.056, 0.29778, 0.30449, -1.02168, 0.71719, 0.12079
15.067, 0.29491, 0.30449, -1.02168, 0.71719, 0.12598
15.078, 0.29199, 0.30449, -1.02168, 0.71719, 0.13128
15.089, 0.28902, 0.30449, -1.02168, 0.71719, 0.13669
15.100, 0.28601, 0.30449, -1.02168, 0.71719, 0.14221
15.111, 0.28296, 0.30449, -1.02168, 0.71719, 0.14784
15.122, 0.27987, 0.30449, -1.02168, 0.71719, 0.15356
15.133, 0.27675, 0.30449, -1.02168, 0.71719, 0.15939
15.144, 0.27359, 0.30449, -1.02168, 0.71719, 0.16532
15.156, 0.27041, 0.30449, -1.02168, 0.71719, 0.17134
15.167, 0.26719, 0.30449, -1.02168, 0.71719, 0.17745
15.178, 0.26396, 0.30449, -1.02168, 0.71719, 0.18365
15.189, 0.26070, 0.30449, -1.02168, 0.71719, 0.18994
15.200, 0.25742, 0.30449, -1.02168, 0.71719, 0.19632
15.211, 0.25412, 0.30449, -1.02168, 0.71719, 0.20278
15.222, 0.25082, 0.30449, -1.02168, 0.71719, 0.20932
15.233, 0.24750, 0.30449, -1.02168, 0.71719, 0.21594
15.244, 0.24417, 0.30449, -1.02168, 0.71719, 0.22263
15.256, 0.24084, 0.30449, -1.02168, 0.71719, 0.22940
15.267, 0.23751, 0.30449, -1.02168, 0.71719, 0.23623
15.278, 0.23418, 0.30449, -1.02168, 0.71719, 0.24314
15.289, 0.23084, 0.30449, -1.02168, 0.71719, 0.25011
15.300, 0.22751, 0.30449, -1.02168, 0.71719, 0.25715
15.311, 0.22418, 0.30449, -1.02168, 0.71719, 0.26424
15.322, 0.22084, 0.30449, -1.02168, 0.71719, 0.27140
15.333, 0.21751, 0.30449, -1.02168, 0.71719, 0.27861
15.344, 0.21418, 0.30449, -1.02168, 0.71719, 0.28587
15.356, 0.21084, 0.30449, -1.02168, 0.71719, 0.29318
15.367, 0.20751, 0.30449, -1.02168, 0.71719, 0.30055
15.378, 0.20418, 0.30449, -1.02168, 0.71719, 0.30796
15.389, 0.20084, 0.30449, -1.02168, 0.71719, 0.31541
15.400, 0.19751, 0.30449, -1.02168, 0.71719, 0.32291
15.411, 0.19418, 0.30449, -1.02168, 0.71719, 0.33044
15.422, 0.19084, 0.30449, -1.02168, 0.71719, 0.33801
15.433, 0.18751, 0.30449, -1.02168, 0.71719, 0.34561
15.444, 0.18418, 0.30449, -1.02168, 0.71719, 0.35325
15.456, 0.18084, 0.30449, -1.02168, 0.71719, 0.36091
15.467, 0.17751, 0.30449, -1.02168, 0.71719, 0.36861
15.478, 0.17418, 0.30449, -1.02168, 0.71719, 0.37632
15.489, 0.17084, 0.30449, -1.02168, 0.71719, 0.38406
15.500, 0.16751, 0.30449, -1.02168, 0.71719, 0.39181
15.511, 0.16418, 0.30449, -1.02168, 0.71719, 0.39959
15.522, 0.16084, 0.30449, -1.02168, 0.71719, 0.40737
15.533, 0.15751, 0.30449, -1.02168, 0.71719, 0.41517
15.544, 0.15418, 0.30449, -1.02168, 0.71719, 0.42298
15.556, 0.15084, 0.30449, -1.02168, 0.71719, 0.43080
15.567, 0.14751, 0.30449, -1.02168, 0.71719, 0.43862
15.578, 0.14418, 0.30449, -1.02168, 0.71719, 0.44644
15.589, 0.14084, 0.30449, -1.02168, 0.71719, 0.45426
15.600, 0.13751, 0.30449, -1.02168, 0.71719, 0.46209
15.611, 0.13418, 0.30449, -1.02168, 0.71719, 0.46991
15.622, 0.13084, 0.30449, -1.02168, 0.71719, 0.47773
15.633, 0.12751, 0.30449, -1.02168, 0.71719, 0.48555
15.644, 0.12418, 0.30449, -1.02168, 0.71719, 0.49338
15.656, 0.12084, 0.30449, -1.02168, 0.71719, 0.50120
15.667, 0.11751, 0.30449, -1.02168, 0.71719, 0.50902
15.678, 0.11418, 0.30449, -1.02168, 0.71719, 0.51684
15.689, 0.11084, 0.30449, -1.02168, 0.71719, 0.52467
15.700, 0.10751, 0.30449, -1.02168, 0.71719, 0.53249
15.711, 0.10418, 0.30449, -1.02168, 0.71719, 0.54031
15.722, 0.10084, 0.30449, -1.02168, 0.71719, 0.54813
15.733, 0.09751, 0.30449, -1.02168, 0.71719, 0.55596
15.744, 0.09418, 0.30449, -1.02168, 0.71719, 0.56378
15.756, 0.09084, 0.30449, -1.02168, 0.71719, 0.57160
15.767, 0.08751, 0.30449, -1.02168, 0.71719, 0.57942
15.778, 0.08418, 0.30449, -1.02168, 0.71719, 0.58725
15.789, 0.08084, 0.30449, -1.02168, 0.71719, 0.59507
15.800, 0.07751, 0.30449, -1.02168, 0.71719, 0.60289
15.811, 0.07418, 0.30449, -1.02168, 0.71719, 0.61071
15.822, 0.07084, 0.30449, -1.02168, 0.71719, 0.61854
15.833, 0.06751, 0.30449, -1.02168, 0.71719, 0.62636
15.844, 0.06418, 0.30449, -1.02168, 0.71719, 0.63418
15.856, 0.06084, 0.30449, -1.02168, 0.71719, 0.64200
15.867, 0.05751, 0.30449, -1.02168, 0.71719, 0.64983
15.878, 0.05418, 0.30449, -1.02168, 0.71719, 0.65765
15.889, 0.05084, 0.30449, -1.02168, 0.71719, 0.66547
15.900, 0.04751, 0.30449, -1.02168, 0.71719, 0.67329
15.911, 0.04418, 0.30449, -1.02168, 0.71719, 0.68112
15.922, 0.04084, 0.30449, -1.02168, 0.71719, 0.68894
15.933, 0.03751, 0.30449, -1.02168, 0.71719, 0.69676
15.944, 0.03418, 0.30449, -1.02168, 0.71719, 0.70458
15.956, 0.03084, 0.30449, -1.02168, 0.71719, 0.71241
15.967, 0.02751, 0.30449, -1.02168, 0.71719, 0.72023
15.978, 0.02418, 0.30449, -1.02168, 0.71719, 0.72805
15.989, 0.02084, 0.30449, -1.02168, 0.71719, 0.73587
16.000, 0.01751, 0.30449, -1.02168, 0.71719, 0.74370
16.011, 0.01418, 0.30449, -1.02168, 0.71719, 0.75152
16.022, 0.01084, 0.30449, -1.02168, 0.71719, 0.75934
16.033, 0.00751, 0.30449, -1.02168, 0.71719, 0.76716
16.044, 0.00418, 0.30449, -1.02168, 0.71719, 0.77499
16.056, 0.00084, 0.30449, -1.02168, 0.71719, 0.78281
16.067, -0.00249, 0.30449, -1.02168, 0.71719, 0.79063
16.078, -0.00582, 0.30449, -1.02168, 0.71719, 0.79845
16.089, -0.00916, 0.30449, -1.02168, 0.71719, 0.80628
16.100, -0.01249, 0.30449, -1.02168, 0.71719, 0.81410
16.111, -0.01582, 0.30449, -1.02168, 0.71719, 0.82192
16.122, -0.01916, 0.30449, -1.02168, 0.71719, 0.82974
16.133, -0.02249, 0.30449, -1.02168, 0.71719, 0.83757
16.144, -0.02582, 0.30449, -1.02168, 0.71719, 0.84539
16.156, -0.02916, 0.30449, -1.02168, 0.71719, 0.85321
16.167, -0.03249, 0.30449, -1.02168, 0.71719, 0.86103
16.178, -0.03582, 0.30449, -1.02168, 0.71719, 0.86886
16.189, -0.03916, 0.30449, -1.02168, 0.71719, 0.87668
16.200, -0.04249, 0.30449, -1.02168, 0.71719, 0.88450
16.211, -0.04582, 0.30449, -1.02168, 0.71719, 0.89232
16.222, -0.04916, 0.30449, -1.02168, 0.71719, 0.90015
16.233, -0.05249, 0.30449, -1.02168, 0.71719, 0.90797
16.244, -0.05582, 0.30449, -1.02168, 0.71719, 0.91579
16.256, -0.05916, 0.30449, -1.02168, 0.71719, 0.92361
16.267, -0.06249, 0.30449, -1.02168, 0.71719, 0.93144
16.278, -0.06582, 0.30449, -1.02168, 0.71719, 0.93926
16.289, -0.06916, 0.30449, -1.02168, 0.71719, 0.94708
16.300, -0.07249, 0.30449, -1.02168, 0.71719, 0.95490
16.311, -0.07582, 0.30449, -1.02168, 0.71719, 0.96273
16.322, -0.07916, 0.30449, -1.02168, 0.71719, 0.97055
16.333, -0.08249, 0.30449, -1.02168, 0.71719, 0.97837
16.344, -0.08582, 0.30449, -1.02168, 0.71719, 0.98619
16.356, -0.08916, 0.30449, -1.02168, 0.71719, 0.99402
16.367, -0.09249, 0.30449, -1.02168, 0.71719, 1.00184
16.378, -0.09582, 0.30449, -1.02168, 0.71719, 1.00966
16.389, -0.09916, 0.30449, -1.02168, 0.71719, 1.01748
16.400, -0.10249, 0.30449, -1.02168, 0.71719, 1.02531
16.411, -0.10582, 0.30449, -1.02168, 0.71719, 1.03313
16.422, -0.10916, 0.30449, -1.02168, 0.71719, 1.04095
16.433, -0.11249, 0.30449, -1.02168, 0.71719, 1.04877
16.444, -0.11582, 0.30449, -1.02168, 0.71719, 1.05660
16.456, -0.11916, 0.30449, -1.02168, 0.71719, 1.06442
16.467, -0.12249, 0.30449, -1.02168, 0.71719, 1.07224
16.478, -0.12582, 0.30449, -1.02168, 0.71719, 1.08006
16.489, -0.12916, 0.30449, -1.02168, 0.71719, 1.08789
16.500, -0.13249, 0.30449, -1.02168, 0.71719, 1.09571
16.511, -0.13582, 0.30449, -1.02168, 0.71719, 1.10353
16.522, -0.13916, 0.30449, -1.02168, 0.71719, 1.11135
16.533, -0.14249, 0.30449, -1.02168, 0.71719, 1.11917
16.544, -0.14582, 0.30449, -1.02168, 0.71719, 1.12700
16.556, -0.14916, 0.30449, -1.02168, 0.71719, 1.13482
16.567, -0.15249, 0.30449, -1.02168, 0.71719, 1.14264
16.578, -0.15582, 0.30449, -1.02168, 0.71719, 1.15045
16.589, -0.15916, 0.30449, -1.02168, 0.71719, 1.15826
16.600, -0.16249, 0.30449, -1.02168, 0.71719, 1.16605
16.611, -0.16582, 0.30449, -1.02168, 0.71719, 1.17384
16.622, -0.16916, 0.30449, -1.02168, 0.71719, 1.18160
16.633, -0.17249, 0.30449, -1.02168, 0.71719, 1.18935
16.644, -0.17582, 0.30449, -1.02168, 0.71719, 1.19708
16.656, -0.17916, 0.30449, -1.02168, 0.71719, 1.20479
16.667, -0.18249, 0.30449, -1.02168, 0.71719, 1.21247
16.678, -0.18582, 0.30449, -1.02168, 0.71719, 1.22013
16.689, -0.18916, 0.30449, -1.02168, 0.71719, 1.22776
16.700, -0.19249, 0.30449, -1.02168, 0.71719, 1.23535
16.711, -0.19582, 0.30449, -1.02168, 0.71719, 1.24291
16.722, -0.19916, 0.30449, -1.02168, 0.71719, 1.25043
16.733, -0.20249, 0.30449, -1.02168, 0.71719, 1.25791
16.744, -0.20582, 0.30449, -1.02168, 0.71719, 1.26535
16.756, -0.20916, 0.30449, -1.02168, 0.71719, 1.27274
16.767, -0.21249, 0.30449, -1.02168, 0.71719, 1.28009
16.778, -0.21582, 0.30449, -1.02168, 0.71719, 1.28739
16.789, -0.21916, 0.30449, -1.02168, 0.71719, 1.29463
16.800, -0.22249, 0.30449, -1.02168, 0.71719, 1.30182
16.811, -0.22582, 0.30449, -1.02168, 0.71719, 1.30896
16.822, -0.22916, 0.30449, -1.02168, 0.71719, 1.31603
16.833, -0.23249, 0.30449, -1.02168, 0.71719, 1.32305
16.844, -0.23582, 0.30449, -1.02168, 0.71719, 1.33000
16.856, -0.23916, 0.30449, -1.02168, 0.71719, 1.33688
16.867, -0.24249, 0.30449, -1.02168, 0.71719, 1.34369
16.878, -0.24582, 0.30449, -1.02168, 0.71719, 1.35044
16.889, -0.24914, 0.30449, -1.02168, 0.71719, 1.35711
16.900, -0.25245, 0.30449, -1.02168, 0.71719, 1.36370
16.911, -0.25575, 0.30449, -1.02168, 0.71719, 1.37021
16.922, -0.25904, 0.30449, -1.02168, 0.71719, 1.37664
16.933, -0.26231, 0.30449, -1.02168, 0.71719, 1.38299
16.944, -0.26556, 0.30449, -1.02168, 0.71719, 1.38925
16.956, -0.26878, 0.30449, -1.02168, 0.71719, 1.39542
16.967, -0.27198, 0.30449, -1.02168, 0.71719, 1.40151
16.978, -0.27516, 0.30449, -1.02168, 0.71719, 1.40749
16.989, -0.27830, 0.30449, -1.02168, 0.71719, 1.41339
17.000, -0.28140, 0.30449, -1.02168, 0.71719, 1.41918
17.011, -0.28448, 0.30449, -1.02168, 0.71719, 1.42487
17.022, -0.28751, 0.30449, -1.02168, 0.71719, 1.43046
17.033, -0.29050, 0.30449, -1.02168, 0.71719, 1.43594
17.044, -0.29344, 0.30449, -1.02168, 0.71719, 1.44132
17.056, -0.29634, 0.30449, -1.02168, 0.71719, 1.44658
17.067, -0.29918, 0.30449, -1.02168, 0.71719, 1.45173
17.078, -0.30198, 0.30449, -1.02168, 0.71719, 1.45677
17.089, -0.30473, 0.30449, -1.02168, 0.71719, 1.46169
17.100, -0.30743, 0.30449, -1.02168, 0.71719, 1.46648
17.111, -0.31008, 0.30449, -1.02168, 0.71719, 1.47116
17.122, -0.31268, 0.30449, -1.02168, 0.71719, 1.47571
17.133, -0.31523, 0.30449, -1.02168, 0.71719, 1.48014
17.144, -0.31773, 0.30449, -1.02168, 0.71719, 1.48445
17.156, -0.32018, 0.30449, -1.02168, 0.71719, 1.48863
17.167, -0.32259, 0.30449, -1.02168, 0.71719, 1.49269
17.178, -0.32494, 0.30449, -1.02168, 0.71719, 1.49663
17.189, -0.32724, 0.30449, -1.02168, 0.71719, 1.50045
17.200, -0.32950, 0.30449, -1.02168, 0.71719, 1.50415
17.211, -0.33170, 0.30449, -1.02168, 0.71719, 1.50772
17.222, -0.33386, 0.30449, -1.02168, 0.71719, 1.51117
17.233, -0.33597, 0.30449, -1.02168, 0.71719, 1.51450
17.244, -0.33802, 0.30449, -1.02168, 0.71719, 1.51770
17.256, -0.34003, 0.30449, -1.02168, 0.71719, 1.52078
17.267, -0.34199, 0.30449, -1.02168, 0.71719, 1.52375
17.278, -0.34390, 0.30449, -1.02168, 0.71719, 1.52659
17.289, -0.34576, 0.30449, -1.02168, 0.71719, 1.52931
17.300, -0.34757, 0.30449, -1.02168, 0.71719, 1.53192
17.311, -0.34933, 0.30449, -1.02168, 0.71719, 1.53442
17.322, -0.35104, 0.30449, -1.02168, 0.71719, 1.53681
17.333, -0.35270, 0.30449, -1.02168, 0.71719, 1.53910
17.344, -0.35431, 0.30449, -1.02168, 0.71719, 1.54127
17.356, -0.35588, 0.30449, -1.02168, 0.71719, 1.54335
17.367, -0.35739, 0.30449, -1.02168, 0.71719, 1.54533
17.378, -0.35886, 0.30449, -1.02168, 0.71719, 1.54721
17.389, -0.36027, 0.30449, -1.02168, 0.71719, 1.54899
17.400, -0.36164, 0.30449, -1.02168, 0.71719, 1.55068
17.411, -0.36295, 0.30449, -1.02168, 0.71719, 1.55228
17.422, -0.36422, 0.30449, -1.02168, 0.71719, 1.55380
17.433, -0.36544, 0.30449, -1.02168, 0.71719, 1.55523
17.444, -0.36661, 0.30449, -1.02168, 0.71719, 1.55658
17.456, -0.36772, 0.30449, -1.02168, 0.71719, 1.55784
17.467, -0.36879, 0.30449, -1.02168, 0.71719, 1.55903
17.478, -0.36981, 0.30449, -1.02168, 0.71719, 1.56015
17.489, -0.37078, 0.30449, -1.02168, 0.71719, 1.56119
17.500, -0.37171, 0.30449, -1.02168, 0.71719, 1.56216
17.511, -0.37258, 0.30449, -1.02168, 0.71719, 1.56307
17.522, -0.37340, 0.30449, -1.02168, 0.71719, 1.56390
17.533, -0.37417, 0.30449, -1.02168, 0.71719, 1.56468
17.544, -0.37490, 0.30449, -1.02168, 0.71719, 1.56540
17.556, -0.37557, 0.30449, -1.02168, 0.71719, 1.56605
17.567, -0.37620, 0.30449, -1.02168, 0.71719, 1.56665
17.578, -0.37677, 0.30449, -1.02168, 0.71719, 1.56720
17.589, -0.37730, 0.30449, -1.02168, 0.71719, 1.56770
17.600, -0.37777, 0.30449, -1.02168, 0.71719, 1.56815
17.611, -0.37820, 0.30449, -1.02168, 0.71719, 1.56855
17.622, -0.37858, 0.30449, -1.02168, 0.71719, 1.56892
17.633, -0.37892, 0.30449, -1.02168, 0.71719, 1.56923
17.644, -0.37921, 0.30449, -1.02168, 0.71719, 1.56952
17.656, -0.37947, 0.30449, -1.02168, 0.71719, 1.56976
17.667, -0.37969, 0.30449, -1.02168, 0.71719, 1.56997
17.678, -0.37988, 0.30449, -1.02168, 0.71719, 1.57016
17.689, -0.38003, 0.30449, -1.02168, 0.71719, 1.57031
17.700, -0.38016, 0.30449, -1.02168, 0.71719, 1.57043
17.711, -0.38026, 0.30449, -1.02168, 0.71719, 1.57054
17.722, -0.38034, 0.30449, -1.02168, 0.71719, 1.57062
17.733, -0.38040, 0.30449, -1.02168, 0.71719, 1.57068
17.744, -0.38045, 0.30449, -1.02168, 0.71719, 1.57073
17.756, -0.38048, 0.30449, -1.02168, 0.71719, 1.57076
17.767, -0.38050, 0.30449, -1.02168, 0.71719, 1.57078
17.778, -0.38051, 0.30449, -1.02168, 0.71719, 1.57079
17.789, -0.38051, 0.30449, -1.02168, 0.71719, 1.57080
17.800, -0.38051, 0.30449, -1.02168, 0.71719, 1.57080
17.811, -0.38051, 0.30449, -1.02168, 0.71719, 1.57080
17.822, -0.38051, 0.30449, -1.02168, 0.71719, 1.57080
17.833, -0.38051, 0.30449, -1.02168, 0.71719, 1.57080
17.844, -0.38051, 0.30449, -1.02168, 0.71719, 1.57080
17.856, -0.38051, 0.30449, -1.02168, 0.71719, 1.57080
17.867, -0.38051, 0.30449, -1.02168, 0.71719, 1.57080
17.878, -0.38051, 0.30449, -1.02168, 0.71719, 1.57080
17.889, -0.38051, 0.30449, -1.02168, 0.71719, 1.57080
17.900, -0.38051, 0.30449, -1.02168, 0.71719, 1.57080
17.911, -0.38051, 0.30449, -1.02168, 0.71719, 1.57080
17.922, -0.38051, 0.30449, -1.02168, 0.71719, 1.57080
17.933, -0.38051, 0.30449, -1.02168, 0.71719, 1.57080
17.944, -0.38051, 0.30449, -1.02168, 0.71719, 1.57080
17.956, -0.38051, 0.30449, -1.02168, 0.71719, 1.57080
17.967, -0.38051, 0.30449, -1.02168, 0.71719, 1.57080
17.978, -0.38051, 0.30449, -1.02168, 0.71719, 1.57080
17.989, -0.38051, 0.30449, -1.02168, 0.71719, 1.57080
18.000, -0.38051, 0.30449, -1.02168, 0.71719, 1.57080
18.011, -0.38051, 0.30449, -1.02168, 0.71719, 1.57080
18.022, -0.38051, 0.30449, -1.02168, 0.71719, 1.57080
18.033, -0.38051, 0.30449, -1.02168, 0.71719, 1.57080
18.044, -0.38051, 0.30449, -1.02168, 0.71719, 1.57080
18.056, -0.38051, 0.30449, -1.02168, 0.71719, 1.57080
18.067, -0.38051, 0.30449, -1.02168, 0.71719, 1.57080
18.078, -0.38051, 0.30449, -1.02168, 0.71719, 1.57080
18.089, -0.38051, 0.30449, -1.02168, 0.71719, 1.57080
18.100, -0.38051, 0.30449, -1.02168, 0.71719, 1.57080
18.111, -0.38051, 0.30449, -1.02168, 0.71719, 1.57080
18.122, -0.38051, 0.30449, -1.02168, 0.71719, 1.57080
18.133, -0.38051, 0.30449, -1.02168, 0.71719, 1.57080
18.144, -0.38051, 0.30449, -1.02168, 0.71719, 1.57080
18.156, -0.38051, 0.30449, -1.02168, 0.71719, 1.57080
18.167, -0.38051, 0.30449, -1.02168, 0.71719, 1.57080
18.178, -0.38051, 0.30449, -1.02168, 0.71719, 1.57080
18.189, -0.38051, 0.30449, -1.02168, 0.71719, 1.57080
18.200, -0.38051, 0.30449, -1.02168, 0.71719, 1.57080
18.211, -0.38051, 0.30449, -1.02168, 0.71719, 1.57080
18.222, -0.38051, 0.30449, -1.02168, 0.71719, 1.57080
18.233, -0.38051, 0.30449, -1.02168, 0.71719, 1.57080
18.244, -0.38051, 0.30449, -1.02168, 0.71719, 1.57080
18.256, -0.38051, 0.30449, -1.02168, 0.71720, 1.57080
18.267, -0.38051, 0.30449, -1.02168, 0.71720, 1.57080
18.278, -0.38051, 0.30449, -1.02168, 0.71720, 1.57080
18.289, -0.38051, 0.30449, -1.02168, 0.71720, 1.57080
18.300, -0.38051, 0.30449, -1.02168, 0.71720, 1.57080
18.311, -0.38051, 0.30449, -1.02168, 0.71720, 1.57080
18.322, -0.38051, 0.30449, -1.02168, 0.71720, 1.57080
18.333, -0.38051, 0.30449, -1.02168, 0.71720, 1.57080
18.344, -0.38051, 0.30449, -1.02168, 0.71720, 1.57080
18.356, -0.38051, 0.30449, -1.02168, 0.71720, 1.57080
18.367, -0.38051, 0.30449, -1.02168, 0.71720, 1.57079
18.378, -0.38051, 0.30449, -1.02168, 0.71720, 1.57079
18.389, -0.38051, 0.30449, -1.02168, 0.71720, 1.57079
18.400, -0.38051, 0.30449, -1.02168, 0.71720, 1.57079
18.411, -0.38051, 0.30449, -1.02168, 0.71720, 1.57079
18.422, -0.38051, 0.30449, -1.02168, 0.71720, 1.57079
18.433, -0.38051, 0.30449, -1.02168, 0.71720, 1.57079
18.444, -0.38051, 0.30449, -1.02168, 0.71720, 1.57079
18.456, -0.38051, 0.30449, -1.02168, 0.71720, 1.57079
18.467, -0.38051, 0.30449, -1.02168, 0.71720, 1.57079
18.478, -0.38051, 0.30449, -1.02168, 0.71720, 1.57079
18.489, -0.38051, 0.30449, -1.02168, 0.71720, 1.57079
18.500, -0.38051, 0.30449, -1.02168, 0.71720, 1.57079
18.511, -0.38051, 0.30449, -1.02168, 0.71720, 1.57079
18.522, -0.38051, 0.30449, -1.02168, 0.71720, 1.57079
18.533, -0.38051, 0.30449, -1.02168, 0.71720, 1.57079
18.544, -0.38051, 0.30449, -1.02168, 0.71720, 1.57079
18.556, -0.38051, 0.30449, -1.02168, 0.71720, 1.57079
18.567, -0.38051, 0.30449, -1.02168, 0.71720, 1.57079
18.578, -0.38051, 0.30449, -1.02168, 0.71720, 1.57079
18.589, -0.38051, 0.30449, -1.02168, 0.71720, 1.57079
18.600, -0.38051, 0.30449, -1.02168, 0.71720, 1.57079
18.611, -0.38051, 0.30449, -1.02168, 0.71720, 1.57079
18.622, -0.38051, 0.30449, -1.02168, 0.71720, 1.57079
18.633, -0.38051, 0.30449, -1.02168, 0.71720, 1.57079
18.644, -0.38051, 0.30449, -1.02168, 0.71720, 1.57079
18.656, -0.38051, 0.30449, -1.02168, 0.71719, 1.57079
18.667, -0.38051, 0.30449, -1.02168, 0.71719, 1.57079
18.678, -0.38051, 0.30449, -1.02168, 0.71719, 1.57080
18.689, -0.38051, 0.30449, -1.02168, 0.71719, 1.57080
18.700, -0.38051, 0.30449, -1.02168, 0.71719, 1.57080
18.711, -0.38051, 0.30449, -1.02168, 0.71719, 1.57080
18.722, -0.38051, 0.30449, -1.02168, 0.71719, 1.57080
18.733, -0.38051, 0.30449, -1.02168, 0.71719, 1.57080
18.744, -0.38051, 0.30449, -1.02168, 0.71719, 1.57080
18.756, -0.38051, 0.30449, -1.02168, 0.71719, 1.57080
18.767, -0.38051, 0.30449, -1.02168, 0.71719, 1.57080
18.778, -0.38051, 0.30449, -1.02168, 0.71719, 1.57080
18.789, -0.38051, 0.30449, -1.02168, 0.71719, 1.57080
18.800, -0.38051, 0.30449, -1.02168, 0.71719, 1.57080
18.811, -0.38051, 0.30449, -1.02168, 0.71719, 1.57080
18.822, -0.38051, 0.30449, -1.02167, 0.71718, 1.57081
18.833, -0.38051, 0.30450, -1.02166, 0.71717, 1.57083
18.844, -0.38051, 0.30450, -1.02164, 0.71715, 1.57087
18.856, -0.38051, 0.30451, -1.02161, 0.71712, 1.57092
18.867, -0.38051, 0.30453, -1.02156, 0.71708, 1.57100
18.878, -0.38051, 0.30455, -1.02149, 0.71702, 1.57111
18.889, -0.38051, 0.30457, -1.02140, 0.71694, 1.57124
18.900, -0.38051, 0.30460, -1.02130, 0.71685, 1.57142
18.911, -0.38051, 0.30464, -1.02116, 0.71673, 1.57163
18.922, -0.38051, 0.30469, -1.02099, 0.71659, 1.57188
18.933, -0.38051, 0.30474, -1.02080, 0.71642, 1.57219
18.944, -0.38051, 0.30481, -1.02057, 0.71623, 1.57255
18.956, -0.38051, 0.30488, -1.02030, 0.71600, 1.57296
18.967, -0.38051, 0.30497, -1.02000, 0.71574, 1.57343
18.978, -0.38051, 0.30507, -1.01965, 0.71545, 1.57397
18.989, -0.38051, 0.30518, -1.01925, 0.71512, 1.57457
19.000, -0.38051, 0.30530, -1.01881, 0.71476, 1.57525
19.011, -0.38051, 0.30544, -1.01832, 0.71435, 1.57600
19.022, -0.38051, 0.30559, -1.01777, 0.71389, 1.57684
19.033, -0.38051, 0.30576, -1.01717, 0.71340, 1.57776
19.044, -0.38051, 0.30595, -1.01651, 0.71285, 1.57877
19.056, -0.38051, 0.30615, -1.01579, 0.71225, 1.57987
19.067, -0.38051, 0.30637, -1.01500, 0.71160, 1.58107
19.078, -0.38051, 0.30660, -1.01415, 0.71090, 1.58237
19.089, -0.38051, 0.30686, -1.01322, 0.71014, 1.58378
19.100, -0.38051, 0.30714, -1.01223, 0.70932, 1.58529
19.111, -0.38051, 0.30743, -1.01115, 0.70844, 1.58692
19.122, -0.38051, 0.30775, -1.01000, 0.70750, 1.58867
19.133, -0.38051, 0.30809, -1.00877, 0.70649, 1.59054
19.144, -0.38051, 0.30846, -1.00746, 0.70542, 1.59253
19.156, -0.38051, 0.30885, -1.00606, 0.70427, 1.59466
19.167, -0.38051, 0.30926, -1.00457, 0.70305, 1.59692
19.178, -0.38051, 0.30969, -1.00300, 0.70176, 1.59932
19.189, -0.38051, 0.31016, -1.00134, 0.70039, 1.60186
19.200, -0.38051, 0.31065, -0.99960, 0.69895, 1.60454
19.211, -0.38051, 0.31117, -0.99776, 0.69742, 1.60738
19.222, -0.38051, 0.31171, -0.99584, 0.69581, 1.61037
19.233, -0.38051, 0.31229, -0.99384, 0.69412, 1.61352
19.244, -0.38051, 0.31289, -0.99175, 0.69233, 1.61683
19.256, -0.38051, 0.31352, -0.98957, 0.69046, 1.62031
19.267, -0.38051, 0.31419, -0.98731, 0.68850, 1.62397
19.278, -0.38051, 0.31489, -0.98496, 0.68644, 1.62779
19.289, -0.38051, 0.31562, -0.98252, 0.68429, 1.63179
19.300, -0.38051, 0.31638, -0.97999, 0.68203, 1.63596
19.311, -0.38051, 0.31718, -0.97739, 0.67968, 1.64030
19.322, -0.38051, 0.31801, -0.97470, 0.67723, 1.64481
19.333, -0.38051, 0.31888, -0.97192, 0.67467, 1.64950
19.344, -0.38051, 0.31979, -0.96908, 0.67200, 1.65436
19.356, -0.38051, 0.32073, -0.96615, 0.66922, 1.65939
19.367, -0.38051, 0.32171, -0.96316, 0.66634, 1.66460
19.378, -0.38051, 0.32272, -0.96010, 0.66334, 1.66998
19.389, -0.38051, 0.32377, -0.95697, 0.66022, 1.67553
19.400, -0.38051, 0.32486, -0.95378, 0.65699, 1.68125
19.411, -0.38051, 0.32598, -0.95053, 0.65365, 1.68714
19.422, -0.38051, 0.32714, -0.94722, 0.65019, 1.69320
19.433, -0.38051, 0.32834, -0.94385, 0.64663, 1.69942
19.444, -0.38051, 0.32957, -0.94044, 0.64294, 1.70579
19.456, -0.38051, 0.33084, -0.93697, 0.63915, 1.71232
19.467, -0.38051, 0.33214, -0.93346, 0.63524, 1.71899
19.478, -0.38051, 0.33348, -0.92990, 0.63121, 1.72582
19.489, -0.38051, 0.33486, -0.92630, 0.62708, 1.73278
19.500, -0.38051, 0.33627, -0.92267, 0.62282, 1.73987
19.511, -0.38051, 0.33772, -0.91899, 0.61846, 1.74710
19.522, -0.38051, 0.33921, -0.91529, 0.61398, 1.75446
19.533, -0.38051, 0.34073, -0.91155, 0.60939, 1.76194
19.544, -0.38051, 0.34229, -0.90779, 0.60469, 1.76954
19.556, -0.38051, 0.34389, -0.90400, 0.59987, 1.77726
19.567, -0.38051, 0.34552, -0.90019, 0.59495, 1.78509
19.578, -0.38051, 0.34719, -0.89636, 0.58992, 1.79303
19.589, -0.38051, 0.34889, -0.89251, 0.58479, 1.80107
19.600, -0.38051, 0.35063, -0.88865, 0.57955, 1.80920
19.611, -0.38051, 0.35240, -0.88478, 0.57422, 1.81744
19.622, -0.38051, 0.35421, -0.88090, 0.56879, 1.82576
19.633, -0.38051, 0.35604, -0.87701, 0.56326, 1.83418
19.644, -0.38051, 0.35791, -0.87312, 0.55764, 1.84267
19.656, -0.38051, 0.35981, -0.86924, 0.55194, 1.85125
19.667, -0.38051, 0.36174, -0.86535, 0.54614, 1.85989
19.678, -0.38051, 0.36370, -0.86146, 0.54025, 1.86861
19.689, -0.38051, 0.36569, -0.85757, 0.53429, 1.87740
19.700, -0.38051, 0.36771, -0.85368, 0.52824, 1.88625
19.711, -0.38051, 0.36975, -0.84979, 0.52211, 1.89515
19.722, -0.38051, 0.37182, -0.84590, 0.51590, 1.90411
19.733, -0.38051, 0.37391, -0.84201, 0.50962, 1.91312
19.744, -0.38051, 0.37603, -0.83812, 0.50326, 1.92218
19.756, -0.38051, 0.37818, -0.83424, 0.49684, 1.93128
19.767, -0.38051, 0.38035, -0.83035, 0.49034, 1.94042
19.778, -0.38051, 0.38254, -0.82646, 0.48378, 1.94959
19.789, -0.38051, 0.38475, -0.82257, 0.47715, 1.95878
19.800, -0.38051, 0.38698, -0.81868, 0.47047, 1.96801
19.811, -0.38051, 0.38923, -0.81479, 0.46372, 1.97725
19.822, -0.38051, 0.39151, -0.81090, 0.45691, 1.98652
19.833, -0.38051, 0.39380, -0.80701, 0.45005, 1.99579
19.844, -0.38051, 0.39611, -0.80312, 0.44314, 2.00508
19.856, -0.38051, 0.39844, -0.79924, 0.43617, 2.01437
19.867, -0.38051, 0.40078, -0.79535, 0.42916, 2.02366
19.878, -0.38051, 0.40314, -0.79146, 0.42210, 2.03295
19.889, -0.38051, 0.40552, -0.78757, 0.41499, 2.04224
19.900, -0.38051, 0.40791, -0.78368, 0.40784, 2.05153
19.911, -0.38051, 0.41031, -0.77979, 0.40066, 2.06082
19.922, -0.38051, 0.41273, -0.77590, 0.39343, 2.07011
19.933, -0.38051, 0.41516, -0.77201, 0.38617, 2.07941
19.944, -0.38051, 0.41760, -0.76812, 0.37887, 2.08870
19.956, -0.38051, 0.42005, -0.76424, 0.37154, 2.09799
19.967, -0.38051, 0.42251, -0.76035, 0.36419, 2.10728
19.978, -0.38051, 0.42498, -0.75646, 0.35680, 2.11657
19.989, -0.38051, 0.42746, -0.75257, 0.34940, 2.12586
20.000, -0.38051, 0.42994, -0.74868, 0.34196, 2.13515
20.011, -0.38051, 0.43244, -0.74479, 0.33451, 2.14444
20.022, -0.38051, 0.43494, -0.74090, 0.32704, 2.15373
20.033, -0.38051, 0.43744, -0.73701, 0.31956, 2.16302
20.044, -0.38051, 0.43995, -0.73312, 0.31206, 2.17231
20.056, -0.38051, 0.44246, -0.72924, 0.30455, 2.18160
20.067, -0.38051, 0.44498, -0.72535, 0.29702, 2.19090
20.078, -0.38051, 0.44750, -0.72146, 0.28950, 2.20019
20.089, -0.38051, 0.45002, -0.71757, 0.28196, 2.20948
20.100, -0.38051, 0.45254, -0.71368, 0.27443, 2.21877
20.111, -0.38051, 0.45506, -0.70979, 0.26689, 2.22806
20.122, -0.38051, 0.45758, -0.70590, 0.25935, 2.23735
20.133, -0.38051, 0.46011, -0.70201, 0.25182, 2.24664
20.144, -0.38051, 0.46263, -0.69812, 0.24428, 2.25593
20.156, -0.38051, 0.46515, -0.69424, 0.23674, 2.26522
20.167, -0.38051, 0.46767, -0.69035, 0.22920, 2.27451
20.178, -0.38051, 0.47019, -0.68646, 0.22167, 2.28380
20.189, -0.38051, 0.47272, -0.68257, 0.21413, 2.29310
20.200, -0.38051, 0.47524, -0.67868, 0.20659, 2.30239
20.211, -0.38051, 0.47776, -0.67479, 0.19906, 2.31168
20.222, -0.38051, 0.48028, -0.67090, 0.19152, 2.32097
20.233, -0.38051, 0.48280, -0.66701, 0.18398, 2.33026
20.244, -0.38051, 0.48532, -0.66312, 0.17645, 2.33955
20.256, -0.38051, 0.48785, -0.65924, 0.16891, 2.34884
20.267, -0.38051, 0.49037, -0.65535, 0.16137, 2.35813
20.278, -0.38051, 0.49289, -0.65146, 0.15383, 2.36742
20.289, -0.38051, 0.49541, -0.64757, 0.14630, 2.37671
20.300, -0.38051, 0.49793, -0.64368, 0.13876, 2.38600
20.311, -0.38051, 0.50046, -0.63979, 0.13122, 2.39529
20.322, -0.38051, 0.50298, -0.63590, 0.12369, 2.40459
20.333, -0.38051, 0.50550, -0.63201, 0.11615, 2.41388
20.344, -0.38051, 0.50802, -0.62812, 0.10861, 2.42317
20.356, -0.38051, 0.51054, -0.62424, 0.10108, 2.43246
20.367, -0.38051, 0.51306, -0.62035, 0.09354, 2.44175
20.378, -0.38051, 0.51559, -0.61646, 0.08600, 2.45104
20.389, -0.38051, 0.51811, -0.61257, 0.07847, 2.46033
20.400, -0.38051, 0.52063, -0.60868, 0.07093, 2.46962
