kutzer/Scor6AxisToolbox/Scor6AxisToolbox Test Functions/ScorBotBoxData_sCurve/BSEPR_Velocity_90Hz.csv
Time_(s), Base_Joint_Velocity_(rad/s), Shoulder_Joint_Velocity_(rad/s), Elbow_Joint_Velocity_(rad/s), Wrist_Pitch_Joint_Velocity_(rad/s), Wrist_Roll_Joint_Velocity_(rad/s)
0.000, -0.00001, -0.00002, 0.00002, 0.00003, -0.00005
0.011, -0.00004, -0.00025, 0.00023, 0.00011, -0.00047
0.022, -0.00010, -0.00073, 0.00067, 0.00024, -0.00123
0.033, -0.00018, -0.00146, 0.00133, 0.00042, -0.00234
0.044, -0.00028, -0.00244, 0.00222, 0.00064, -0.00380
0.056, -0.00040, -0.00366, 0.00333, 0.00091, -0.00560
0.067, -0.00055, -0.00513, 0.00466, 0.00123, -0.00776
0.078, -0.00072, -0.00684, 0.00622, 0.00159, -0.01026
0.089, -0.00091, -0.00881, 0.00800, 0.00200, -0.01311
0.100, -0.00112, -0.01102, 0.01001, 0.00245, -0.01631
0.111, -0.00136, -0.01347, 0.01223, 0.00295, -0.01985
0.122, -0.00162, -0.01618, 0.01468, 0.00349, -0.02375
0.133, -0.00190, -0.01913, 0.01736, 0.00408, -0.02799
0.144, -0.00220, -0.02233, 0.02026, 0.00472, -0.03258
0.156, -0.00253, -0.02577, 0.02338, 0.00540, -0.03752
0.167, -0.00288, -0.02946, 0.02673, 0.00613, -0.04281
0.178, -0.00325, -0.03340, 0.03029, 0.00691, -0.04845
0.189, -0.00364, -0.03758, 0.03409, 0.00773, -0.05443
0.200, -0.00406, -0.04202, 0.03810, 0.00860, -0.06077
0.211, -0.00450, -0.04670, 0.04234, 0.00951, -0.06745
0.222, -0.00496, -0.05162, 0.04681, 0.01047, -0.07447
0.233, -0.00544, -0.05679, 0.05149, 0.01147, -0.08185
0.244, -0.00595, -0.06221, 0.05640, 0.01252, -0.08958
0.256, -0.00648, -0.06788, 0.06154, 0.01362, -0.09765
0.267, -0.00703, -0.07379, 0.06690, 0.01476, -0.10607
0.278, -0.00761, -0.07996, 0.07248, 0.01595, -0.11484
0.289, -0.00820, -0.08636, 0.07828, 0.01719, -0.12396
0.300, -0.00882, -0.09302, 0.08431, 0.01847, -0.13343
0.311, -0.00946, -0.09992, 0.09056, 0.01980, -0.14324
0.322, -0.01013, -0.10706, 0.09704, 0.02117, -0.15340
0.333, -0.01081, -0.11447, 0.10373, 0.02259, -0.16392
0.344, -0.01152, -0.12210, 0.11066, 0.02405, -0.17478
0.356, -0.01226, -0.12989, 0.11781, 0.02557, -0.18598
0.367, -0.01301, -0.13767, 0.12508, 0.02712, -0.19754
0.378, -0.01379, -0.14544, 0.13237, 0.02873, -0.20944
0.389, -0.01459, -0.15322, 0.13965, 0.03038, -0.22169
0.400, -0.01541, -0.16100, 0.14693, 0.03207, -0.23429
0.411, -0.01625, -0.16878, 0.15421, 0.03381, -0.24724
0.422, -0.01712, -0.17656, 0.16148, 0.03560, -0.26054
0.433, -0.01801, -0.18433, 0.16876, 0.03743, -0.27419
0.444, -0.01891, -0.19211, 0.17604, 0.03931, -0.28818
0.456, -0.01981, -0.19989, 0.18332, 0.04124, -0.30252
0.467, -0.02071, -0.20767, 0.19060, 0.04321, -0.31721
0.478, -0.02161, -0.21544, 0.19788, 0.04522, -0.33216
0.489, -0.02251, -0.22324, 0.20516, 0.04729, -0.34710
0.500, -0.02341, -0.23097, 0.21244, 0.04940, -0.36203
0.511, -0.02431, -0.23853, 0.21972, 0.05155, -0.37696
0.522, -0.02522, -0.24582, 0.22690, 0.05375, -0.39190
0.533, -0.02612, -0.25287, 0.23386, 0.05600, -0.40683
0.544, -0.02702, -0.25968, 0.24059, 0.05829, -0.42176
0.556, -0.02792, -0.26623, 0.24710, 0.06063, -0.43670
0.567, -0.02882, -0.27254, 0.25338, 0.06302, -0.45163
0.578, -0.02972, -0.27860, 0.25944, 0.06545, -0.46656
0.589, -0.03062, -0.28442, 0.26528, 0.06793, -0.48150
0.600, -0.03152, -0.28998, 0.27090, 0.07045, -0.49645
0.611, -0.03242, -0.29530, 0.27629, 0.07302, -0.51127
0.622, -0.03332, -0.30038, 0.28145, 0.07563, -0.52577
0.633, -0.03422, -0.30521, 0.28640, 0.07830, -0.53990
0.644, -0.03512, -0.30979, 0.29112, 0.08100, -0.55369
0.656, -0.03602, -0.31412, 0.29561, 0.08376, -0.56713
0.667, -0.03692, -0.31821, 0.29988, 0.08656, -0.58022
0.678, -0.03782, -0.32205, 0.30393, 0.08940, -0.59296
0.689, -0.03872, -0.32564, 0.30776, 0.09229, -0.60535
0.700, -0.03962, -0.32898, 0.31136, 0.09523, -0.61740
0.711, -0.04052, -0.33208, 0.31474, 0.09821, -0.62910
0.722, -0.04142, -0.33493, 0.31789, 0.10124, -0.64045
0.733, -0.04232, -0.33754, 0.32082, 0.10432, -0.65145
0.744, -0.04322, -0.33990, 0.32353, 0.10744, -0.66210
0.756, -0.04412, -0.34201, 0.32602, 0.11061, -0.67241
0.767, -0.04502, -0.34387, 0.32828, 0.11382, -0.68236
0.778, -0.04592, -0.34549, 0.33031, 0.11708, -0.69197
0.789, -0.04683, -0.34686, 0.33213, 0.12038, -0.70123
0.800, -0.04773, -0.34798, 0.33372, 0.12373, -0.71014
0.811, -0.04863, -0.34886, 0.33508, 0.12713, -0.71871
0.822, -0.04953, -0.34949, 0.33623, 0.13058, -0.72692
0.833, -0.05043, -0.34987, 0.33714, 0.13406, -0.73479
0.844, -0.05133, -0.35000, 0.33784, 0.13760, -0.74231
0.856, -0.05223, -0.35001, 0.33832, 0.14118, -0.74948
0.867, -0.05313, -0.35000, 0.33856, 0.14481, -0.75630
0.878, -0.05403, -0.35000, 0.33860, 0.14848, -0.76278
0.889, -0.05493, -0.35000, 0.33860, 0.15220, -0.76891
0.900, -0.05583, -0.35000, 0.33859, 0.15597, -0.77468
0.911, -0.05673, -0.35000, 0.33860, 0.15978, -0.78011
0.922, -0.05763, -0.35000, 0.33859, 0.16363, -0.78520
0.933, -0.05853, -0.35000, 0.33859, 0.16752, -0.78993
0.944, -0.05943, -0.35000, 0.33859, 0.17140, -0.79432
0.956, -0.06033, -0.35000, 0.33859, 0.17527, -0.79835
0.967, -0.06123, -0.35000, 0.33859, 0.17914, -0.80204
0.978, -0.06213, -0.35000, 0.33859, 0.18302, -0.80538
0.989, -0.06303, -0.35000, 0.33859, 0.18689, -0.80838
1.000, -0.06393, -0.35000, 0.33859, 0.19077, -0.81102
1.011, -0.06483, -0.35000, 0.33859, 0.19464, -0.81332
1.022, -0.06573, -0.35000, 0.33859, 0.19851, -0.81526
1.033, -0.06663, -0.35000, 0.33859, 0.20239, -0.81686
1.044, -0.06753, -0.35000, 0.33859, 0.20626, -0.81812
1.056, -0.06843, -0.35000, 0.33859, 0.21013, -0.81902
1.067, -0.06934, -0.35000, 0.33859, 0.21401, -0.81957
1.078, -0.07024, -0.35000, 0.33859, 0.21788, -0.81978
1.089, -0.07114, -0.35000, 0.33859, 0.22175, -0.81975
1.100, -0.07204, -0.35000, 0.33859, 0.22563, -0.81975
1.111, -0.07294, -0.35000, 0.33859, 0.22950, -0.81976
1.122, -0.07384, -0.35000, 0.33859, 0.23338, -0.81976
1.133, -0.07474, -0.35000, 0.33859, 0.23725, -0.81976
1.144, -0.07564, -0.35000, 0.33859, 0.24112, -0.81976
1.156, -0.07654, -0.35000, 0.33859, 0.24500, -0.81976
1.167, -0.07744, -0.35000, 0.33859, 0.24888, -0.81976
1.178, -0.07834, -0.35000, 0.33859, 0.25276, -0.81976
1.189, -0.07924, -0.35000, 0.33859, 0.25661, -0.81976
1.200, -0.08014, -0.35000, 0.33859, 0.26044, -0.81976
1.211, -0.08104, -0.35000, 0.33859, 0.26423, -0.81976
1.222, -0.08194, -0.35000, 0.33859, 0.26796, -0.81976
1.233, -0.08284, -0.35000, 0.33859, 0.27165, -0.81976
1.244, -0.08374, -0.35000, 0.33859, 0.27529, -0.81976
1.256, -0.08464, -0.35000, 0.33859, 0.27888, -0.81976
1.267, -0.08554, -0.35000, 0.33859, 0.28243, -0.81976
1.278, -0.08644, -0.35000, 0.33859, 0.28593, -0.81976
1.289, -0.08734, -0.35000, 0.33859, 0.28939, -0.81976
1.300, -0.08824, -0.35000, 0.33859, 0.29280, -0.81976
1.311, -0.08914, -0.35000, 0.33859, 0.29617, -0.81976
1.322, -0.09004, -0.35000, 0.33859, 0.29949, -0.81976
1.333, -0.09095, -0.35000, 0.33859, 0.30276, -0.81976
1.344, -0.09185, -0.35000, 0.33859, 0.30598, -0.81976
1.356, -0.09275, -0.35000, 0.33859, 0.30917, -0.81976
1.367, -0.09365, -0.35000, 0.33859, 0.31230, -0.81976
1.378, -0.09455, -0.35000, 0.33859, 0.31539, -0.81976
1.389, -0.09545, -0.35000, 0.33859, 0.31843, -0.81976
1.400, -0.09635, -0.35000, 0.33859, 0.32143, -0.81976
1.411, -0.09725, -0.35000, 0.33859, 0.32438, -0.81976
1.422, -0.09815, -0.35000, 0.33859, 0.32728, -0.81976
1.433, -0.09905, -0.35000, 0.33859, 0.33014, -0.81976
1.444, -0.09995, -0.35000, 0.33859, 0.33295, -0.81976
1.456, -0.10085, -0.35000, 0.33859, 0.33572, -0.81976
1.467, -0.10175, -0.35000, 0.33859, 0.33844, -0.81976
1.478, -0.10265, -0.35000, 0.33859, 0.34112, -0.81976
1.489, -0.10355, -0.35000, 0.33859, 0.34374, -0.81976
1.500, -0.10445, -0.35000, 0.33859, 0.34633, -0.81976
1.511, -0.10535, -0.35000, 0.33859, 0.34886, -0.81976
1.522, -0.10625, -0.35000, 0.33859, 0.35135, -0.81976
1.533, -0.10715, -0.35000, 0.33859, 0.35380, -0.81976
1.544, -0.10805, -0.35000, 0.33859, 0.35620, -0.81976
1.556, -0.10895, -0.35000, 0.33859, 0.35855, -0.81976
1.567, -0.10985, -0.35000, 0.33859, 0.36086, -0.81976
1.578, -0.11075, -0.35000, 0.33859, 0.36312, -0.81976
1.589, -0.11165, -0.35000, 0.33859, 0.36533, -0.81976
1.600, -0.11256, -0.35000, 0.33859, 0.36750, -0.81976
1.611, -0.11346, -0.35000, 0.33859, 0.36962, -0.81976
1.622, -0.11435, -0.35000, 0.33859, 0.37170, -0.81976
1.633, -0.11526, -0.35000, 0.33859, 0.37373, -0.81976
1.644, -0.11616, -0.35000, 0.33859, 0.37571, -0.81976
1.656, -0.11706, -0.35000, 0.33859, 0.37765, -0.81976
1.667, -0.11795, -0.35000, 0.33859, 0.37954, -0.81976
1.678, -0.11881, -0.35000, 0.33859, 0.38139, -0.81976
1.689, -0.11966, -0.35000, 0.33859, 0.38319, -0.81976
1.700, -0.12048, -0.35000, 0.33859, 0.38495, -0.81976
1.711, -0.12128, -0.35000, 0.33859, 0.38665, -0.81976
1.722, -0.12205, -0.35000, 0.33859, 0.38832, -0.81976
1.733, -0.12281, -0.35000, 0.33859, 0.38993, -0.81976
1.744, -0.12354, -0.35000, 0.33859, 0.39150, -0.81976
1.756, -0.12425, -0.35000, 0.33859, 0.39303, -0.81976
1.767, -0.12493, -0.35000, 0.33859, 0.39451, -0.81976
1.778, -0.12559, -0.35000, 0.33859, 0.39594, -0.81976
1.789, -0.12624, -0.35000, 0.33859, 0.39733, -0.81976
1.800, -0.12685, -0.35000, 0.33859, 0.39867, -0.81976
1.811, -0.12745, -0.35000, 0.33859, 0.39996, -0.81976
1.822, -0.12802, -0.35000, 0.33859, 0.40121, -0.81976
1.833, -0.12857, -0.35000, 0.33859, 0.40241, -0.81976
1.844, -0.12910, -0.35000, 0.33859, 0.40357, -0.81976
1.856, -0.12961, -0.35000, 0.33859, 0.40468, -0.81976
1.867, -0.13009, -0.35000, 0.33859, 0.40574, -0.81976
1.878, -0.13055, -0.35000, 0.33859, 0.40676, -0.81976
1.889, -0.13099, -0.35000, 0.33859, 0.40773, -0.81976
1.900, -0.13140, -0.35000, 0.33859, 0.40866, -0.81976
1.911, -0.13180, -0.35000, 0.33859, 0.40954, -0.81976
1.922, -0.13217, -0.35000, 0.33859, 0.41037, -0.81976
1.933, -0.13252, -0.35000, 0.33859, 0.41116, -0.81976
1.944, -0.13284, -0.35000, 0.33859, 0.41190, -0.81976
1.956, -0.13314, -0.35000, 0.33859, 0.41260, -0.81976
1.967, -0.13342, -0.35000, 0.33859, 0.41325, -0.81976
1.978, -0.13368, -0.35000, 0.33859, 0.41386, -0.81976
1.989, -0.13392, -0.35000, 0.33859, 0.41441, -0.81976
2.000, -0.13413, -0.35000, 0.33859, 0.41493, -0.81976
2.011, -0.13432, -0.35000, 0.33859, 0.41539, -0.81976
2.022, -0.13449, -0.35000, 0.33859, 0.41581, -0.81976
2.033, -0.13463, -0.35000, 0.33859, 0.41619, -0.81976
2.044, -0.13476, -0.35000, 0.33859, 0.41652, -0.81976
2.056, -0.13486, -0.35000, 0.33859, 0.41680, -0.81976
2.067, -0.13494, -0.35000, 0.33859, 0.41704, -0.81976
2.078, -0.13499, -0.35000, 0.33859, 0.41723, -0.81976
2.089, -0.13502, -0.35000, 0.33859, 0.41737, -0.81976
2.100, -0.13503, -0.35000, 0.33859, 0.41746, -0.81976
2.111, -0.13503, -0.35000, 0.33859, 0.41752, -0.81976
2.122, -0.13503, -0.35000, 0.33859, 0.41753, -0.81976
2.133, -0.13503, -0.35000, 0.33859, 0.41752, -0.81976
2.144, -0.13503, -0.35000, 0.33859, 0.41751, -0.81976
2.156, -0.13503, -0.35000, 0.33859, 0.41751, -0.81976
2.167, -0.13503, -0.35000, 0.33859, 0.41752, -0.81976
2.178, -0.13503, -0.35000, 0.33859, 0.41752, -0.81976
2.189, -0.13503, -0.35000, 0.33859, 0.41752, -0.81976
2.200, -0.13503, -0.35000, 0.33859, 0.41752, -0.81976
2.211, -0.13503, -0.35000, 0.33859, 0.41751, -0.81976
2.222, -0.13503, -0.35000, 0.33859, 0.41752, -0.81976
2.233, -0.13503, -0.35000, 0.33859, 0.41752, -0.81976
2.244, -0.13503, -0.35000, 0.33859, 0.41752, -0.81976
2.256, -0.13503, -0.35000, 0.33859, 0.41752, -0.81976
2.267, -0.13503, -0.35000, 0.33859, 0.41752, -0.81976
2.278, -0.13503, -0.35000, 0.33859, 0.41752, -0.81976
2.289, -0.13503, -0.35000, 0.33859, 0.41752, -0.81976
2.300, -0.13503, -0.35000, 0.33859, 0.41752, -0.81976
2.311, -0.13503, -0.35000, 0.33859, 0.41752, -0.81976
2.322, -0.13503, -0.35000, 0.33859, 0.41752, -0.81976
2.333, -0.13503, -0.35000, 0.33859, 0.41752, -0.81976
2.344, -0.13503, -0.35000, 0.33859, 0.41752, -0.81976
2.356, -0.13503, -0.35000, 0.33859, 0.41752, -0.81976
2.367, -0.13503, -0.35000, 0.33859, 0.41752, -0.81976
2.378, -0.13503, -0.35000, 0.33859, 0.41752, -0.81976
2.389, -0.13503, -0.35000, 0.33859, 0.41752, -0.81976
2.400, -0.13503, -0.35000, 0.33859, 0.41752, -0.81976
2.411, -0.13503, -0.35000, 0.33859, 0.41752, -0.81976
2.422, -0.13503, -0.35000, 0.33859, 0.41752, -0.81976
2.433, -0.13503, -0.35000, 0.33859, 0.41752, -0.81976
2.444, -0.13503, -0.35000, 0.33859, 0.41752, -0.81976
2.456, -0.13503, -0.35000, 0.33859, 0.41752, -0.81976
2.467, -0.13503, -0.35000, 0.33859, 0.41752, -0.81976
2.478, -0.13503, -0.35000, 0.33859, 0.41752, -0.81976
2.489, -0.13503, -0.35000, 0.33859, 0.41752, -0.81976
2.500, -0.13503, -0.35000, 0.33859, 0.41752, -0.81976
2.511, -0.13503, -0.35000, 0.33859, 0.41752, -0.81976
2.522, -0.13503, -0.35000, 0.33859, 0.41752, -0.81976
2.533, -0.13503, -0.35000, 0.33859, 0.41752, -0.81976
2.544, -0.13503, -0.35000, 0.33859, 0.41752, -0.81976
2.556, -0.13503, -0.35000, 0.33859, 0.41752, -0.81976
2.567, -0.13503, -0.35000, 0.33859, 0.41752, -0.81976
2.578, -0.13503, -0.35000, 0.33859, 0.41752, -0.81976
2.589, -0.13503, -0.35000, 0.33859, 0.41752, -0.81976
2.600, -0.13503, -0.35000, 0.33859, 0.41752, -0.81976
2.611, -0.13503, -0.35000, 0.33859, 0.41752, -0.81976
2.622, -0.13503, -0.35000, 0.33859, 0.41752, -0.81976
2.633, -0.13503, -0.35000, 0.33859, 0.41752, -0.81976
2.644, -0.13503, -0.35000, 0.33859, 0.41752, -0.81976
2.656, -0.13503, -0.35000, 0.33859, 0.41752, -0.81976
2.667, -0.13503, -0.35000, 0.33859, 0.41752, -0.81976
2.678, -0.13503, -0.35000, 0.33859, 0.41752, -0.81976
2.689, -0.13503, -0.35000, 0.33859, 0.41752, -0.81976
2.700, -0.13503, -0.35000, 0.33859, 0.41752, -0.81976
2.711, -0.13503, -0.35000, 0.33859, 0.41752, -0.81976
2.722, -0.13503, -0.35000, 0.33859, 0.41751, -0.81976
2.733, -0.13503, -0.35000, 0.33859, 0.41751, -0.81976
2.744, -0.13503, -0.35000, 0.33859, 0.41752, -0.81976
2.756, -0.13503, -0.35000, 0.33859, 0.41752, -0.81976
2.767, -0.13503, -0.35000, 0.33859, 0.41752, -0.81976
2.778, -0.13503, -0.35000, 0.33859, 0.41751, -0.81976
2.789, -0.13503, -0.35000, 0.33859, 0.41749, -0.81976
2.800, -0.13503, -0.35000, 0.33859, 0.41743, -0.81976
2.811, -0.13503, -0.35000, 0.33859, 0.41731, -0.81976
2.822, -0.13501, -0.35000, 0.33859, 0.41714, -0.81976
2.833, -0.13497, -0.35000, 0.33859, 0.41693, -0.81976
2.844, -0.13491, -0.35000, 0.33859, 0.41667, -0.81976
2.856, -0.13482, -0.35000, 0.33859, 0.41637, -0.81976
2.867, -0.13471, -0.35000, 0.33859, 0.41602, -0.81976
2.878, -0.13458, -0.35000, 0.33859, 0.41562, -0.81976
2.889, -0.13442, -0.35000, 0.33859, 0.41518, -0.81976
2.900, -0.13424, -0.35000, 0.33859, 0.41469, -0.81976
2.911, -0.13404, -0.35000, 0.33859, 0.41416, -0.81976
2.922, -0.13382, -0.35000, 0.33859, 0.41358, -0.81976
2.933, -0.13358, -0.35000, 0.33859, 0.41295, -0.81976
2.944, -0.13331, -0.35000, 0.33859, 0.41228, -0.81976
2.956, -0.13302, -0.35000, 0.33859, 0.41156, -0.81976
2.967, -0.13271, -0.35000, 0.33859, 0.41080, -0.81976
2.978, -0.13237, -0.35000, 0.33859, 0.40999, -0.81976
2.989, -0.13201, -0.35000, 0.33859, 0.40913, -0.81976
3.000, -0.13163, -0.35000, 0.33859, 0.40823, -0.81976
3.011, -0.13123, -0.35000, 0.33859, 0.40728, -0.81976
3.022, -0.13080, -0.35000, 0.33859, 0.40629, -0.81976
3.033, -0.13036, -0.35000, 0.33859, 0.40525, -0.81976
3.044, -0.12989, -0.35000, 0.33859, 0.40416, -0.81976
3.056, -0.12939, -0.35000, 0.33859, 0.40303, -0.81976
3.067, -0.12888, -0.35000, 0.33859, 0.40185, -0.81976
3.078, -0.12834, -0.35000, 0.33859, 0.40063, -0.81976
3.089, -0.12778, -0.35000, 0.33859, 0.39936, -0.81976
3.100, -0.12720, -0.35000, 0.33859, 0.39804, -0.81976
3.111, -0.12659, -0.35000, 0.33859, 0.39668, -0.81976
3.122, -0.12596, -0.35000, 0.33859, 0.39527, -0.81976
3.133, -0.12531, -0.35000, 0.33859, 0.39382, -0.81976
3.144, -0.12464, -0.35000, 0.33859, 0.39232, -0.81976
3.156, -0.12395, -0.35000, 0.33859, 0.39077, -0.81976
3.167, -0.12323, -0.35000, 0.33859, 0.38918, -0.81976
3.178, -0.12249, -0.35000, 0.33859, 0.38754, -0.81976
3.189, -0.12173, -0.35000, 0.33859, 0.38586, -0.81976
3.200, -0.12094, -0.35000, 0.33859, 0.38413, -0.81976
3.211, -0.12013, -0.35000, 0.33859, 0.38235, -0.81976
3.222, -0.11930, -0.35000, 0.33859, 0.38053, -0.81976
3.233, -0.11845, -0.35000, 0.33859, 0.37866, -0.81976
3.244, -0.11757, -0.35000, 0.33859, 0.37675, -0.81976
3.256, -0.11667, -0.35000, 0.33859, 0.37479, -0.81976
3.267, -0.11577, -0.35000, 0.33859, 0.37278, -0.81976
3.278, -0.11487, -0.35000, 0.33859, 0.37073, -0.81976
3.289, -0.11397, -0.35000, 0.33859, 0.36863, -0.81976
3.300, -0.11307, -0.35000, 0.33859, 0.36649, -0.81976
3.311, -0.11217, -0.35000, 0.33859, 0.36430, -0.81976
3.322, -0.11127, -0.35000, 0.33859, 0.36206, -0.81976
3.333, -0.11037, -0.35000, 0.33859, 0.35978, -0.81976
3.344, -0.10947, -0.35000, 0.33859, 0.35745, -0.81976
3.356, -0.10857, -0.35000, 0.33859, 0.35508, -0.81976
3.367, -0.10767, -0.35000, 0.33859, 0.35266, -0.81976
3.378, -0.10677, -0.35000, 0.33859, 0.35019, -0.81976
3.389, -0.10587, -0.35000, 0.33859, 0.34768, -0.81976
3.400, -0.10497, -0.35000, 0.33859, 0.34512, -0.81976
3.411, -0.10407, -0.35000, 0.33859, 0.34252, -0.81976
3.422, -0.10317, -0.35000, 0.33859, 0.33987, -0.81976
3.433, -0.10227, -0.35000, 0.33859, 0.33717, -0.81976
3.444, -0.10137, -0.35000, 0.33859, 0.33443, -0.81976
3.456, -0.10047, -0.35000, 0.33859, 0.33164, -0.81976
3.467, -0.09956, -0.35000, 0.33859, 0.32881, -0.81976
3.478, -0.09866, -0.35000, 0.33859, 0.32593, -0.81976
3.489, -0.09776, -0.35000, 0.33859, 0.32300, -0.81976
3.500, -0.09686, -0.35000, 0.33859, 0.32003, -0.81976
3.511, -0.09596, -0.35000, 0.33859, 0.31701, -0.81976
3.522, -0.09506, -0.35000, 0.33859, 0.31395, -0.81976
3.533, -0.09416, -0.35000, 0.33859, 0.31084, -0.81976
3.544, -0.09326, -0.35000, 0.33859, 0.30768, -0.81976
3.556, -0.09236, -0.35000, 0.33859, 0.30448, -0.81976
3.567, -0.09146, -0.35000, 0.33859, 0.30123, -0.81976
3.578, -0.09056, -0.35000, 0.33859, 0.29794, -0.81976
3.589, -0.08966, -0.35000, 0.33859, 0.29460, -0.81976
3.600, -0.08876, -0.35000, 0.33859, 0.29121, -0.81976
3.611, -0.08786, -0.35000, 0.33859, 0.28778, -0.81976
3.622, -0.08696, -0.35000, 0.33859, 0.28430, -0.81976
3.633, -0.08606, -0.35000, 0.33859, 0.28078, -0.81976
3.644, -0.08516, -0.35000, 0.33859, 0.27721, -0.81976
3.656, -0.08426, -0.35000, 0.33859, 0.27359, -0.81976
3.667, -0.08336, -0.35000, 0.33859, 0.26993, -0.81976
3.678, -0.08246, -0.35000, 0.33859, 0.26622, -0.81976
3.689, -0.08156, -0.35000, 0.33859, 0.26247, -0.81976
3.700, -0.08066, -0.35000, 0.33859, 0.25867, -0.81976
3.711, -0.07976, -0.35000, 0.33859, 0.25481, -0.81976
3.722, -0.07886, -0.35000, 0.33859, 0.25094, -0.81976
3.733, -0.07796, -0.35000, 0.33859, 0.24706, -0.81976
3.744, -0.07705, -0.35000, 0.33859, 0.24318, -0.81976
3.756, -0.07615, -0.35000, 0.33859, 0.23931, -0.81976
3.767, -0.07525, -0.35000, 0.33859, 0.23544, -0.81976
3.778, -0.07435, -0.35000, 0.33859, 0.23156, -0.81976
3.789, -0.07345, -0.35000, 0.33859, 0.22769, -0.81976
3.800, -0.07255, -0.35000, 0.33859, 0.22382, -0.81975
3.811, -0.07165, -0.35000, 0.33859, 0.21994, -0.81976
3.822, -0.07075, -0.35000, 0.33859, 0.21607, -0.81975
3.833, -0.06985, -0.35000, 0.33859, 0.21220, -0.81968
3.844, -0.06895, -0.35000, 0.33859, 0.20832, -0.81924
3.856, -0.06805, -0.35000, 0.33859, 0.20445, -0.81844
3.867, -0.06715, -0.35000, 0.33859, 0.20057, -0.81730
3.878, -0.06625, -0.35000, 0.33859, 0.19670, -0.81581
3.889, -0.06535, -0.35000, 0.33859, 0.19283, -0.81398
3.900, -0.06445, -0.35000, 0.33859, 0.18895, -0.81179
3.911, -0.06355, -0.35000, 0.33859, 0.18508, -0.80926
3.922, -0.06265, -0.35000, 0.33859, 0.18121, -0.80638
3.933, -0.06175, -0.35000, 0.33859, 0.17733, -0.80315
3.944, -0.06085, -0.35000, 0.33859, 0.17346, -0.79957
3.956, -0.05995, -0.35000, 0.33859, 0.16958, -0.79564
3.967, -0.05905, -0.35000, 0.33859, 0.16571, -0.79137
3.978, -0.05815, -0.35000, 0.33859, 0.16184, -0.78675
3.989, -0.05725, -0.35000, 0.33859, 0.15799, -0.78178
4.000, -0.05635, -0.35000, 0.33860, 0.15420, -0.77646
4.011, -0.05545, -0.35000, 0.33859, 0.15045, -0.77079
4.022, -0.05454, -0.35000, 0.33860, 0.14676, -0.76478
4.033, -0.05364, -0.35000, 0.33860, 0.14311, -0.75841
4.044, -0.05274, -0.34999, 0.33851, 0.13950, -0.75170
4.056, -0.05184, -0.35001, 0.33819, 0.13594, -0.74464
4.067, -0.05094, -0.34999, 0.33765, 0.13243, -0.73723
4.078, -0.05004, -0.34982, 0.33689, 0.12896, -0.72948
4.089, -0.04914, -0.34939, 0.33590, 0.12554, -0.72137
4.100, -0.04824, -0.34871, 0.33469, 0.12216, -0.71292
4.111, -0.04734, -0.34778, 0.33325, 0.11883, -0.70412
4.122, -0.04644, -0.34661, 0.33159, 0.11555, -0.69497
4.133, -0.04554, -0.34519, 0.32971, 0.11231, -0.68547
4.144, -0.04464, -0.34353, 0.32761, 0.10912, -0.67563
4.156, -0.04374, -0.34162, 0.32528, 0.10597, -0.66543
4.167, -0.04284, -0.33946, 0.32272, 0.10287, -0.65489
4.178, -0.04194, -0.33705, 0.31995, 0.09982, -0.64400
4.189, -0.04104, -0.33440, 0.31695, 0.09681, -0.63276
4.200, -0.04014, -0.33150, 0.31372, 0.09385, -0.62118
4.211, -0.03924, -0.32835, 0.31028, 0.09093, -0.60924
4.222, -0.03834, -0.32496, 0.30661, 0.08806, -0.59696
4.233, -0.03744, -0.32132, 0.30271, 0.08524, -0.58433
4.244, -0.03654, -0.31743, 0.29859, 0.08246, -0.57135
4.256, -0.03564, -0.31329, 0.29425, 0.07973, -0.55802
4.267, -0.03474, -0.30891, 0.28969, 0.07704, -0.54435
4.278, -0.03384, -0.30428, 0.28490, 0.07441, -0.53032
4.289, -0.03293, -0.29941, 0.27989, 0.07181, -0.51596
4.300, -0.03203, -0.29429, 0.27465, 0.06926, -0.50121
4.311, -0.03113, -0.28892, 0.26919, 0.06676, -0.48627
4.322, -0.03023, -0.28330, 0.26351, 0.06431, -0.47134
4.333, -0.02933, -0.27744, 0.25761, 0.06190, -0.45640
4.344, -0.02843, -0.27133, 0.25148, 0.05953, -0.44147
4.356, -0.02753, -0.26497, 0.24512, 0.05722, -0.42654
4.367, -0.02663, -0.25837, 0.23854, 0.05494, -0.41160
4.378, -0.02573, -0.25151, 0.23175, 0.05272, -0.39667
4.389, -0.02483, -0.24442, 0.22472, 0.05054, -0.38174
4.400, -0.02393, -0.23708, 0.21749, 0.04840, -0.36680
4.411, -0.02303, -0.22947, 0.21020, 0.04632, -0.35187
4.422, -0.02213, -0.22171, 0.20292, 0.04428, -0.33694
4.433, -0.02123, -0.21392, 0.19564, 0.04228, -0.32201
4.444, -0.02033, -0.20615, 0.18836, 0.04033, -0.30718
4.456, -0.01943, -0.19837, 0.18109, 0.03843, -0.29272
4.467, -0.01852, -0.19059, 0.17381, 0.03657, -0.27862
4.478, -0.01763, -0.18282, 0.16653, 0.03476, -0.26486
4.489, -0.01675, -0.17504, 0.15925, 0.03299, -0.25146
4.500, -0.01589, -0.16726, 0.15197, 0.03127, -0.23840
4.511, -0.01505, -0.15948, 0.14469, 0.02960, -0.22569
4.522, -0.01424, -0.15170, 0.13741, 0.02797, -0.21332
4.533, -0.01345, -0.14393, 0.13014, 0.02639, -0.20131
4.544, -0.01269, -0.13615, 0.12284, 0.02485, -0.18964
4.556, -0.01194, -0.12837, 0.11559, 0.02336, -0.17832
4.567, -0.01122, -0.12060, 0.10850, 0.02192, -0.16735
4.578, -0.01052, -0.11300, 0.10165, 0.02052, -0.15673
4.589, -0.00984, -0.10565, 0.09502, 0.01917, -0.14645
4.600, -0.00919, -0.09855, 0.08862, 0.01787, -0.13653
4.611, -0.00856, -0.09170, 0.08243, 0.01661, -0.12695
4.622, -0.00795, -0.08509, 0.07647, 0.01539, -0.11772
4.633, -0.00736, -0.07873, 0.07074, 0.01422, -0.10884
4.644, -0.00679, -0.07262, 0.06522, 0.01310, -0.10031
4.656, -0.00625, -0.06676, 0.05994, 0.01203, -0.09212
4.667, -0.00573, -0.06114, 0.05487, 0.01100, -0.08428
4.678, -0.00524, -0.05577, 0.05003, 0.01001, -0.07680
4.689, -0.00476, -0.05064, 0.04541, 0.00908, -0.06966
4.700, -0.00431, -0.04576, 0.04102, 0.00818, -0.06286
4.711, -0.00388, -0.04113, 0.03685, 0.00734, -0.05642
4.722, -0.00347, -0.03675, 0.03290, 0.00654, -0.05032
4.733, -0.00309, -0.03261, 0.02917, 0.00579, -0.04458
4.744, -0.00273, -0.02872, 0.02567, 0.00508, -0.03918
4.756, -0.00239, -0.02508, 0.02240, 0.00442, -0.03413
4.767, -0.00207, -0.02168, 0.01934, 0.00380, -0.02942
4.778, -0.00178, -0.01853, 0.01651, 0.00323, -0.02507
4.789, -0.00150, -0.01563, 0.01391, 0.00271, -0.02106
4.800, -0.00125, -0.01297, 0.01153, 0.00223, -0.01740
4.811, -0.00103, -0.01057, 0.00937, 0.00180, -0.01409
4.822, -0.00082, -0.00840, 0.00743, 0.00141, -0.01113
4.833, -0.00064, -0.00649, 0.00572, 0.00107, -0.00852
4.844, -0.00048, -0.00482, 0.00423, 0.00078, -0.00625
4.856, -0.00035, -0.00340, 0.00297, 0.00053, -0.00434
4.867, -0.00023, -0.00223, 0.00192, 0.00033, -0.00277
4.878, -0.00014, -0.00130, 0.00111, 0.00018, -0.00155
4.889, -0.00007, -0.00062, 0.00051, 0.00007, -0.00067
4.900, -0.00002, -0.00019, 0.00014, 0.00000, -0.00015
4.911, -0.00000, -0.00001, -0.00000, -0.00001, 0.00003
4.922, -0.00000, -0.00001, -0.00000, -0.00001, 0.00002
4.933, -0.00000, -0.00001, -0.00000, -0.00001, 0.00002
4.944, -0.00000, -0.00001, -0.00000, -0.00001, 0.00002
4.956, -0.00000, -0.00001, -0.00000, -0.00001, 0.00002
4.967, -0.00000, -0.00001, -0.00000, -0.00001, 0.00001
4.978, -0.00000, -0.00001, -0.00000, -0.00001, 0.00001
4.989, -0.00000, -0.00001, -0.00000, -0.00001, 0.00001
5.000, -0.00000, -0.00000, -0.00000, -0.00001, 0.00001
5.011, -0.00000, -0.00000, -0.00000, -0.00001, 0.00001
5.022, -0.00000, -0.00000, -0.00000, -0.00001, 0.00001
5.033, -0.00000, -0.00000, -0.00000, -0.00001, 0.00000
5.044, -0.00000, -0.00000, -0.00000, -0.00001, 0.00000
5.056, -0.00000, -0.00000, -0.00000, -0.00001, 0.00000
5.067, -0.00000, -0.00000, -0.00000, -0.00001, 0.00000
5.078, -0.00000, -0.00000, -0.00000, -0.00001, -0.00000
5.089, -0.00000, -0.00000, -0.00000, -0.00001, -0.00000
5.100, -0.00000, -0.00000, -0.00000, -0.00000, -0.00000
5.111, -0.00001, -0.00000, -0.00000, -0.00000, -0.00001
5.122, -0.00001, -0.00000, -0.00000, -0.00000, -0.00001
5.133, -0.00001, -0.00000, -0.00000, -0.00000, -0.00001
5.144, -0.00001, -0.00000, -0.00000, -0.00000, -0.00001
5.156, -0.00001, -0.00000, -0.00000, -0.00000, -0.00001
5.167, -0.00001, -0.00000, -0.00000, -0.00000, -0.00001
5.178, -0.00001, -0.00000, -0.00000, -0.00000, -0.00001
5.189, -0.00001, -0.00000, -0.00000, -0.00000, -0.00001
5.200, -0.00001, -0.00000, -0.00000, -0.00000, -0.00001
5.211, -0.00001, -0.00000, -0.00000, -0.00000, -0.00001
5.222, -0.00001, -0.00000, -0.00000, -0.00000, -0.00001
5.233, -0.00001, -0.00000, -0.00000, -0.00000, -0.00002
5.244, -0.00001, 0.00000, 0.00000, 0.00000, -0.00002
5.256, -0.00001, 0.00000, 0.00000, 0.00000, -0.00002
5.267, -0.00001, 0.00000, 0.00000, 0.00000, -0.00002
5.278, -0.00001, 0.00000, 0.00000, 0.00000, -0.00002
5.289, -0.00001, 0.00000, 0.00000, 0.00000, -0.00002
5.300, -0.00001, 0.00000, 0.00000, 0.00000, -0.00002
5.311, -0.00001, 0.00000, 0.00000, 0.00000, -0.00002
5.322, -0.00001, 0.00000, 0.00000, 0.00000, -0.00002
5.333, -0.00000, 0.00000, 0.00000, 0.00000, -0.00002
5.344, -0.00000, 0.00000, 0.00000, 0.00000, -0.00002
5.356, -0.00000, 0.00000, 0.00000, 0.00000, -0.00002
5.367, -0.00000, 0.00000, 0.00000, 0.00000, -0.00002
5.378, -0.00000, 0.00000, 0.00000, 0.00000, -0.00002
5.389, -0.00000, 0.00000, 0.00000, 0.00000, -0.00002
5.400, -0.00000, 0.00000, 0.00000, 0.00000, -0.00002
5.411, -0.00000, 0.00000, 0.00000, 0.00000, -0.00002
5.422, -0.00000, 0.00000, 0.00000, 0.00000, -0.00002
5.433, -0.00000, 0.00000, 0.00000, 0.00000, -0.00002
5.444, -0.00000, 0.00000, 0.00000, 0.00000, -0.00002
5.456, -0.00000, 0.00000, 0.00000, 0.00000, -0.00002
5.467, -0.00000, 0.00000, 0.00000, 0.00000, -0.00002
5.478, -0.00000, 0.00000, 0.00000, 0.00000, -0.00002
5.489, -0.00000, 0.00000, 0.00000, 0.00000, -0.00002
5.500, -0.00000, 0.00000, 0.00000, 0.00000, -0.00001
5.511, -0.00000, 0.00000, 0.00000, 0.00000, -0.00001
5.522, -0.00000, 0.00000, 0.00000, 0.00000, -0.00001
5.533, -0.00000, 0.00000, 0.00000, 0.00000, -0.00001
5.544, -0.00000, 0.00000, 0.00000, 0.00000, -0.00001
5.556, -0.00000, 0.00000, 0.00000, 0.00000, -0.00001
5.567, 0.00000, 0.00000, 0.00000, 0.00000, -0.00001
5.578, 0.00000, 0.00000, 0.00000, 0.00000, -0.00001
5.589, 0.00000, 0.00000, 0.00000, 0.00000, -0.00001
5.600, 0.00000, 0.00000, 0.00000, 0.00000, -0.00001
5.611, 0.00000, 0.00000, 0.00000, 0.00000, -0.00000
5.622, 0.00000, 0.00000, 0.00000, 0.00000, -0.00000
5.633, 0.00000, 0.00000, 0.00000, 0.00000, -0.00000
5.644, 0.00000, 0.00000, 0.00000, 0.00000, -0.00000
5.656, 0.00000, 0.00000, 0.00000, 0.00000, 0.00000
5.667, 0.00000, 0.00000, 0.00000, 0.00000, 0.00000
5.678, 0.00000, 0.00000, 0.00000, 0.00000, 0.00000
5.689, 0.00000, 0.00000, 0.00000, 0.00000, 0.00000
5.700, 0.00001, 0.00000, 0.00000, 0.00000, 0.00001
5.711, 0.00001, 0.00000, 0.00000, 0.00000, 0.00001
5.722, 0.00001, 0.00000, 0.00000, 0.00000, 0.00001
5.733, 0.00001, 0.00000, 0.00000, 0.00000, 0.00001
5.744, 0.00001, 0.00000, 0.00000, 0.00000, 0.00001
5.756, 0.00001, 0.00000, 0.00000, 0.00000, 0.00002
5.767, 0.00001, 0.00000, 0.00000, 0.00000, 0.00002
5.778, 0.00001, 0.00000, 0.00000, 0.00000, 0.00002
5.789, 0.00001, 0.00000, 0.00000, 0.00000, 0.00002
5.800, 0.00001, 0.00000, 0.00000, 0.00000, 0.00002
5.811, 0.00001, 0.00000, 0.00000, 0.00000, 0.00003
5.822, 0.00001, 0.00000, 0.00000, 0.00000, 0.00003
5.833, 0.00001, 0.00000, 0.00000, 0.00000, 0.00003
5.844, 0.00001, 0.00000, 0.00000, 0.00000, 0.00003
5.856, 0.00001, 0.00000, 0.00000, 0.00000, 0.00003
5.867, 0.00001, 0.00000, 0.00000, 0.00000, 0.00004
5.878, 0.00001, 0.00000, 0.00000, 0.00000, 0.00004
5.889, 0.00002, 0.00000, 0.00000, 0.00000, 0.00004
5.900, 0.00002, 0.00000, 0.00000, 0.00000, 0.00004
5.911, 0.00003, 0.00000, 0.00000, 0.00000, 0.00007
5.922, 0.00029, 0.00000, 0.00000, 0.00000, 0.00037
5.933, 0.00079, 0.00000, 0.00000, 0.00000, 0.00090
5.944, 0.00155, 0.00000, 0.00000, 0.00000, 0.00165
5.956, 0.00255, 0.00000, 0.00000, 0.00000, 0.00262
5.967, 0.00379, 0.00000, 0.00000, 0.00000, 0.00381
5.978, 0.00529, 0.00000, 0.00000, 0.00000, 0.00523
5.989, 0.00703, 0.00000, 0.00000, 0.00000, 0.00686
6.000, 0.00902, 0.00000, 0.00000, 0.00000, 0.00871
6.011, 0.01125, 0.00000, 0.00000, 0.00000, 0.01078
6.022, 0.01373, 0.00000, 0.00000, 0.00000, 0.01308
6.033, 0.01646, 0.00000, 0.00000, 0.00000, 0.01559
6.044, 0.01944, 0.00000, 0.00000, 0.00000, 0.01833
6.056, 0.02266, 0.00000, 0.00000, 0.00000, 0.02128
6.067, 0.02613, 0.00000, 0.00000, 0.00000, 0.02446
6.078, 0.02984, 0.00000, 0.00000, 0.00000, 0.02785
6.089, 0.03381, 0.00000, 0.00000, 0.00000, 0.03147
6.100, 0.03802, 0.00000, 0.00000, 0.00000, 0.03531
6.111, 0.04244, 0.00000, 0.00000, 0.00000, 0.03937
6.122, 0.04689, 0.00000, 0.00000, 0.00000, 0.04365
6.133, 0.05133, 0.00000, 0.00000, 0.00000, 0.04815
6.144, 0.05578, 0.00000, 0.00000, 0.00000, 0.05287
6.156, 0.06022, 0.00000, 0.00000, 0.00000, 0.05781
6.167, 0.06467, 0.00000, 0.00000, 0.00000, 0.06297
6.178, 0.06911, 0.00000, 0.00000, 0.00000, 0.06835
6.189, 0.07356, 0.00000, 0.00000, 0.00000, 0.07395
6.200, 0.07800, 0.00000, 0.00000, 0.00000, 0.07977
6.211, 0.08244, 0.00000, 0.00000, 0.00000, 0.08582
6.222, 0.08689, 0.00000, 0.00000, 0.00000, 0.09208
6.233, 0.09133, 0.00000, 0.00000, 0.00000, 0.09857
6.244, 0.09578, 0.00000, 0.00000, 0.00000, 0.10527
6.256, 0.10022, 0.00000, 0.00000, 0.00000, 0.11220
6.267, 0.10467, 0.00000, 0.00000, 0.00000, 0.11934
6.278, 0.10911, 0.00000, 0.00000, 0.00000, 0.12671
6.289, 0.11356, 0.00000, 0.00000, 0.00000, 0.13430
6.300, 0.11800, 0.00000, 0.00000, 0.00000, 0.14210
6.311, 0.12244, 0.00000, 0.00000, 0.00000, 0.15013
6.322, 0.12689, 0.00000, 0.00000, 0.00000, 0.15838
6.333, 0.13133, 0.00000, 0.00000, 0.00000, 0.16685
6.344, 0.13578, 0.00000, 0.00000, 0.00000, 0.17554
6.356, 0.14022, 0.00000, 0.00000, 0.00000, 0.18445
6.367, 0.14467, 0.00000, 0.00000, 0.00000, 0.19358
6.378, 0.14911, 0.00000, 0.00000, 0.00000, 0.20294
6.389, 0.15356, 0.00000, 0.00000, 0.00000, 0.21251
6.400, 0.15800, 0.00000, 0.00000, 0.00000, 0.22230
6.411, 0.16244, 0.00000, 0.00000, 0.00000, 0.23232
6.422, 0.16689, 0.00000, 0.00000, 0.00000, 0.24255
6.433, 0.17133, 0.00000, 0.00000, 0.00000, 0.25300
6.444, 0.17578, 0.00000, 0.00000, 0.00000, 0.26369
6.456, 0.18022, 0.00000, 0.00000, 0.00000, 0.27457
6.467, 0.18467, 0.00000, 0.00000, 0.00000, 0.28561
6.478, 0.18911, 0.00000, 0.00000, 0.00000, 0.29663
6.489, 0.19356, 0.00000, 0.00000, 0.00000, 0.30764
6.500, 0.19800, 0.00000, 0.00000, 0.00000, 0.31866
6.511, 0.20244, 0.00000, 0.00000, 0.00000, 0.32967
6.522, 0.20689, 0.00000, 0.00000, 0.00000, 0.34069
6.533, 0.21133, 0.00000, 0.00000, 0.00000, 0.35170
6.544, 0.21578, 0.00000, 0.00000, 0.00000, 0.36271
6.556, 0.22022, 0.00000, 0.00000, 0.00000, 0.37373
6.567, 0.22467, 0.00000, 0.00000, 0.00000, 0.38474
6.578, 0.22911, 0.00000, 0.00000, 0.00000, 0.39576
6.589, 0.23356, 0.00000, 0.00000, 0.00000, 0.40677
6.600, 0.23800, 0.00000, 0.00000, 0.00000, 0.41780
6.611, 0.24244, 0.00000, 0.00000, 0.00000, 0.42881
6.622, 0.24689, 0.00000, 0.00000, 0.00000, 0.43972
6.633, 0.25133, 0.00000, 0.00000, 0.00000, 0.45043
6.644, 0.25578, 0.00000, 0.00000, 0.00000, 0.46089
6.656, 0.26022, 0.00000, 0.00000, 0.00000, 0.47113
6.667, 0.26454, 0.00000, 0.00000, 0.00000, 0.48116
6.678, 0.26860, 0.00000, 0.00000, 0.00000, 0.49097
6.689, 0.27242, 0.00000, 0.00000, 0.00000, 0.50055
6.700, 0.27598, 0.00000, 0.00000, 0.00000, 0.50992
6.711, 0.27930, 0.00000, 0.00000, 0.00000, 0.51906
6.722, 0.28238, 0.00000, 0.00000, 0.00000, 0.52798
6.733, 0.28521, 0.00000, 0.00000, 0.00000, 0.53668
6.744, 0.28779, 0.00000, 0.00000, 0.00000, 0.54517
6.756, 0.29012, 0.00000, 0.00000, 0.00000, 0.55343
6.767, 0.29221, 0.00000, 0.00000, 0.00000, 0.56147
6.778, 0.29405, 0.00000, 0.00000, 0.00000, 0.56929
6.789, 0.29564, 0.00000, 0.00000, 0.00000, 0.57689
6.800, 0.29698, 0.00000, 0.00000, 0.00000, 0.58427
6.811, 0.29808, 0.00000, 0.00000, 0.00000, 0.59143
6.822, 0.29893, 0.00000, 0.00000, 0.00000, 0.59837
6.833, 0.29954, 0.00000, 0.00000, 0.00000, 0.60508
6.844, 0.29990, 0.00000, 0.00000, 0.00000, 0.61158
6.856, 0.30000, 0.00000, 0.00000, 0.00000, 0.61786
6.867, 0.30001, 0.00000, 0.00000, 0.00000, 0.62391
6.878, 0.30000, 0.00000, 0.00000, 0.00000, 0.62975
6.889, 0.30000, 0.00000, 0.00000, 0.00000, 0.63536
6.900, 0.30000, 0.00000, 0.00000, 0.00000, 0.64076
6.911, 0.30000, 0.00000, 0.00000, 0.00000, 0.64593
6.922, 0.30000, 0.00000, 0.00000, 0.00000, 0.65088
6.933, 0.30000, 0.00000, 0.00000, 0.00000, 0.65562
6.944, 0.30000, 0.00000, 0.00000, 0.00000, 0.66013
6.956, 0.30000, 0.00000, 0.00000, 0.00000, 0.66442
6.967, 0.30000, 0.00000, 0.00000, 0.00000, 0.66849
6.978, 0.30000, 0.00000, 0.00000, 0.00000, 0.67234
6.989, 0.30000, 0.00000, 0.00000, 0.00000, 0.67597
7.000, 0.30000, 0.00000, 0.00000, 0.00000, 0.67938
7.011, 0.30000, 0.00000, 0.00000, 0.00000, 0.68257
7.022, 0.30000, 0.00000, 0.00000, 0.00000, 0.68554
7.033, 0.30000, 0.00000, 0.00000, 0.00000, 0.68828
7.044, 0.30000, 0.00000, 0.00000, 0.00000, 0.69081
7.056, 0.30000, 0.00000, 0.00000, 0.00000, 0.69312
7.067, 0.30000, 0.00000, 0.00000, 0.00000, 0.69520
7.078, 0.30000, 0.00000, 0.00000, 0.00000, 0.69707
7.089, 0.30000, 0.00000, 0.00000, 0.00000, 0.69871
7.100, 0.30000, 0.00000, 0.00000, 0.00000, 0.70013
7.111, 0.30000, 0.00000, 0.00000, 0.00000, 0.70134
7.122, 0.30000, 0.00000, 0.00000, 0.00000, 0.70232
7.133, 0.30000, 0.00000, 0.00000, 0.00000, 0.70308
7.144, 0.30000, 0.00000, 0.00000, 0.00000, 0.70363
7.156, 0.30000, 0.00000, 0.00000, 0.00000, 0.70394
7.167, 0.30000, 0.00000, 0.00000, 0.00000, 0.70405
7.178, 0.30000, 0.00000, 0.00000, 0.00000, 0.70402
7.189, 0.30000, 0.00000, 0.00000, 0.00000, 0.70402
7.200, 0.30000, 0.00000, 0.00000, 0.00000, 0.70403
7.211, 0.30000, 0.00000, 0.00000, 0.00000, 0.70402
7.222, 0.30000, 0.00000, 0.00000, 0.00000, 0.70402
7.233, 0.30000, 0.00000, 0.00000, 0.00000, 0.70402
7.244, 0.30000, 0.00000, 0.00000, 0.00000, 0.70402
7.256, 0.30000, 0.00000, 0.00000, 0.00000, 0.70402
7.267, 0.30000, 0.00000, 0.00000, 0.00000, 0.70402
7.278, 0.30000, 0.00000, 0.00000, 0.00000, 0.70402
7.289, 0.30000, 0.00000, 0.00000, 0.00000, 0.70402
7.300, 0.30000, 0.00000, 0.00000, 0.00000, 0.70402
7.311, 0.30000, 0.00000, 0.00000, 0.00000, 0.70402
7.322, 0.30000, 0.00000, 0.00000, 0.00000, 0.70402
7.333, 0.30000, 0.00000, 0.00000, 0.00000, 0.70402
7.344, 0.30000, 0.00000, 0.00000, 0.00000, 0.70402
7.356, 0.30000, 0.00000, 0.00000, 0.00000, 0.70402
7.367, 0.30000, 0.00000, 0.00000, 0.00000, 0.70402
7.378, 0.30000, 0.00000, 0.00000, 0.00000, 0.70402
7.389, 0.30000, 0.00000, 0.00000, 0.00000, 0.70402
7.400, 0.30000, 0.00000, 0.00000, 0.00000, 0.70402
7.411, 0.30000, 0.00000, 0.00000, 0.00000, 0.70402
7.422, 0.30000, 0.00000, 0.00000, 0.00000, 0.70402
7.433, 0.30000, 0.00000, 0.00000, 0.00000, 0.70402
7.444, 0.30000, 0.00000, 0.00000, 0.00000, 0.70402
7.456, 0.30000, 0.00000, 0.00000, 0.00000, 0.70402
7.467, 0.30000, 0.00000, 0.00000, 0.00000, 0.70402
7.478, 0.30000, 0.00000, 0.00000, 0.00000, 0.70402
7.489, 0.30000, 0.00000, 0.00000, 0.00000, 0.70402
7.500, 0.30000, 0.00000, 0.00000, 0.00000, 0.70402
7.511, 0.30000, 0.00000, 0.00000, 0.00000, 0.70402
7.522, 0.30000, 0.00000, 0.00000, 0.00000, 0.70402
7.533, 0.30000, 0.00000, 0.00000, 0.00000, 0.70402
7.544, 0.30000, 0.00000, 0.00000, 0.00000, 0.70402
7.556, 0.30000, 0.00000, 0.00000, 0.00000, 0.70402
7.567, 0.30000, 0.00000, 0.00000, 0.00000, 0.70402
7.578, 0.30000, 0.00000, 0.00000, 0.00000, 0.70402
7.589, 0.30000, 0.00000, 0.00000, 0.00000, 0.70402
7.600, 0.30000, 0.00000, 0.00000, 0.00000, 0.70402
7.611, 0.30000, 0.00000, 0.00000, 0.00000, 0.70402
7.622, 0.30000, 0.00000, 0.00000, 0.00000, 0.70402
7.633, 0.30000, 0.00000, 0.00000, 0.00000, 0.70402
7.644, 0.30000, 0.00000, 0.00000, 0.00000, 0.70402
7.656, 0.30000, 0.00000, 0.00000, 0.00000, 0.70402
7.667, 0.30000, 0.00000, 0.00000, 0.00000, 0.70402
7.678, 0.30000, 0.00000, 0.00000, 0.00000, 0.70402
7.689, 0.30000, 0.00000, 0.00000, 0.00000, 0.70402
7.700, 0.30000, 0.00000, 0.00000, 0.00000, 0.70402
7.711, 0.30000, 0.00000, 0.00000, 0.00000, 0.70402
7.722, 0.30000, 0.00000, 0.00000, 0.00000, 0.70402
7.733, 0.30000, 0.00000, 0.00000, 0.00000, 0.70402
7.744, 0.30000, 0.00000, 0.00000, 0.00000, 0.70402
7.756, 0.30000, 0.00000, 0.00000, 0.00000, 0.70402
7.767, 0.30000, 0.00000, 0.00000, 0.00000, 0.70402
7.778, 0.30000, 0.00000, 0.00000, 0.00000, 0.70402
7.789, 0.30000, 0.00000, 0.00000, 0.00000, 0.70402
7.800, 0.30000, 0.00000, 0.00000, 0.00000, 0.70402
7.811, 0.30000, 0.00000, 0.00000, 0.00000, 0.70402
7.822, 0.30000, 0.00000, 0.00000, 0.00000, 0.70402
7.833, 0.30000, 0.00000, 0.00000, 0.00000, 0.70402
7.844, 0.30000, 0.00000, 0.00000, 0.00000, 0.70402
7.856, 0.30000, 0.00000, 0.00000, 0.00000, 0.70402
7.867, 0.30000, 0.00000, 0.00000, 0.00000, 0.70402
7.878, 0.30000, 0.00000, 0.00000, 0.00000, 0.70402
7.889, 0.30000, 0.00000, 0.00000, 0.00000, 0.70402
7.900, 0.30000, 0.00000, 0.00000, 0.00000, 0.70402
7.911, 0.30000, 0.00000, 0.00000, 0.00000, 0.70402
7.922, 0.30000, 0.00000, 0.00000, 0.00000, 0.70402
7.933, 0.30000, 0.00000, 0.00000, 0.00000, 0.70402
7.944, 0.30000, 0.00000, 0.00000, 0.00000, 0.70402
7.956, 0.30000, 0.00000, 0.00000, 0.00000, 0.70402
7.967, 0.30000, 0.00000, 0.00000, 0.00000, 0.70402
7.978, 0.30000, 0.00000, 0.00000, 0.00000, 0.70402
7.989, 0.30000, 0.00000, 0.00000, 0.00000, 0.70402
8.000, 0.30000, 0.00000, 0.00000, 0.00000, 0.70402
8.011, 0.30000, 0.00000, 0.00000, 0.00000, 0.70402
8.022, 0.30000, 0.00000, 0.00000, 0.00000, 0.70402
8.033, 0.30000, 0.00000, 0.00000, 0.00000, 0.70402
8.044, 0.30000, 0.00000, 0.00000, 0.00000, 0.70402
8.056, 0.30000, 0.00000, 0.00000, 0.00000, 0.70402
8.067, 0.30000, 0.00000, 0.00000, 0.00000, 0.70402
8.078, 0.30000, 0.00000, 0.00000, 0.00000, 0.70402
8.089, 0.30000, 0.00000, 0.00000, 0.00000, 0.70402
8.100, 0.30000, 0.00000, 0.00000, 0.00000, 0.70402
8.111, 0.30000, 0.00000, 0.00000, 0.00000, 0.70402
8.122, 0.30000, 0.00000, 0.00000, 0.00000, 0.70402
8.133, 0.30000, 0.00000, 0.00000, 0.00000, 0.70405
8.144, 0.30000, 0.00000, 0.00000, 0.00000, 0.70391
8.156, 0.30000, 0.00000, 0.00000, 0.00000, 0.70356
8.167, 0.30000, 0.00000, 0.00000, 0.00000, 0.70299
8.178, 0.30000, 0.00000, 0.00000, 0.00000, 0.70220
8.189, 0.30000, 0.00000, 0.00000, 0.00000, 0.70118
8.200, 0.30000, 0.00000, 0.00000, 0.00000, 0.69995
8.211, 0.30000, 0.00000, 0.00000, 0.00000, 0.69850
8.222, 0.30000, 0.00000, 0.00000, 0.00000, 0.69682
8.233, 0.30000, 0.00000, 0.00000, 0.00000, 0.69493
8.244, 0.30000, 0.00000, 0.00000, 0.00000, 0.69281
8.256, 0.30000, 0.00000, 0.00000, 0.00000, 0.69047
8.267, 0.30000, 0.00000, 0.00000, 0.00000, 0.68791
8.278, 0.30000, 0.00000, 0.00000, 0.00000, 0.68514
8.289, 0.30000, 0.00000, 0.00000, 0.00000, 0.68214
8.300, 0.30000, 0.00000, 0.00000, 0.00000, 0.67892
8.311, 0.30000, 0.00000, 0.00000, 0.00000, 0.67548
8.322, 0.30000, 0.00000, 0.00000, 0.00000, 0.67182
8.333, 0.30000, 0.00000, 0.00000, 0.00000, 0.66794
8.344, 0.30000, 0.00000, 0.00000, 0.00000, 0.66384
8.356, 0.30000, 0.00000, 0.00000, 0.00000, 0.65952
8.367, 0.30000, 0.00000, 0.00000, 0.00000, 0.65497
8.378, 0.30000, 0.00000, 0.00000, 0.00000, 0.65021
8.389, 0.30000, 0.00000, 0.00000, 0.00000, 0.64523
8.400, 0.30000, 0.00000, 0.00000, 0.00000, 0.64002
8.411, 0.30000, 0.00000, 0.00000, 0.00000, 0.63460
8.422, 0.30000, 0.00000, 0.00000, 0.00000, 0.62895
8.433, 0.30002, 0.00000, 0.00000, 0.00000, 0.62309
8.444, 0.29998, 0.00000, 0.00000, 0.00000, 0.61700
8.456, 0.29982, 0.00000, 0.00000, 0.00000, 0.61069
8.467, 0.29939, 0.00000, 0.00000, 0.00000, 0.60417
8.478, 0.29871, 0.00000, 0.00000, 0.00000, 0.59742
8.489, 0.29778, 0.00000, 0.00000, 0.00000, 0.59045
8.500, 0.29661, 0.00000, 0.00000, 0.00000, 0.58326
8.511, 0.29519, 0.00000, 0.00000, 0.00000, 0.57585
8.522, 0.29353, 0.00000, 0.00000, 0.00000, 0.56822
8.533, 0.29162, 0.00000, 0.00000, 0.00000, 0.56037
8.544, 0.28946, 0.00000, 0.00000, 0.00000, 0.55230
8.556, 0.28705, 0.00000, 0.00000, 0.00000, 0.54400
8.567, 0.28440, 0.00000, 0.00000, 0.00000, 0.53549
8.578, 0.28150, 0.00000, 0.00000, 0.00000, 0.52676
8.589, 0.27835, 0.00000, 0.00000, 0.00000, 0.51780
8.600, 0.27496, 0.00000, 0.00000, 0.00000, 0.50863
8.611, 0.27132, 0.00000, 0.00000, 0.00000, 0.49923
8.622, 0.26743, 0.00000, 0.00000, 0.00000, 0.48962
8.633, 0.26329, 0.00000, 0.00000, 0.00000, 0.47978
8.644, 0.25893, 0.00000, 0.00000, 0.00000, 0.46972
8.656, 0.25447, 0.00000, 0.00000, 0.00000, 0.45945
8.667, 0.25003, 0.00000, 0.00000, 0.00000, 0.44896
8.678, 0.24558, 0.00000, 0.00000, 0.00000, 0.43822
8.689, 0.24114, 0.00000, 0.00000, 0.00000, 0.42728
8.700, 0.23669, 0.00000, 0.00000, 0.00000, 0.41627
8.711, 0.23225, 0.00000, 0.00000, 0.00000, 0.40524
8.722, 0.22780, 0.00000, 0.00000, 0.00000, 0.39423
8.733, 0.22336, 0.00000, 0.00000, 0.00000, 0.38322
8.744, 0.21892, 0.00000, 0.00000, 0.00000, 0.37220
8.756, 0.21447, 0.00000, 0.00000, 0.00000, 0.36119
8.767, 0.21003, 0.00000, 0.00000, 0.00000, 0.35017
8.778, 0.20558, 0.00000, 0.00000, 0.00000, 0.33916
8.789, 0.20114, 0.00000, 0.00000, 0.00000, 0.32814
8.800, 0.19669, 0.00000, 0.00000, 0.00000, 0.31713
8.811, 0.19225, 0.00000, 0.00000, 0.00000, 0.30611
8.822, 0.18780, 0.00000, 0.00000, 0.00000, 0.29511
8.833, 0.18336, 0.00000, 0.00000, 0.00000, 0.28408
8.844, 0.17892, 0.00000, 0.00000, 0.00000, 0.27305
8.856, 0.17447, 0.00000, 0.00000, 0.00000, 0.26219
8.867, 0.17003, 0.00000, 0.00000, 0.00000, 0.25154
8.878, 0.16558, 0.00000, 0.00000, 0.00000, 0.24112
8.889, 0.16114, 0.00000, 0.00000, 0.00000, 0.23091
8.900, 0.15669, 0.00000, 0.00000, 0.00000, 0.22093
8.911, 0.15225, 0.00000, 0.00000, 0.00000, 0.21117
8.922, 0.14780, 0.00000, 0.00000, 0.00000, 0.20163
8.933, 0.14336, 0.00000, 0.00000, 0.00000, 0.19230
8.944, 0.13892, 0.00000, 0.00000, 0.00000, 0.18320
8.956, 0.13447, 0.00000, 0.00000, 0.00000, 0.17432
8.967, 0.13003, 0.00000, 0.00000, 0.00000, 0.16566
8.978, 0.12558, 0.00000, 0.00000, 0.00000, 0.15722
8.989, 0.12114, 0.00000, 0.00000, 0.00000, 0.14901
9.000, 0.11669, 0.00000, 0.00000, 0.00000, 0.14101
9.011, 0.11225, 0.00000, 0.00000, 0.00000, 0.13323
9.022, 0.10780, 0.00000, 0.00000, 0.00000, 0.12567
9.033, 0.10336, 0.00000, 0.00000, 0.00000, 0.11834
9.044, 0.09892, 0.00000, 0.00000, 0.00000, 0.11122
9.056, 0.09447, 0.00000, 0.00000, 0.00000, 0.10433
9.067, 0.09003, 0.00000, 0.00000, 0.00000, 0.09765
9.078, 0.08558, 0.00000, 0.00000, 0.00000, 0.09120
9.089, 0.08114, 0.00000, 0.00000, 0.00000, 0.08497
9.100, 0.07669, 0.00000, 0.00000, 0.00000, 0.07895
9.111, 0.07225, 0.00000, 0.00000, 0.00000, 0.07316
9.122, 0.06780, 0.00000, 0.00000, 0.00000, 0.06759
9.133, 0.06336, 0.00000, 0.00000, 0.00000, 0.06224
9.144, 0.05892, 0.00000, 0.00000, 0.00000, 0.05711
9.156, 0.05447, 0.00000, 0.00000, 0.00000, 0.05220
9.167, 0.05003, 0.00000, 0.00000, 0.00000, 0.04751
9.178, 0.04558, 0.00000, 0.00000, 0.00000, 0.04304
9.189, 0.04114, 0.00000, 0.00000, 0.00000, 0.03879
9.200, 0.03676, 0.00000, 0.00000, 0.00000, 0.03476
9.211, 0.03261, 0.00000, 0.00000, 0.00000, 0.03096
9.222, 0.02873, 0.00000, 0.00000, 0.00000, 0.02737
9.233, 0.02508, 0.00000, 0.00000, 0.00000, 0.02400
9.244, 0.02169, 0.00000, 0.00000, 0.00000, 0.02086
9.256, 0.01854, 0.00000, 0.00000, 0.00000, 0.01793
9.267, 0.01563, 0.00000, 0.00000, 0.00000, 0.01523
9.278, 0.01298, 0.00000, 0.00000, 0.00000, 0.01275
9.289, 0.01057, 0.00000, 0.00000, 0.00000, 0.01048
9.300, 0.00841, 0.00000, 0.00000, 0.00000, 0.00844
9.311, 0.00649, 0.00000, 0.00000, 0.00000, 0.00662
9.322, 0.00482, 0.00000, 0.00000, 0.00000, 0.00502
9.333, 0.00340, 0.00000, 0.00000, 0.00000, 0.00364
9.344, 0.00223, 0.00000, 0.00000, 0.00000, 0.00248
9.356, 0.00130, 0.00000, 0.00000, 0.00000, 0.00154
9.367, 0.00062, 0.00000, 0.00000, 0.00000, 0.00082
9.378, 0.00019, 0.00000, 0.00000, 0.00000, 0.00032
9.389, -0.00000, 0.00000, 0.00000, 0.00000, 0.00004
9.400, -0.00001, 0.00000, 0.00000, -0.00000, 0.00002
9.411, -0.00000, 0.00000, 0.00000, -0.00000, 0.00002
9.422, -0.00000, 0.00000, 0.00000, -0.00000, 0.00002
9.433, -0.00000, 0.00000, 0.00000, -0.00000, 0.00002
9.444, -0.00000, 0.00000, 0.00000, -0.00000, 0.00001
9.456, -0.00000, 0.00000, 0.00000, -0.00001, 0.00001
9.467, -0.00000, 0.00000, 0.00000, -0.00001, 0.00001
9.478, -0.00000, 0.00000, 0.00000, -0.00001, 0.00001
9.489, -0.00000, 0.00000, 0.00000, -0.00001, 0.00001
9.500, -0.00000, 0.00000, 0.00000, -0.00001, 0.00000
9.511, -0.00000, 0.00000, 0.00000, -0.00001, 0.00000
9.522, -0.00000, 0.00000, 0.00000, -0.00001, 0.00000
9.533, -0.00000, 0.00000, 0.00000, -0.00001, -0.00000
9.544, -0.00000, 0.00000, 0.00000, -0.00001, -0.00000
9.556, -0.00000, 0.00000, 0.00000, -0.00001, -0.00000
9.567, -0.00000, 0.00000, 0.00000, -0.00001, -0.00000
9.578, -0.00000, 0.00000, 0.00000, -0.00001, -0.00001
9.589, -0.00000, 0.00000, 0.00000, -0.00001, -0.00001
9.600, -0.00000, 0.00000, 0.00000, -0.00001, -0.00001
9.611, -0.00000, 0.00000, 0.00000, -0.00001, -0.00001
9.622, -0.00000, 0.00000, 0.00001, -0.00001, -0.00001
9.633, -0.00000, 0.00000, 0.00001, -0.00001, -0.00001
9.644, -0.00000, 0.00000, 0.00001, -0.00001, -0.00001
9.656, -0.00000, 0.00000, 0.00001, -0.00001, -0.00001
9.667, -0.00000, 0.00000, 0.00001, -0.00001, -0.00002
9.678, -0.00000, 0.00000, 0.00001, -0.00001, -0.00002
9.689, -0.00000, 0.00000, 0.00001, -0.00001, -0.00002
9.700, -0.00000, 0.00000, 0.00001, -0.00002, -0.00002
9.711, -0.00000, 0.00000, 0.00001, -0.00002, -0.00002
9.722, -0.00000, 0.00000, 0.00001, -0.00002, -0.00002
9.733, 0.00000, 0.00000, 0.00001, -0.00002, -0.00002
9.744, 0.00000, 0.00000, 0.00001, -0.00002, -0.00002
9.756, 0.00000, 0.00000, 0.00001, -0.00001, -0.00002
9.767, 0.00000, 0.00000, 0.00001, -0.00001, -0.00002
9.778, 0.00000, 0.00000, 0.00001, -0.00001, -0.00002
9.789, 0.00000, 0.00000, 0.00001, -0.00001, -0.00002
9.800, 0.00000, 0.00000, 0.00001, -0.00001, -0.00002
9.811, 0.00000, 0.00000, 0.00001, -0.00001, -0.00002
9.822, 0.00000, 0.00000, 0.00001, -0.00001, -0.00002
9.833, 0.00000, 0.00000, 0.00000, -0.00001, -0.00002
9.844, 0.00000, 0.00000, 0.00000, -0.00001, -0.00002
9.856, 0.00000, 0.00000, 0.00000, -0.00001, -0.00002
9.867, 0.00000, 0.00000, 0.00000, -0.00001, -0.00002
9.878, 0.00000, 0.00000, 0.00000, -0.00001, -0.00002
9.889, 0.00000, 0.00000, 0.00000, -0.00001, -0.00002
9.900, 0.00000, 0.00000, 0.00000, -0.00001, -0.00002
9.911, 0.00000, 0.00000, 0.00000, -0.00001, -0.00002
9.922, 0.00000, 0.00000, 0.00000, -0.00001, -0.00002
9.933, 0.00000, 0.00000, 0.00000, -0.00001, -0.00002
9.944, 0.00000, 0.00000, 0.00000, -0.00001, -0.00002
9.956, 0.00000, 0.00000, 0.00000, -0.00001, -0.00002
9.967, 0.00000, 0.00000, 0.00000, -0.00001, -0.00002
9.978, 0.00000, 0.00000, 0.00000, -0.00001, -0.00002
9.989, 0.00000, 0.00000, 0.00000, -0.00001, -0.00001
10.000, 0.00000, 0.00000, 0.00000, -0.00000, -0.00001
10.011, 0.00000, 0.00000, 0.00000, -0.00000, -0.00001
10.022, 0.00000, 0.00000, 0.00000, -0.00000, -0.00001
10.033, 0.00000, 0.00000, 0.00000, -0.00000, -0.00001
10.044, 0.00000, 0.00000, 0.00000, -0.00000, -0.00001
10.056, 0.00000, 0.00000, 0.00000, -0.00000, -0.00001
10.067, 0.00000, -0.00000, -0.00000, 0.00000, -0.00001
10.078, 0.00000, -0.00000, -0.00000, 0.00000, -0.00001
10.089, 0.00000, -0.00000, -0.00000, 0.00000, -0.00000
10.100, 0.00000, -0.00000, -0.00000, 0.00000, -0.00000
10.111, 0.00000, -0.00000, -0.00000, 0.00001, -0.00000
10.122, 0.00000, -0.00000, -0.00000, 0.00001, 0.00000
10.133, 0.00000, -0.00000, -0.00000, 0.00001, 0.00000
10.144, 0.00000, -0.00000, -0.00000, 0.00001, 0.00000
10.156, 0.00000, -0.00000, -0.00000, 0.00001, 0.00001
10.167, 0.00000, -0.00000, -0.00000, 0.00001, 0.00001
10.178, 0.00000, -0.00000, -0.00000, 0.00001, 0.00001
10.189, 0.00000, -0.00000, -0.00001, 0.00001, 0.00001
10.200, 0.00000, -0.00000, -0.00001, 0.00002, 0.00001
10.211, 0.00000, -0.00000, -0.00001, 0.00002, 0.00001
10.222, 0.00000, -0.00000, -0.00001, 0.00002, 0.00002
10.233, 0.00000, -0.00000, -0.00001, 0.00002, 0.00002
10.244, 0.00000, -0.00001, -0.00001, 0.00002, 0.00002
10.256, 0.00000, -0.00001, -0.00001, 0.00002, 0.00002
10.267, 0.00000, -0.00001, -0.00001, 0.00002, 0.00003
10.278, 0.00000, -0.00001, -0.00001, 0.00003, 0.00003
10.289, 0.00000, -0.00001, -0.00001, 0.00003, 0.00003
10.300, 0.00000, -0.00001, -0.00001, 0.00003, 0.00003
10.311, 0.00000, -0.00001, -0.00001, 0.00003, 0.00004
10.322, 0.00000, -0.00001, -0.00001, 0.00003, 0.00004
10.333, 0.00000, -0.00001, -0.00001, 0.00004, 0.00004
10.344, 0.00000, -0.00001, -0.00001, 0.00004, 0.00004
10.356, 0.00000, -0.00001, -0.00001, 0.00004, 0.00005
10.367, 0.00000, -0.00001, -0.00002, 0.00004, 0.00005
10.378, 0.00000, -0.00001, -0.00002, 0.00004, 0.00005
10.389, 0.00000, -0.00001, -0.00002, 0.00005, 0.00006
10.400, 0.00000, -0.00008, -0.00022, 0.00027, 0.00043
10.411, 0.00000, -0.00022, -0.00067, 0.00071, 0.00120
10.422, 0.00000, -0.00043, -0.00138, 0.00135, 0.00233
10.433, 0.00000, -0.00071, -0.00233, 0.00218, 0.00384
10.444, 0.00000, -0.00105, -0.00353, 0.00322, 0.00571
10.456, 0.00000, -0.00146, -0.00497, 0.00444, 0.00795
10.467, 0.00000, -0.00194, -0.00666, 0.00587, 0.01057
10.478, 0.00000, -0.00248, -0.00860, 0.00749, 0.01355
10.489, 0.00000, -0.00309, -0.01078, 0.00931, 0.01690
10.500, 0.00000, -0.00377, -0.01322, 0.01133, 0.02063
10.511, 0.00000, -0.00452, -0.01590, 0.01355, 0.02472
10.522, 0.00000, -0.00533, -0.01882, 0.01596, 0.02918
10.533, 0.00000, -0.00622, -0.02199, 0.01857, 0.03401
10.544, 0.00000, -0.00716, -0.02541, 0.02138, 0.03921
10.556, 0.00000, -0.00818, -0.02908, 0.02438, 0.04478
10.567, 0.00000, -0.00926, -0.03299, 0.02758, 0.05072
10.578, 0.00000, -0.01042, -0.03715, 0.03098, 0.05703
10.589, 0.00000, -0.01163, -0.04156, 0.03458, 0.06371
10.600, 0.00000, -0.01292, -0.04622, 0.03837, 0.07076
10.611, 0.00000, -0.01427, -0.05112, 0.04237, 0.07818
10.622, 0.00000, -0.01569, -0.05627, 0.04655, 0.08596
10.633, 0.00000, -0.01718, -0.06166, 0.05094, 0.09412
10.644, 0.00000, -0.01873, -0.06730, 0.05552, 0.10265
10.656, 0.00000, -0.02036, -0.07319, 0.06030, 0.11154
10.667, 0.00000, -0.02205, -0.07933, 0.06528, 0.12081
10.678, 0.00000, -0.02380, -0.08571, 0.07045, 0.13045
10.689, 0.00000, -0.02563, -0.09234, 0.07583, 0.14045
10.700, 0.00000, -0.02752, -0.09922, 0.08140, 0.15082
10.711, 0.00000, -0.02948, -0.10634, 0.08716, 0.16157
10.722, 0.00000, -0.03150, -0.11371, 0.09313, 0.17268
10.733, 0.00000, -0.03360, -0.12134, 0.09929, 0.18417
10.744, 0.00000, -0.03576, -0.12911, 0.10565, 0.19602
10.756, 0.00000, -0.03799, -0.13689, 0.11220, 0.20824
10.767, 0.00000, -0.04028, -0.14467, 0.11895, 0.22083
10.778, 0.00000, -0.04265, -0.15244, 0.12591, 0.23379
10.789, 0.00000, -0.04508, -0.16022, 0.13305, 0.24712
10.800, 0.00000, -0.04757, -0.16800, 0.14040, 0.26082
10.811, 0.00000, -0.05014, -0.17578, 0.14794, 0.27490
10.822, 0.00000, -0.05277, -0.18356, 0.15568, 0.28933
10.833, 0.00000, -0.05547, -0.19133, 0.16362, 0.30414
10.844, 0.00000, -0.05824, -0.19911, 0.17175, 0.31933
10.856, 0.00000, -0.06107, -0.20689, 0.18008, 0.33483
10.867, 0.00000, -0.06397, -0.21467, 0.18861, 0.35039
10.878, 0.00000, -0.06694, -0.22245, 0.19734, 0.36592
10.889, 0.00000, -0.06998, -0.23021, 0.20626, 0.38146
10.900, 0.00000, -0.07308, -0.23778, 0.21538, 0.39700
10.911, 0.00000, -0.07625, -0.24511, 0.22470, 0.41253
10.922, 0.00000, -0.07949, -0.25218, 0.23421, 0.42807
10.933, 0.00000, -0.08276, -0.25901, 0.24393, 0.44361
10.944, 0.00000, -0.08604, -0.26559, 0.25384, 0.45915
10.956, 0.00000, -0.08931, -0.27192, 0.26394, 0.47468
10.967, 0.00000, -0.09258, -0.27801, 0.27418, 0.49022
10.978, 0.00000, -0.09585, -0.28385, 0.28442, 0.50579
10.989, 0.00000, -0.09912, -0.28944, 0.29464, 0.52120
11.000, 0.00000, -0.10239, -0.29478, 0.30486, 0.53630
11.011, 0.00000, -0.10566, -0.29988, 0.31509, 0.55100
11.022, 0.00000, -0.10893, -0.30473, 0.32531, 0.56533
11.033, 0.00000, -0.11220, -0.30934, 0.33554, 0.57930
11.044, 0.00000, -0.11547, -0.31370, 0.34576, 0.59289
11.056, 0.00000, -0.11874, -0.31781, 0.35599, 0.60612
11.067, 0.00000, -0.12201, -0.32167, 0.36622, 0.61897
11.078, 0.00000, -0.12528, -0.32529, 0.37644, 0.63146
11.089, 0.00000, -0.12855, -0.32866, 0.38666, 0.64358
11.100, 0.00000, -0.13182, -0.33178, 0.39689, 0.65532
11.111, 0.00000, -0.13510, -0.33466, 0.40714, 0.66670
11.122, 0.00000, -0.13836, -0.33729, 0.41733, 0.67771
11.133, 0.00000, -0.14164, -0.33967, 0.42739, 0.68835
11.144, 0.00000, -0.14491, -0.34181, 0.43725, 0.69862
11.156, 0.00000, -0.14818, -0.34370, 0.44690, 0.70852
11.167, 0.00000, -0.15140, -0.34534, 0.45636, 0.71805
11.178, 0.00000, -0.15456, -0.34673, 0.46562, 0.72721
11.189, 0.00000, -0.15765, -0.34788, 0.47469, 0.73600
11.200, 0.00000, -0.16067, -0.34878, 0.48355, 0.74442
11.211, 0.00000, -0.16363, -0.34944, 0.49222, 0.75247
11.222, 0.00000, -0.16651, -0.34984, 0.50069, 0.76015
11.233, 0.00000, -0.16933, -0.35000, 0.50897, 0.76747
11.244, 0.00000, -0.17208, -0.35001, 0.51704, 0.77441
11.256, 0.00000, -0.17477, -0.35000, 0.52492, 0.78098
11.267, 0.00000, -0.17739, -0.35000, 0.53260, 0.78719
11.278, 0.00000, -0.17994, -0.35000, 0.54009, 0.79302
11.289, 0.00000, -0.18242, -0.35000, 0.54738, 0.79849
11.300, 0.00000, -0.18484, -0.35000, 0.55447, 0.80358
11.311, 0.00000, -0.18718, -0.35000, 0.56136, 0.80831
11.322, 0.00000, -0.18946, -0.35000, 0.56805, 0.81266
11.333, 0.00000, -0.19168, -0.35000, 0.57455, 0.81665
11.344, 0.00000, -0.19382, -0.35000, 0.58085, 0.82027
11.356, 0.00000, -0.19590, -0.35000, 0.58696, 0.82351
11.367, 0.00000, -0.19791, -0.35000, 0.59286, 0.82639
11.378, 0.00000, -0.19986, -0.35000, 0.59857, 0.82890
11.389, 0.00000, -0.20174, -0.35000, 0.60409, 0.83104
11.400, 0.00000, -0.20355, -0.35000, 0.60940, 0.83281
11.411, 0.00000, -0.20529, -0.35000, 0.61452, 0.83421
11.422, 0.00000, -0.20696, -0.35000, 0.61944, 0.83524
11.433, 0.00000, -0.20857, -0.35000, 0.62416, 0.83590
11.444, 0.00000, -0.21011, -0.35000, 0.62869, 0.83619
11.456, 0.00000, -0.21158, -0.35000, 0.63301, 0.83618
11.467, 0.00000, -0.21299, -0.35000, 0.63714, 0.83617
11.478, 0.00000, -0.21433, -0.35000, 0.64108, 0.83618
11.489, 0.00000, -0.21560, -0.35000, 0.64481, 0.83618
11.500, 0.00000, -0.21680, -0.35000, 0.64835, 0.83618
11.511, 0.00000, -0.21794, -0.35000, 0.65170, 0.83618
11.522, 0.00000, -0.21901, -0.35000, 0.65484, 0.83618
11.533, 0.00000, -0.22001, -0.35000, 0.65779, 0.83618
11.544, 0.00000, -0.22094, -0.35000, 0.66054, 0.83618
11.556, 0.00000, -0.22181, -0.35000, 0.66309, 0.83618
11.567, 0.00000, -0.22261, -0.35000, 0.66544, 0.83618
11.578, 0.00000, -0.22334, -0.35000, 0.66760, 0.83618
11.589, 0.00000, -0.22401, -0.35000, 0.66956, 0.83618
11.600, 0.00000, -0.22461, -0.35000, 0.67133, 0.83618
11.611, 0.00000, -0.22514, -0.35000, 0.67289, 0.83618
11.622, 0.00000, -0.22560, -0.35000, 0.67426, 0.83618
11.633, 0.00000, -0.22599, -0.35000, 0.67543, 0.83618
11.644, 0.00000, -0.22632, -0.35000, 0.67641, 0.83618
11.656, 0.00000, -0.22658, -0.35000, 0.67718, 0.83618
11.667, 0.00000, -0.22678, -0.35000, 0.67777, 0.83618
11.678, 0.00000, -0.22690, -0.35000, 0.67814, 0.83618
11.689, 0.00000, -0.22696, -0.35000, 0.67832, 0.83618
11.700, 0.00000, -0.22697, -0.35000, 0.67835, 0.83618
11.711, 0.00000, -0.22696, -0.35000, 0.67832, 0.83618
11.722, 0.00000, -0.22696, -0.35000, 0.67832, 0.83618
11.733, 0.00000, -0.22696, -0.35000, 0.67833, 0.83618
11.744, 0.00000, -0.22696, -0.35000, 0.67833, 0.83618
11.756, 0.00000, -0.22696, -0.35000, 0.67833, 0.83618
11.767, 0.00000, -0.22696, -0.35000, 0.67833, 0.83618
11.778, 0.00000, -0.22696, -0.35000, 0.67833, 0.83618
11.789, 0.00000, -0.22696, -0.35000, 0.67833, 0.83618
11.800, 0.00000, -0.22696, -0.35000, 0.67833, 0.83618
11.811, 0.00000, -0.22696, -0.35000, 0.67833, 0.83618
11.822, 0.00000, -0.22696, -0.35000, 0.67833, 0.83618
11.833, 0.00000, -0.22696, -0.35000, 0.67833, 0.83618
11.844, 0.00000, -0.22696, -0.35000, 0.67833, 0.83618
11.856, 0.00000, -0.22696, -0.35000, 0.67833, 0.83618
11.867, 0.00000, -0.22696, -0.35000, 0.67833, 0.83618
11.878, 0.00000, -0.22696, -0.35000, 0.67833, 0.83618
11.889, 0.00000, -0.22696, -0.35000, 0.67833, 0.83618
11.900, 0.00000, -0.22696, -0.35000, 0.67833, 0.83618
11.911, 0.00000, -0.22696, -0.35000, 0.67833, 0.83618
11.922, 0.00000, -0.22696, -0.35000, 0.67833, 0.83618
11.933, 0.00000, -0.22696, -0.35000, 0.67833, 0.83618
11.944, 0.00000, -0.22696, -0.35000, 0.67833, 0.83618
11.956, 0.00000, -0.22696, -0.35000, 0.67833, 0.83618
11.967, 0.00000, -0.22696, -0.35000, 0.67833, 0.83618
11.978, 0.00000, -0.22696, -0.35000, 0.67832, 0.83618
11.989, 0.00000, -0.22696, -0.35000, 0.67833, 0.83618
12.000, 0.00000, -0.22696, -0.35000, 0.67834, 0.83618
12.011, 0.00000, -0.22697, -0.35000, 0.67830, 0.83618
12.022, 0.00000, -0.22695, -0.35000, 0.67811, 0.83618
12.033, 0.00000, -0.22688, -0.35000, 0.67771, 0.83618
12.044, 0.00000, -0.22674, -0.35000, 0.67709, 0.83618
12.056, 0.00000, -0.22653, -0.35000, 0.67629, 0.83618
12.067, 0.00000, -0.22625, -0.35000, 0.67529, 0.83618
12.078, 0.00000, -0.22590, -0.35000, 0.67409, 0.83618
12.089, 0.00000, -0.22549, -0.35000, 0.67270, 0.83618
12.100, 0.00000, -0.22501, -0.35000, 0.67111, 0.83618
12.111, 0.00000, -0.22446, -0.35000, 0.66932, 0.83618
12.122, 0.00000, -0.22385, -0.35000, 0.66733, 0.83618
12.133, 0.00000, -0.22317, -0.35000, 0.66515, 0.83618
12.144, 0.00000, -0.22242, -0.35000, 0.66276, 0.83618
12.156, 0.00000, -0.22160, -0.35000, 0.66019, 0.83618
12.167, 0.00000, -0.22072, -0.35000, 0.65741, 0.83618
12.178, 0.00000, -0.21977, -0.35000, 0.65444, 0.83618
12.189, 0.00000, -0.21875, -0.35000, 0.65127, 0.83618
12.200, 0.00000, -0.21766, -0.35000, 0.64790, 0.83618
12.211, 0.00000, -0.21651, -0.35000, 0.64433, 0.83618
12.222, 0.00000, -0.21529, -0.35000, 0.64057, 0.83618
12.233, 0.00000, -0.21400, -0.35000, 0.63661, 0.83618
12.244, 0.00000, -0.21265, -0.35000, 0.63246, 0.83617
12.256, 0.00000, -0.21123, -0.35000, 0.62810, 0.83619
12.267, 0.00000, -0.20974, -0.35000, 0.62355, 0.83616
12.278, 0.00000, -0.20818, -0.35000, 0.61880, 0.83579
12.289, 0.00000, -0.20656, -0.35000, 0.61385, 0.83505
12.300, 0.00000, -0.20486, -0.35000, 0.60871, 0.83394
12.311, 0.00000, -0.20311, -0.35000, 0.60337, 0.83246
12.322, 0.00000, -0.20128, -0.35000, 0.59783, 0.83061
12.333, 0.00000, -0.19939, -0.35000, 0.59210, 0.82839
12.344, 0.00000, -0.19742, -0.35000, 0.58617, 0.82580
12.356, 0.00000, -0.19540, -0.35000, 0.58004, 0.82284
12.367, 0.00000, -0.19330, -0.35000, 0.57371, 0.81952
12.378, 0.00000, -0.19114, -0.35000, 0.56718, 0.81582
12.389, 0.00000, -0.18891, -0.35000, 0.56046, 0.81175
12.400, 0.00000, -0.18661, -0.35000, 0.55354, 0.80732
12.411, 0.00000, -0.18425, -0.35000, 0.54643, 0.80251
12.422, 0.00000, -0.18181, -0.35000, 0.53911, 0.79734
12.433, 0.00000, -0.17931, -0.35000, 0.53160, 0.79179
12.444, 0.00000, -0.17675, -0.35000, 0.52390, 0.78588
12.456, 0.00000, -0.17411, -0.34999, 0.51599, 0.77960
12.467, 0.00000, -0.17141, -0.35001, 0.50789, 0.77294
12.478, 0.00000, -0.16864, -0.34998, 0.49959, 0.76592
12.489, 0.00000, -0.16581, -0.34977, 0.49109, 0.75853
12.500, 0.00000, -0.16290, -0.34931, 0.48240, 0.75077
12.511, 0.00000, -0.15993, -0.34859, 0.47350, 0.74263
12.522, 0.00000, -0.15689, -0.34763, 0.46442, 0.73413
12.533, 0.00000, -0.15379, -0.34643, 0.45513, 0.72526
12.544, 0.00000, -0.15061, -0.34497, 0.44564, 0.71602
12.556, 0.00000, -0.14737, -0.34327, 0.43597, 0.70641
12.567, 0.00000, -0.14410, -0.34133, 0.42609, 0.69643
12.578, 0.00000, -0.14083, -0.33913, 0.41600, 0.68608
12.589, 0.00000, -0.13756, -0.33669, 0.40578, 0.67537
12.600, 0.00000, -0.13429, -0.33400, 0.39553, 0.66428
12.611, 0.00000, -0.13102, -0.33107, 0.38532, 0.65282
12.622, 0.00000, -0.12775, -0.32789, 0.37509, 0.64099
12.633, 0.00000, -0.12448, -0.32446, 0.36487, 0.62880
12.644, 0.00000, -0.12121, -0.32078, 0.35464, 0.61623
12.656, 0.00000, -0.11793, -0.31686, 0.34442, 0.60330
12.667, 0.00000, -0.11466, -0.31269, 0.33419, 0.58999
12.678, 0.00000, -0.11139, -0.30827, 0.32397, 0.57632
12.689, 0.00000, -0.10812, -0.30361, 0.31374, 0.56227
12.700, 0.00000, -0.10485, -0.29870, 0.30352, 0.54786
12.711, 0.00000, -0.10158, -0.29354, 0.29330, 0.53308
12.722, 0.00000, -0.09831, -0.28814, 0.28307, 0.51789
12.733, 0.00000, -0.09504, -0.28249, 0.27283, 0.50243
12.744, 0.00000, -0.09177, -0.27659, 0.26263, 0.48687
12.756, 0.00000, -0.08850, -0.27044, 0.25252, 0.47133
12.767, 0.00000, -0.08523, -0.26405, 0.24263, 0.45580
12.778, 0.00000, -0.08196, -0.25741, 0.23295, 0.44026
12.789, 0.00000, -0.07869, -0.25053, 0.22346, 0.42472
12.800, 0.00000, -0.07546, -0.24340, 0.21417, 0.40918
12.811, 0.00000, -0.07231, -0.23601, 0.20507, 0.39365
12.822, 0.00000, -0.06922, -0.22839, 0.19618, 0.37811
12.833, 0.00000, -0.06620, -0.22061, 0.18748, 0.36257
12.844, 0.00000, -0.06325, -0.21283, 0.17897, 0.34704
12.856, 0.00000, -0.06036, -0.20505, 0.17067, 0.33148
12.867, 0.00000, -0.05755, -0.19727, 0.16256, 0.31602
12.878, 0.00000, -0.05480, -0.18950, 0.15465, 0.30092
12.889, 0.00000, -0.05211, -0.18172, 0.14694, 0.28619
12.900, 0.00000, -0.04950, -0.17394, 0.13942, 0.27183
12.911, 0.00000, -0.04695, -0.16616, 0.13210, 0.25784
12.922, 0.00000, -0.04447, -0.15838, 0.12498, 0.24422
12.933, 0.00000, -0.04206, -0.15061, 0.11805, 0.23097
12.944, 0.00000, -0.03971, -0.14283, 0.11133, 0.21808
12.956, 0.00000, -0.03743, -0.13505, 0.10480, 0.20557
12.967, 0.00000, -0.03522, -0.12727, 0.09847, 0.19343
12.978, 0.00000, -0.03308, -0.11951, 0.09233, 0.18166
12.989, 0.00000, -0.03100, -0.11194, 0.08639, 0.17025
13.000, 0.00000, -0.02899, -0.10464, 0.08065, 0.15922
13.011, 0.00000, -0.02705, -0.09757, 0.07511, 0.14856
13.022, 0.00000, -0.02517, -0.09075, 0.06976, 0.13826
13.033, 0.00000, -0.02336, -0.08418, 0.06461, 0.12834
13.044, 0.00000, -0.02162, -0.07786, 0.05966, 0.11878
13.056, 0.00000, -0.01995, -0.07178, 0.05491, 0.10959
13.067, 0.00000, -0.01834, -0.06595, 0.05035, 0.10078
13.078, 0.00000, -0.01681, -0.06036, 0.04599, 0.09233
13.089, 0.00000, -0.01534, -0.05503, 0.04183, 0.08425
13.100, 0.00000, -0.01393, -0.04994, 0.03786, 0.07655
13.111, 0.00000, -0.01260, -0.04509, 0.03410, 0.06921
13.122, 0.00000, -0.01133, -0.04050, 0.03053, 0.06224
13.133, 0.00000, -0.01013, -0.03615, 0.02715, 0.05564
13.144, 0.00000, -0.00899, -0.03205, 0.02398, 0.04941
13.156, 0.00000, -0.00792, -0.02819, 0.02100, 0.04355
13.167, 0.00000, -0.00692, -0.02458, 0.01822, 0.03806
13.178, 0.00000, -0.00599, -0.02122, 0.01563, 0.03294
13.189, 0.00000, -0.00513, -0.01811, 0.01325, 0.02819
13.200, 0.00000, -0.00433, -0.01524, 0.01106, 0.02381
13.211, 0.00000, -0.00360, -0.01262, 0.00906, 0.01979
13.222, 0.00000, -0.00294, -0.01025, 0.00727, 0.01615
13.233, 0.00000, -0.00234, -0.00812, 0.00567, 0.01288
13.244, 0.00000, -0.00181, -0.00624, 0.00427, 0.00997
13.256, 0.00000, -0.00135, -0.00461, 0.00307, 0.00744
13.267, 0.00000, -0.00096, -0.00322, 0.00206, 0.00527
13.278, 0.00000, -0.00063, -0.00208, 0.00125, 0.00348
13.289, 0.00000, -0.00037, -0.00119, 0.00064, 0.00205
13.300, 0.00000, -0.00018, -0.00054, 0.00023, 0.00100
13.311, 0.00000, -0.00006, -0.00014, 0.00001, 0.00031
13.322, 0.00000, -0.00000, -0.00000, -0.00002, 0.00003
13.333, 0.00000, -0.00000, -0.00000, -0.00002, 0.00003
13.344, 0.00000, -0.00000, -0.00000, -0.00002, 0.00002
13.356, 0.00000, -0.00000, -0.00000, -0.00002, 0.00002
13.367, 0.00000, -0.00000, -0.00000, -0.00002, 0.00002
13.378, 0.00000, -0.00000, -0.00000, -0.00001, 0.00002
13.389, 0.00000, -0.00000, -0.00000, -0.00001, 0.00002
13.400, 0.00000, -0.00000, -0.00000, -0.00001, 0.00001
13.411, 0.00000, -0.00000, -0.00000, -0.00001, 0.00001
13.422, 0.00000, -0.00000, -0.00000, -0.00001, 0.00001
13.433, 0.00000, -0.00000, -0.00000, -0.00001, 0.00001
13.444, 0.00000, -0.00000, -0.00000, -0.00001, 0.00001
13.456, 0.00000, -0.00000, -0.00000, -0.00001, 0.00000
13.467, 0.00000, -0.00000, -0.00000, -0.00001, 0.00000
13.478, 0.00000, -0.00000, -0.00000, -0.00001, 0.00000
13.489, 0.00000, -0.00000, -0.00000, -0.00001, 0.00000
13.500, 0.00000, -0.00000, -0.00000, -0.00001, -0.00000
13.511, 0.00000, -0.00000, -0.00000, -0.00001, -0.00000
13.522, 0.00000, -0.00000, -0.00000, -0.00001, -0.00000
13.533, 0.00000, -0.00000, -0.00000, -0.00001, -0.00001
13.544, 0.00000, -0.00000, -0.00000, -0.00000, -0.00001
13.556, 0.00001, -0.00000, -0.00000, -0.00000, -0.00001
13.567, 0.00001, -0.00000, -0.00000, -0.00000, -0.00001
13.578, 0.00001, -0.00000, -0.00000, -0.00000, -0.00001
13.589, 0.00001, -0.00000, -0.00000, -0.00000, -0.00001
13.600, 0.00001, -0.00000, -0.00000, -0.00000, -0.00001
13.611, 0.00001, -0.00000, -0.00000, -0.00000, -0.00001
13.622, 0.00001, -0.00000, -0.00000, -0.00000, -0.00001
13.633, 0.00001, -0.00000, -0.00000, -0.00000, -0.00001
13.644, 0.00001, -0.00000, -0.00000, -0.00000, -0.00002
13.656, 0.00001, 0.00000, 0.00000, 0.00000, -0.00002
13.667, 0.00001, 0.00000, 0.00000, 0.00000, -0.00002
13.678, 0.00001, 0.00000, 0.00000, 0.00000, -0.00002
13.689, 0.00001, 0.00000, 0.00000, 0.00000, -0.00002
13.700, 0.00001, 0.00000, 0.00000, 0.00000, -0.00002
13.711, 0.00001, 0.00000, 0.00000, 0.00000, -0.00002
13.722, 0.00001, 0.00000, 0.00000, 0.00000, -0.00002
13.733, 0.00001, 0.00000, 0.00000, 0.00000, -0.00002
13.744, 0.00001, 0.00000, 0.00000, 0.00000, -0.00002
13.756, 0.00001, 0.00000, 0.00000, 0.00000, -0.00002
13.767, 0.00000, 0.00000, 0.00000, 0.00000, -0.00002
13.778, 0.00000, 0.00000, 0.00000, 0.00000, -0.00002
13.789, 0.00000, 0.00000, 0.00000, 0.00000, -0.00002
13.800, 0.00000, 0.00000, 0.00000, 0.00000, -0.00002
13.811, 0.00000, 0.00000, 0.00000, 0.00000, -0.00002
13.822, 0.00000, 0.00000, 0.00000, 0.00000, -0.00002
13.833, 0.00000, 0.00000, 0.00000, 0.00000, -0.00002
13.844, 0.00000, 0.00000, 0.00000, 0.00001, -0.00002
13.856, 0.00000, 0.00000, 0.00000, 0.00001, -0.00002
13.867, 0.00000, 0.00000, 0.00000, 0.00001, -0.00002
13.878, 0.00000, 0.00000, 0.00000, 0.00001, -0.00002
13.889, 0.00000, 0.00000, 0.00000, 0.00001, -0.00002
13.900, 0.00000, 0.00000, 0.00000, 0.00001, -0.00002
13.911, 0.00000, 0.00000, 0.00000, 0.00001, -0.00002
13.922, 0.00000, 0.00000, 0.00000, 0.00001, -0.00001
13.933, 0.00000, 0.00000, 0.00000, 0.00001, -0.00001
13.944, 0.00000, 0.00000, 0.00000, 0.00001, -0.00001
13.956, 0.00000, 0.00000, 0.00000, 0.00001, -0.00001
13.967, 0.00000, 0.00000, 0.00000, 0.00001, -0.00001
13.978, 0.00000, 0.00000, 0.00000, 0.00001, -0.00001
13.989, -0.00000, 0.00000, 0.00000, 0.00001, -0.00001
14.000, -0.00000, 0.00000, 0.00000, 0.00001, -0.00001
14.011, -0.00000, 0.00000, 0.00000, 0.00001, -0.00001
14.022, -0.00000, 0.00000, 0.00000, 0.00001, -0.00001
14.033, -0.00000, 0.00000, 0.00000, 0.00001, -0.00000
14.044, -0.00000, 0.00000, 0.00000, 0.00001, -0.00000
14.056, -0.00000, 0.00000, 0.00000, 0.00001, -0.00000
14.067, -0.00000, 0.00000, 0.00000, 0.00001, -0.00000
14.078, -0.00000, 0.00000, 0.00000, 0.00001, 0.00000
14.089, -0.00000, 0.00000, 0.00000, 0.00001, 0.00000
14.100, -0.00000, 0.00000, 0.00000, 0.00001, 0.00000
14.111, -0.00000, 0.00000, 0.00000, 0.00001, 0.00001
14.122, -0.00001, 0.00000, 0.00000, 0.00001, 0.00001
14.133, -0.00001, 0.00000, 0.00000, 0.00000, 0.00001
14.144, -0.00001, 0.00000, 0.00000, 0.00000, 0.00001
14.156, -0.00001, 0.00000, 0.00000, 0.00000, 0.00001
14.167, -0.00001, 0.00000, 0.00000, 0.00000, 0.00001
14.178, -0.00001, 0.00000, 0.00000, 0.00000, 0.00002
14.189, -0.00001, 0.00000, 0.00000, 0.00000, 0.00002
14.200, -0.00001, 0.00000, 0.00000, 0.00000, 0.00002
14.211, -0.00001, 0.00000, 0.00000, 0.00000, 0.00002
14.222, -0.00001, 0.00000, 0.00000, 0.00000, 0.00003
14.233, -0.00001, 0.00000, 0.00000, 0.00000, 0.00003
14.244, -0.00001, 0.00000, 0.00000, 0.00000, 0.00003
14.256, -0.00001, 0.00000, 0.00000, 0.00000, 0.00003
14.267, -0.00001, 0.00000, 0.00000, 0.00000, 0.00003
14.278, -0.00001, 0.00000, 0.00000, 0.00000, 0.00004
14.289, -0.00001, 0.00000, 0.00000, 0.00000, 0.00004
14.300, -0.00002, 0.00000, 0.00000, 0.00000, 0.00004
14.311, -0.00002, 0.00000, 0.00000, 0.00000, 0.00004
14.322, -0.00004, 0.00000, 0.00000, 0.00000, 0.00009
14.333, -0.00033, 0.00000, 0.00000, 0.00000, 0.00042
14.344, -0.00086, 0.00000, 0.00000, 0.00000, 0.00097
14.356, -0.00164, 0.00000, 0.00000, 0.00000, 0.00174
14.367, -0.00266, 0.00000, 0.00000, 0.00000, 0.00273
14.378, -0.00393, 0.00000, 0.00000, 0.00000, 0.00395
14.389, -0.00545, 0.00000, 0.00000, 0.00000, 0.00538
14.400, -0.00722, 0.00000, 0.00000, 0.00000, 0.00703
14.411, -0.00923, 0.00000, 0.00000, 0.00000, 0.00891
14.422, -0.01149, 0.00000, 0.00000, 0.00000, 0.01100
14.433, -0.01399, 0.00000, 0.00000, 0.00000, 0.01332
14.444, -0.01675, 0.00000, 0.00000, 0.00000, 0.01585
14.456, -0.01975, 0.00000, 0.00000, 0.00000, 0.01861
14.467, -0.02299, 0.00000, 0.00000, 0.00000, 0.02159
14.478, -0.02649, 0.00000, 0.00000, 0.00000, 0.02479
14.489, -0.03023, 0.00000, 0.00000, 0.00000, 0.02821
14.500, -0.03422, 0.00000, 0.00000, 0.00000, 0.03184
14.511, -0.03845, 0.00000, 0.00000, 0.00000, 0.03570
14.522, -0.04289, 0.00000, 0.00000, 0.00000, 0.03979
14.533, -0.04733, 0.00000, 0.00000, 0.00000, 0.04409
14.544, -0.05178, 0.00000, 0.00000, 0.00000, 0.04861
14.556, -0.05622, 0.00000, 0.00000, 0.00000, 0.05335
14.567, -0.06067, 0.00000, 0.00000, 0.00000, 0.05831
14.578, -0.06511, 0.00000, 0.00000, 0.00000, 0.06350
14.589, -0.06956, 0.00000, 0.00000, 0.00000, 0.06890
14.600, -0.07400, 0.00000, 0.00000, 0.00000, 0.07452
14.611, -0.07844, 0.00000, 0.00000, 0.00000, 0.08037
14.622, -0.08289, 0.00000, 0.00000, 0.00000, 0.08643
14.633, -0.08733, 0.00000, 0.00000, 0.00000, 0.09272
14.644, -0.09178, 0.00000, 0.00000, 0.00000, 0.09923
14.656, -0.09622, 0.00000, 0.00000, 0.00000, 0.10595
14.667, -0.10067, 0.00000, 0.00000, 0.00000, 0.11290
14.678, -0.10511, 0.00000, 0.00000, 0.00000, 0.12007
14.689, -0.10956, 0.00000, 0.00000, 0.00000, 0.12746
14.700, -0.11400, 0.00000, 0.00000, 0.00000, 0.13507
14.711, -0.11844, 0.00000, 0.00000, 0.00000, 0.14290
14.722, -0.12289, 0.00000, 0.00000, 0.00000, 0.15095
14.733, -0.12733, 0.00000, 0.00000, 0.00000, 0.15922
14.744, -0.13178, 0.00000, 0.00000, 0.00000, 0.16771
14.756, -0.13622, 0.00000, 0.00000, 0.00000, 0.17642
14.767, -0.14067, 0.00000, 0.00000, 0.00000, 0.18536
14.778, -0.14511, 0.00000, 0.00000, 0.00000, 0.19451
14.789, -0.14956, 0.00000, 0.00000, 0.00000, 0.20388
14.800, -0.15400, 0.00000, 0.00000, 0.00000, 0.21348
14.811, -0.15844, 0.00000, 0.00000, 0.00000, 0.22329
14.822, -0.16289, 0.00000, 0.00000, 0.00000, 0.23333
14.833, -0.16733, 0.00000, 0.00000, 0.00000, 0.24358
14.844, -0.17178, 0.00000, 0.00000, 0.00000, 0.25406
14.856, -0.17622, 0.00000, 0.00000, 0.00000, 0.26477
14.867, -0.18067, 0.00000, 0.00000, 0.00000, 0.27567
14.878, -0.18511, 0.00000, 0.00000, 0.00000, 0.28672
14.889, -0.18956, 0.00000, 0.00000, 0.00000, 0.29773
14.900, -0.19400, 0.00000, 0.00000, 0.00000, 0.30874
14.911, -0.19844, 0.00000, 0.00000, 0.00000, 0.31976
14.922, -0.20289, 0.00000, 0.00000, 0.00000, 0.33077
14.933, -0.20733, 0.00000, 0.00000, 0.00000, 0.34179
14.944, -0.21178, 0.00000, 0.00000, 0.00000, 0.35280
14.956, -0.21622, 0.00000, 0.00000, 0.00000, 0.36382
14.967, -0.22067, 0.00000, 0.00000, 0.00000, 0.37483
14.978, -0.22511, 0.00000, 0.00000, 0.00000, 0.38585
14.989, -0.22956, 0.00000, 0.00000, 0.00000, 0.39686
15.000, -0.23400, 0.00000, 0.00000, 0.00000, 0.40787
15.011, -0.23844, 0.00000, 0.00000, 0.00000, 0.41890
15.022, -0.24289, 0.00000, 0.00000, 0.00000, 0.42991
15.033, -0.24733, 0.00000, 0.00000, 0.00000, 0.44080
15.044, -0.25178, 0.00000, 0.00000, 0.00000, 0.45148
15.056, -0.25622, 0.00000, 0.00000, 0.00000, 0.46192
15.067, -0.26067, 0.00000, 0.00000, 0.00000, 0.47215
15.078, -0.26496, 0.00000, 0.00000, 0.00000, 0.48215
15.089, -0.26899, 0.00000, 0.00000, 0.00000, 0.49193
15.100, -0.27278, 0.00000, 0.00000, 0.00000, 0.50150
15.111, -0.27633, 0.00000, 0.00000, 0.00000, 0.51084
15.122, -0.27962, 0.00000, 0.00000, 0.00000, 0.51996
15.133, -0.28267, 0.00000, 0.00000, 0.00000, 0.52886
15.144, -0.28547, 0.00000, 0.00000, 0.00000, 0.53754
15.156, -0.28803, 0.00000, 0.00000, 0.00000, 0.54600
15.167, -0.29034, 0.00000, 0.00000, 0.00000, 0.55424
15.178, -0.29240, 0.00000, 0.00000, 0.00000, 0.56226
15.189, -0.29422, 0.00000, 0.00000, 0.00000, 0.57006
15.200, -0.29578, 0.00000, 0.00000, 0.00000, 0.57764
15.211, -0.29710, 0.00000, 0.00000, 0.00000, 0.58500
15.222, -0.29818, 0.00000, 0.00000, 0.00000, 0.59213
15.233, -0.29900, 0.00000, 0.00000, 0.00000, 0.59905
15.244, -0.29959, 0.00000, 0.00000, 0.00000, 0.60574
15.256, -0.29992, 0.00000, 0.00000, 0.00000, 0.61222
15.267, -0.30000, 0.00000, 0.00000, 0.00000, 0.61847
15.278, -0.30001, 0.00000, 0.00000, 0.00000, 0.62451
15.289, -0.30000, 0.00000, 0.00000, 0.00000, 0.63032
15.300, -0.30000, 0.00000, 0.00000, 0.00000, 0.63591
15.311, -0.30000, 0.00000, 0.00000, 0.00000, 0.64128
15.322, -0.30000, 0.00000, 0.00000, 0.00000, 0.64644
15.333, -0.30000, 0.00000, 0.00000, 0.00000, 0.65137
15.344, -0.30000, 0.00000, 0.00000, 0.00000, 0.65608
15.356, -0.30000, 0.00000, 0.00000, 0.00000, 0.66057
15.367, -0.30000, 0.00000, 0.00000, 0.00000, 0.66484
15.378, -0.30000, 0.00000, 0.00000, 0.00000, 0.66889
15.389, -0.30000, 0.00000, 0.00000, 0.00000, 0.67271
15.400, -0.30000, 0.00000, 0.00000, 0.00000, 0.67632
15.411, -0.30000, 0.00000, 0.00000, 0.00000, 0.67971
15.422, -0.30000, 0.00000, 0.00000, 0.00000, 0.68287
15.433, -0.30000, 0.00000, 0.00000, 0.00000, 0.68582
15.444, -0.30000, 0.00000, 0.00000, 0.00000, 0.68855
15.456, -0.30000, 0.00000, 0.00000, 0.00000, 0.69105
15.467, -0.30000, 0.00000, 0.00000, 0.00000, 0.69333
15.478, -0.30000, 0.00000, 0.00000, 0.00000, 0.69540
15.489, -0.30000, 0.00000, 0.00000, 0.00000, 0.69724
15.500, -0.30000, 0.00000, 0.00000, 0.00000, 0.69886
15.511, -0.30000, 0.00000, 0.00000, 0.00000, 0.70027
15.522, -0.30000, 0.00000, 0.00000, 0.00000, 0.70145
15.533, -0.30000, 0.00000, 0.00000, 0.00000, 0.70241
15.544, -0.30000, 0.00000, 0.00000, 0.00000, 0.70315
15.556, -0.30000, 0.00000, 0.00000, 0.00000, 0.70367
15.567, -0.30000, 0.00000, 0.00000, 0.00000, 0.70396
15.578, -0.30000, 0.00000, 0.00000, 0.00000, 0.70405
15.589, -0.30000, 0.00000, 0.00000, 0.00000, 0.70402
15.600, -0.30000, 0.00000, 0.00000, 0.00000, 0.70402
15.611, -0.30000, 0.00000, 0.00000, 0.00000, 0.70403
15.622, -0.30000, 0.00000, 0.00000, 0.00000, 0.70402
15.633, -0.30000, 0.00000, 0.00000, 0.00000, 0.70402
15.644, -0.30000, 0.00000, 0.00000, 0.00000, 0.70402
15.656, -0.30000, 0.00000, 0.00000, 0.00000, 0.70402
15.667, -0.30000, 0.00000, 0.00000, 0.00000, 0.70402
15.678, -0.30000, 0.00000, 0.00000, 0.00000, 0.70402
15.689, -0.30000, 0.00000, 0.00000, 0.00000, 0.70402
15.700, -0.30000, 0.00000, 0.00000, 0.00000, 0.70402
15.711, -0.30000, 0.00000, 0.00000, 0.00000, 0.70402
15.722, -0.30000, 0.00000, 0.00000, 0.00000, 0.70402
15.733, -0.30000, 0.00000, 0.00000, 0.00000, 0.70402
15.744, -0.30000, 0.00000, 0.00000, 0.00000, 0.70402
15.756, -0.30000, 0.00000, 0.00000, 0.00000, 0.70402
15.767, -0.30000, 0.00000, 0.00000, 0.00000, 0.70402
15.778, -0.30000, 0.00000, 0.00000, 0.00000, 0.70402
15.789, -0.30000, 0.00000, 0.00000, 0.00000, 0.70402
15.800, -0.30000, 0.00000, 0.00000, 0.00000, 0.70402
15.811, -0.30000, 0.00000, 0.00000, 0.00000, 0.70402
15.822, -0.30000, 0.00000, 0.00000, 0.00000, 0.70402
15.833, -0.30000, 0.00000, 0.00000, 0.00000, 0.70402
15.844, -0.30000, 0.00000, 0.00000, 0.00000, 0.70402
15.856, -0.30000, 0.00000, 0.00000, 0.00000, 0.70402
15.867, -0.30000, 0.00000, 0.00000, 0.00000, 0.70402
15.878, -0.30000, 0.00000, 0.00000, 0.00000, 0.70402
15.889, -0.30000, 0.00000, 0.00000, 0.00000, 0.70402
15.900, -0.30000, 0.00000, 0.00000, 0.00000, 0.70402
15.911, -0.30000, 0.00000, 0.00000, 0.00000, 0.70402
15.922, -0.30000, 0.00000, 0.00000, 0.00000, 0.70402
15.933, -0.30000, 0.00000, 0.00000, 0.00000, 0.70402
15.944, -0.30000, 0.00000, 0.00000, 0.00000, 0.70402
15.956, -0.30000, 0.00000, 0.00000, 0.00000, 0.70402
15.967, -0.30000, 0.00000, 0.00000, 0.00000, 0.70402
15.978, -0.30000, 0.00000, 0.00000, 0.00000, 0.70402
15.989, -0.30000, 0.00000, 0.00000, 0.00000, 0.70402
16.000, -0.30000, 0.00000, 0.00000, 0.00000, 0.70402
16.011, -0.30000, 0.00000, 0.00000, 0.00000, 0.70402
16.022, -0.30000, 0.00000, 0.00000, 0.00000, 0.70402
16.033, -0.30000, 0.00000, 0.00000, 0.00000, 0.70402
16.044, -0.30000, 0.00000, 0.00000, 0.00000, 0.70402
16.056, -0.30000, 0.00000, 0.00000, 0.00000, 0.70402
16.067, -0.30000, 0.00000, 0.00000, 0.00000, 0.70402
16.078, -0.30000, 0.00000, 0.00000, 0.00000, 0.70402
16.089, -0.30000, 0.00000, 0.00000, 0.00000, 0.70402
16.100, -0.30000, 0.00000, 0.00000, 0.00000, 0.70402
16.111, -0.30000, 0.00000, 0.00000, 0.00000, 0.70402
16.122, -0.30000, 0.00000, 0.00000, 0.00000, 0.70402
16.133, -0.30000, 0.00000, 0.00000, 0.00000, 0.70402
16.144, -0.30000, 0.00000, 0.00000, 0.00000, 0.70402
16.156, -0.30000, 0.00000, 0.00000, 0.00000, 0.70402
16.167, -0.30000, 0.00000, 0.00000, 0.00000, 0.70402
16.178, -0.30000, 0.00000, 0.00000, 0.00000, 0.70402
16.189, -0.30000, 0.00000, 0.00000, 0.00000, 0.70402
16.200, -0.30000, 0.00000, 0.00000, 0.00000, 0.70402
16.211, -0.30000, 0.00000, 0.00000, 0.00000, 0.70402
16.222, -0.30000, 0.00000, 0.00000, 0.00000, 0.70402
16.233, -0.30000, 0.00000, 0.00000, 0.00000, 0.70402
16.244, -0.30000, 0.00000, 0.00000, 0.00000, 0.70402
16.256, -0.30000, 0.00000, 0.00000, 0.00000, 0.70402
16.267, -0.30000, 0.00000, 0.00000, 0.00000, 0.70402
16.278, -0.30000, 0.00000, 0.00000, 0.00000, 0.70402
16.289, -0.30000, 0.00000, 0.00000, 0.00000, 0.70402
16.300, -0.30000, 0.00000, 0.00000, 0.00000, 0.70402
16.311, -0.30000, 0.00000, 0.00000, 0.00000, 0.70402
16.322, -0.30000, 0.00000, 0.00000, 0.00000, 0.70402
16.333, -0.30000, 0.00000, 0.00000, 0.00000, 0.70402
16.344, -0.30000, 0.00000, 0.00000, 0.00000, 0.70402
16.356, -0.30000, 0.00000, 0.00000, 0.00000, 0.70402
16.367, -0.30000, 0.00000, 0.00000, 0.00000, 0.70402
16.378, -0.30000, 0.00000, 0.00000, 0.00000, 0.70402
16.389, -0.30000, 0.00000, 0.00000, 0.00000, 0.70402
16.400, -0.30000, 0.00000, 0.00000, 0.00000, 0.70402
16.411, -0.30000, 0.00000, 0.00000, 0.00000, 0.70402
16.422, -0.30000, 0.00000, 0.00000, 0.00000, 0.70402
16.433, -0.30000, 0.00000, 0.00000, 0.00000, 0.70402
16.444, -0.30000, 0.00000, 0.00000, 0.00000, 0.70402
16.456, -0.30000, 0.00000, 0.00000, 0.00000, 0.70402
16.467, -0.30000, 0.00000, 0.00000, 0.00000, 0.70402
16.478, -0.30000, 0.00000, 0.00000, 0.00000, 0.70402
16.489, -0.30000, 0.00000, 0.00000, 0.00000, 0.70402
16.500, -0.30000, 0.00000, 0.00000, 0.00000, 0.70402
16.511, -0.30000, 0.00000, 0.00000, 0.00000, 0.70402
16.522, -0.30000, 0.00000, 0.00000, 0.00000, 0.70402
16.533, -0.30000, 0.00000, 0.00000, 0.00000, 0.70402
16.544, -0.30000, 0.00000, 0.00000, 0.00000, 0.70404
16.556, -0.30000, 0.00000, 0.00000, 0.00000, 0.70389
16.567, -0.30000, 0.00000, 0.00000, 0.00000, 0.70352
16.578, -0.30000, 0.00000, 0.00000, 0.00000, 0.70292
16.589, -0.30000, 0.00000, 0.00000, 0.00000, 0.70211
16.600, -0.30000, 0.00000, 0.00000, 0.00000, 0.70107
16.611, -0.30000, 0.00000, 0.00000, 0.00000, 0.69982
16.622, -0.30000, 0.00000, 0.00000, 0.00000, 0.69834
16.633, -0.30000, 0.00000, 0.00000, 0.00000, 0.69664
16.644, -0.30000, 0.00000, 0.00000, 0.00000, 0.69473
16.656, -0.30000, 0.00000, 0.00000, 0.00000, 0.69259
16.667, -0.30000, 0.00000, 0.00000, 0.00000, 0.69023
16.678, -0.30000, 0.00000, 0.00000, 0.00000, 0.68765
16.689, -0.30000, 0.00000, 0.00000, 0.00000, 0.68485
16.700, -0.30000, 0.00000, 0.00000, 0.00000, 0.68183
16.711, -0.30000, 0.00000, 0.00000, 0.00000, 0.67859
16.722, -0.30000, 0.00000, 0.00000, 0.00000, 0.67513
16.733, -0.30000, 0.00000, 0.00000, 0.00000, 0.67145
16.744, -0.30000, 0.00000, 0.00000, 0.00000, 0.66754
16.756, -0.30000, 0.00000, 0.00000, 0.00000, 0.66342
16.767, -0.30000, 0.00000, 0.00000, 0.00000, 0.65908
16.778, -0.30000, 0.00000, 0.00000, 0.00000, 0.65451
16.789, -0.30000, 0.00000, 0.00000, 0.00000, 0.64973
16.800, -0.30000, 0.00000, 0.00000, 0.00000, 0.64472
16.811, -0.30000, 0.00000, 0.00000, 0.00000, 0.63950
16.822, -0.30000, 0.00000, 0.00000, 0.00000, 0.63405
16.833, -0.30000, 0.00000, 0.00000, 0.00000, 0.62838
16.844, -0.30002, 0.00000, 0.00000, 0.00000, 0.62250
16.856, -0.29997, 0.00000, 0.00000, 0.00000, 0.61639
16.867, -0.29979, 0.00000, 0.00000, 0.00000, 0.61006
16.878, -0.29933, 0.00000, 0.00000, 0.00000, 0.60351
16.889, -0.29863, 0.00000, 0.00000, 0.00000, 0.59674
16.900, -0.29768, 0.00000, 0.00000, 0.00000, 0.58975
16.911, -0.29648, 0.00000, 0.00000, 0.00000, 0.58254
16.922, -0.29504, 0.00000, 0.00000, 0.00000, 0.57511
16.933, -0.29335, 0.00000, 0.00000, 0.00000, 0.56745
16.944, -0.29141, 0.00000, 0.00000, 0.00000, 0.55958
16.956, -0.28923, 0.00000, 0.00000, 0.00000, 0.55149
16.967, -0.28680, 0.00000, 0.00000, 0.00000, 0.54317
16.978, -0.28412, 0.00000, 0.00000, 0.00000, 0.53464
16.989, -0.28120, 0.00000, 0.00000, 0.00000, 0.52588
17.000, -0.27803, 0.00000, 0.00000, 0.00000, 0.51691
17.011, -0.27461, 0.00000, 0.00000, 0.00000, 0.50771
17.022, -0.27094, 0.00000, 0.00000, 0.00000, 0.49829
17.033, -0.26703, 0.00000, 0.00000, 0.00000, 0.48866
17.044, -0.26287, 0.00000, 0.00000, 0.00000, 0.47880
17.056, -0.25848, 0.00000, 0.00000, 0.00000, 0.46872
17.067, -0.25402, 0.00000, 0.00000, 0.00000, 0.45842
17.078, -0.24958, 0.00000, 0.00000, 0.00000, 0.44791
17.089, -0.24514, 0.00000, 0.00000, 0.00000, 0.43714
17.100, -0.24069, 0.00000, 0.00000, 0.00000, 0.42620
17.111, -0.23625, 0.00000, 0.00000, 0.00000, 0.41518
17.122, -0.23180, 0.00000, 0.00000, 0.00000, 0.40415
17.133, -0.22736, 0.00000, 0.00000, 0.00000, 0.39314
17.144, -0.22292, 0.00000, 0.00000, 0.00000, 0.38213
17.156, -0.21847, 0.00000, 0.00000, 0.00000, 0.37111
17.167, -0.21403, 0.00000, 0.00000, 0.00000, 0.36010
17.178, -0.20958, 0.00000, 0.00000, 0.00000, 0.34908
17.189, -0.20514, 0.00000, 0.00000, 0.00000, 0.33807
17.200, -0.20069, 0.00000, 0.00000, 0.00000, 0.32706
17.211, -0.19625, 0.00000, 0.00000, 0.00000, 0.31604
17.222, -0.19180, 0.00000, 0.00000, 0.00000, 0.30503
17.233, -0.18736, 0.00000, 0.00000, 0.00000, 0.29402
17.244, -0.18292, 0.00000, 0.00000, 0.00000, 0.28299
17.256, -0.17847, 0.00000, 0.00000, 0.00000, 0.27197
17.267, -0.17403, 0.00000, 0.00000, 0.00000, 0.26113
17.278, -0.16958, 0.00000, 0.00000, 0.00000, 0.25050
17.289, -0.16514, 0.00000, 0.00000, 0.00000, 0.24010
17.300, -0.16069, 0.00000, 0.00000, 0.00000, 0.22992
17.311, -0.15625, 0.00000, 0.00000, 0.00000, 0.21996
17.322, -0.15180, 0.00000, 0.00000, 0.00000, 0.21022
17.333, -0.14736, 0.00000, 0.00000, 0.00000, 0.20070
17.344, -0.14292, 0.00000, 0.00000, 0.00000, 0.19140
17.356, -0.13847, 0.00000, 0.00000, 0.00000, 0.18232
17.367, -0.13403, 0.00000, 0.00000, 0.00000, 0.17346
17.378, -0.12958, 0.00000, 0.00000, 0.00000, 0.16482
17.389, -0.12514, 0.00000, 0.00000, 0.00000, 0.15640
17.400, -0.12069, 0.00000, 0.00000, 0.00000, 0.14821
17.411, -0.11625, 0.00000, 0.00000, 0.00000, 0.14023
17.422, -0.11180, 0.00000, 0.00000, 0.00000, 0.13248
17.433, -0.10736, 0.00000, 0.00000, 0.00000, 0.12494
17.444, -0.10292, 0.00000, 0.00000, 0.00000, 0.11763
17.456, -0.09847, 0.00000, 0.00000, 0.00000, 0.11053
17.467, -0.09403, 0.00000, 0.00000, 0.00000, 0.10366
17.478, -0.08958, 0.00000, 0.00000, 0.00000, 0.09701
17.489, -0.08514, 0.00000, 0.00000, 0.00000, 0.09057
17.500, -0.08069, 0.00000, 0.00000, 0.00000, 0.08436
17.511, -0.07625, 0.00000, 0.00000, 0.00000, 0.07837
17.522, -0.07180, 0.00000, 0.00000, 0.00000, 0.07260
17.533, -0.06736, 0.00000, 0.00000, 0.00000, 0.06705
17.544, -0.06292, 0.00000, 0.00000, 0.00000, 0.06172
17.556, -0.05847, 0.00000, 0.00000, 0.00000, 0.05661
17.567, -0.05403, 0.00000, 0.00000, 0.00000, 0.05172
17.578, -0.04958, 0.00000, 0.00000, 0.00000, 0.04706
17.589, -0.04513, 0.00000, 0.00000, 0.00000, 0.04261
17.600, -0.04070, 0.00000, 0.00000, 0.00000, 0.03838
17.611, -0.03633, 0.00000, 0.00000, 0.00000, 0.03438
17.622, -0.03221, 0.00000, 0.00000, 0.00000, 0.03059
17.633, -0.02835, 0.00000, 0.00000, 0.00000, 0.02703
17.644, -0.02473, 0.00000, 0.00000, 0.00000, 0.02368
17.656, -0.02136, 0.00000, 0.00000, 0.00000, 0.02056
17.667, -0.01823, 0.00000, 0.00000, 0.00000, 0.01766
17.678, -0.01536, 0.00000, 0.00000, 0.00000, 0.01497
17.689, -0.01273, 0.00000, 0.00000, 0.00000, 0.01251
17.700, -0.01034, 0.00000, 0.00000, 0.00000, 0.01027
17.711, -0.00820, 0.00000, 0.00000, 0.00000, 0.00825
17.722, -0.00631, 0.00000, 0.00000, 0.00000, 0.00645
17.733, -0.00467, 0.00000, 0.00000, 0.00000, 0.00487
17.744, -0.00327, 0.00000, 0.00000, 0.00000, 0.00351
17.756, -0.00212, 0.00000, 0.00000, 0.00000, 0.00237
17.767, -0.00122, 0.00000, 0.00000, 0.00000, 0.00146
17.778, -0.00057, 0.00000, 0.00000, 0.00000, 0.00076
17.789, -0.00016, 0.00000, 0.00000, 0.00000, 0.00028
17.800, 0.00001, 0.00000, 0.00000, 0.00000, 0.00002
17.811, 0.00001, -0.00000, -0.00000, 0.00000, 0.00002
17.822, 0.00000, -0.00000, -0.00000, 0.00000, 0.00002
17.833, 0.00000, -0.00000, -0.00000, 0.00000, 0.00002
17.844, 0.00000, -0.00000, -0.00000, 0.00000, 0.00002
17.856, 0.00000, -0.00000, -0.00000, 0.00000, 0.00001
17.867, 0.00000, -0.00000, -0.00000, 0.00001, 0.00001
17.878, 0.00000, -0.00000, -0.00000, 0.00001, 0.00001
17.889, 0.00000, -0.00000, -0.00000, 0.00001, 0.00001
17.900, 0.00000, -0.00000, -0.00000, 0.00001, 0.00001
17.911, 0.00000, -0.00000, -0.00000, 0.00001, 0.00000
17.922, 0.00000, -0.00000, -0.00000, 0.00001, 0.00000
17.933, 0.00000, -0.00000, -0.00000, 0.00001, 0.00000
17.944, 0.00000, -0.00000, -0.00000, 0.00001, -0.00000
17.956, 0.00000, -0.00000, -0.00000, 0.00001, -0.00000
17.967, 0.00000, -0.00000, -0.00000, 0.00001, -0.00000
17.978, 0.00000, -0.00000, -0.00000, 0.00001, -0.00001
17.989, 0.00000, -0.00000, -0.00000, 0.00001, -0.00001
18.000, 0.00000, -0.00000, -0.00000, 0.00001, -0.00001
18.011, 0.00000, -0.00000, -0.00000, 0.00001, -0.00001
18.022, 0.00000, -0.00000, -0.00000, 0.00001, -0.00001
18.033, 0.00000, -0.00000, -0.00001, 0.00001, -0.00001
18.044, 0.00000, -0.00000, -0.00001, 0.00001, -0.00001
18.056, 0.00000, -0.00000, -0.00001, 0.00001, -0.00001
18.067, 0.00000, -0.00000, -0.00001, 0.00001, -0.00001
18.078, 0.00000, -0.00000, -0.00001, 0.00001, -0.00002
18.089, 0.00000, -0.00000, -0.00001, 0.00001, -0.00002
18.100, 0.00000, -0.00000, -0.00001, 0.00001, -0.00002
18.111, 0.00000, -0.00000, -0.00001, 0.00002, -0.00002
18.122, 0.00000, -0.00000, -0.00001, 0.00002, -0.00002
18.133, -0.00000, -0.00000, -0.00001, 0.00002, -0.00002
18.144, -0.00000, -0.00000, -0.00001, 0.00002, -0.00002
18.156, -0.00000, -0.00000, -0.00001, 0.00002, -0.00002
18.167, -0.00000, -0.00000, -0.00001, 0.00001, -0.00002
18.178, -0.00000, -0.00000, -0.00001, 0.00001, -0.00002
18.189, -0.00000, -0.00000, -0.00001, 0.00001, -0.00002
18.200, -0.00000, -0.00000, -0.00001, 0.00001, -0.00002
18.211, -0.00000, -0.00000, -0.00001, 0.00001, -0.00002
18.222, -0.00000, -0.00000, -0.00001, 0.00001, -0.00002
18.233, -0.00000, -0.00000, -0.00001, 0.00001, -0.00002
18.244, -0.00000, -0.00000, -0.00000, 0.00001, -0.00002
18.256, -0.00000, -0.00000, -0.00000, 0.00001, -0.00002
18.267, -0.00000, -0.00000, -0.00000, 0.00001, -0.00002
18.278, -0.00000, -0.00000, -0.00000, 0.00001, -0.00002
18.289, -0.00000, -0.00000, -0.00000, 0.00001, -0.00002
18.300, -0.00000, -0.00000, -0.00000, 0.00001, -0.00002
18.311, -0.00000, -0.00000, -0.00000, 0.00001, -0.00002
18.322, -0.00000, -0.00000, -0.00000, 0.00001, -0.00002
18.333, -0.00000, -0.00000, -0.00000, 0.00001, -0.00002
18.344, -0.00000, -0.00000, -0.00000, 0.00001, -0.00002
18.356, -0.00000, -0.00000, -0.00000, 0.00001, -0.00002
18.367, -0.00000, -0.00000, -0.00000, 0.00001, -0.00002
18.378, -0.00000, -0.00000, -0.00000, 0.00001, -0.00002
18.389, -0.00000, -0.00000, -0.00000, 0.00001, -0.00002
18.400, -0.00000, -0.00000, -0.00000, 0.00001, -0.00001
18.411, -0.00000, -0.00000, -0.00000, 0.00000, -0.00001
18.422, -0.00000, -0.00000, -0.00000, 0.00000, -0.00001
18.433, -0.00000, -0.00000, -0.00000, 0.00000, -0.00001
18.444, -0.00000, -0.00000, -0.00000, 0.00000, -0.00001
18.456, -0.00000, -0.00000, -0.00000, 0.00000, -0.00001
18.467, -0.00000, -0.00000, -0.00000, 0.00000, -0.00001
18.478, -0.00000, 0.00000, 0.00000, -0.00000, -0.00001
18.489, -0.00000, 0.00000, 0.00000, -0.00000, -0.00001
18.500, -0.00000, 0.00000, 0.00000, -0.00000, -0.00000
18.511, -0.00000, 0.00000, 0.00000, -0.00000, -0.00000
18.522, -0.00000, 0.00000, 0.00000, -0.00001, -0.00000
18.533, -0.00000, 0.00000, 0.00000, -0.00001, 0.00000
18.544, -0.00000, 0.00000, 0.00000, -0.00001, 0.00000
18.556, -0.00000, 0.00000, 0.00000, -0.00001, 0.00000
18.567, -0.00000, 0.00000, 0.00000, -0.00001, 0.00001
18.578, -0.00000, 0.00000, 0.00000, -0.00001, 0.00001
18.589, -0.00000, 0.00000, 0.00000, -0.00001, 0.00001
18.600, -0.00000, 0.00000, 0.00001, -0.00001, 0.00001
18.611, -0.00000, 0.00000, 0.00001, -0.00002, 0.00001
18.622, -0.00000, 0.00000, 0.00001, -0.00002, 0.00001
18.633, -0.00000, 0.00000, 0.00001, -0.00002, 0.00002
18.644, -0.00000, 0.00000, 0.00001, -0.00002, 0.00002
18.656, -0.00000, 0.00001, 0.00001, -0.00002, 0.00002
18.667, -0.00000, 0.00001, 0.00001, -0.00002, 0.00002
18.678, -0.00000, 0.00001, 0.00001, -0.00003, 0.00003
18.689, -0.00000, 0.00001, 0.00001, -0.00003, 0.00003
18.700, -0.00000, 0.00001, 0.00001, -0.00003, 0.00003
18.711, -0.00000, 0.00001, 0.00001, -0.00003, 0.00003
18.722, -0.00000, 0.00001, 0.00001, -0.00003, 0.00004
18.733, -0.00000, 0.00001, 0.00001, -0.00003, 0.00004
18.744, -0.00000, 0.00001, 0.00001, -0.00004, 0.00004
18.756, -0.00000, 0.00001, 0.00001, -0.00004, 0.00004
18.767, -0.00000, 0.00001, 0.00001, -0.00004, 0.00005
18.778, -0.00000, 0.00001, 0.00002, -0.00004, 0.00005
18.789, -0.00000, 0.00001, 0.00002, -0.00004, 0.00005
18.800, -0.00000, 0.00001, 0.00002, -0.00005, 0.00006
18.811, 0.00000, 0.00009, 0.00025, -0.00031, 0.00049
18.822, 0.00000, 0.00024, 0.00073, -0.00077, 0.00129
18.833, 0.00000, 0.00045, 0.00146, -0.00142, 0.00246
18.844, 0.00000, 0.00074, 0.00244, -0.00228, 0.00401
18.856, 0.00000, 0.00109, 0.00366, -0.00333, 0.00592
18.867, 0.00000, 0.00150, 0.00513, -0.00458, 0.00820
18.878, 0.00000, 0.00199, 0.00684, -0.00602, 0.01085
18.889, 0.00000, 0.00254, 0.00881, -0.00767, 0.01387
18.900, 0.00000, 0.00316, 0.01102, -0.00951, 0.01726
18.911, 0.00000, 0.00384, 0.01347, -0.01155, 0.02102
18.922, 0.00000, 0.00460, 0.01618, -0.01378, 0.02515
18.933, 0.00000, 0.00542, 0.01913, -0.01621, 0.02965
18.944, 0.00000, 0.00631, 0.02233, -0.01884, 0.03452
18.956, 0.00000, 0.00726, 0.02577, -0.02167, 0.03975
18.967, 0.00000, 0.00829, 0.02946, -0.02469, 0.04536
18.978, 0.00000, 0.00938, 0.03340, -0.02792, 0.05134
18.989, 0.00000, 0.01053, 0.03758, -0.03133, 0.05768
19.000, 0.00000, 0.01176, 0.04202, -0.03495, 0.06440
19.011, 0.00000, 0.01305, 0.04670, -0.03876, 0.07148
19.022, 0.00000, 0.01441, 0.05162, -0.04278, 0.07894
19.033, 0.00000, 0.01584, 0.05679, -0.04698, 0.08676
19.044, 0.00000, 0.01733, 0.06221, -0.05139, 0.09496
19.056, 0.00000, 0.01889, 0.06788, -0.05599, 0.10352
19.067, 0.00000, 0.02052, 0.07379, -0.06079, 0.11245
19.078, 0.00000, 0.02222, 0.07995, -0.06579, 0.12176
19.089, 0.00000, 0.02398, 0.08636, -0.07098, 0.13143
19.100, 0.00000, 0.02581, 0.09302, -0.07637, 0.14147
19.111, 0.00000, 0.02771, 0.09992, -0.08196, 0.15188
19.122, 0.00000, 0.02968, 0.10707, -0.08775, 0.16266
19.133, 0.00000, 0.03171, 0.11446, -0.09373, 0.17381
19.144, 0.00000, 0.03381, 0.12211, -0.09991, 0.18533
19.156, 0.00000, 0.03598, 0.12989, -0.10629, 0.19722
19.167, 0.00000, 0.03821, 0.13767, -0.11287, 0.20948
19.178, 0.00000, 0.04052, 0.14544, -0.11964, 0.22211
19.189, 0.00000, 0.04289, 0.15322, -0.12661, 0.23511
19.200, 0.00000, 0.04532, 0.16100, -0.13378, 0.24848
19.211, 0.00000, 0.04783, 0.16878, -0.14114, 0.26222
19.222, 0.00000, 0.05040, 0.17656, -0.14870, 0.27632
19.233, 0.00000, 0.05304, 0.18433, -0.15646, 0.29080
19.244, 0.00000, 0.05574, 0.19211, -0.16442, 0.30565
19.256, 0.00000, 0.05852, 0.19989, -0.17257, 0.32086
19.267, 0.00000, 0.06136, 0.20767, -0.18093, 0.33639
19.278, 0.00000, 0.06427, 0.21544, -0.18947, 0.35195
19.289, 0.00000, 0.06724, 0.22323, -0.19822, 0.36747
19.300, 0.00000, 0.07028, 0.23098, -0.20716, 0.38301
19.311, 0.00000, 0.07339, 0.23853, -0.21630, 0.39855
19.322, 0.00000, 0.07657, 0.24582, -0.22564, 0.41409
19.333, 0.00000, 0.07982, 0.25287, -0.23517, 0.42963
19.344, 0.00000, 0.08309, 0.25967, -0.24491, 0.44516
19.356, 0.00000, 0.08636, 0.26623, -0.25484, 0.46070
19.367, 0.00000, 0.08963, 0.27254, -0.26496, 0.47624
19.378, 0.00000, 0.09290, 0.27860, -0.27521, 0.49178
19.389, 0.00000, 0.09617, 0.28442, -0.28544, 0.50734
19.400, 0.00000, 0.09945, 0.28998, -0.29566, 0.52273
19.411, 0.00000, 0.10272, 0.29530, -0.30588, 0.53779
19.422, 0.00000, 0.10599, 0.30038, -0.31611, 0.55245
19.433, 0.00000, 0.10926, 0.30521, -0.32634, 0.56674
19.444, 0.00000, 0.11253, 0.30979, -0.33656, 0.58067
19.456, 0.00000, 0.11580, 0.31412, -0.34679, 0.59423
19.467, 0.00000, 0.11907, 0.31821, -0.35701, 0.60742
19.478, 0.00000, 0.12234, 0.32205, -0.36724, 0.62024
19.489, 0.00000, 0.12561, 0.32564, -0.37746, 0.63269
19.500, 0.00000, 0.12888, 0.32898, -0.38768, 0.64477
19.511, 0.00000, 0.13215, 0.33208, -0.39791, 0.65648
19.522, 0.00000, 0.13542, 0.33493, -0.40816, 0.66782
19.533, 0.00000, 0.13869, 0.33754, -0.41834, 0.67879
19.544, 0.00000, 0.14196, 0.33990, -0.42839, 0.68939
19.556, 0.00000, 0.14524, 0.34201, -0.43823, 0.69962
19.567, 0.00000, 0.14850, 0.34387, -0.44786, 0.70949
19.578, 0.00000, 0.15172, 0.34549, -0.45730, 0.71898
19.589, 0.00000, 0.15487, 0.34686, -0.46654, 0.72810
19.600, 0.00000, 0.15795, 0.34798, -0.47558, 0.73686
19.611, 0.00000, 0.16097, 0.34886, -0.48443, 0.74524
19.622, 0.00000, 0.16392, 0.34949, -0.49308, 0.75326
19.633, 0.00000, 0.16680, 0.34987, -0.50153, 0.76090
19.644, 0.00000, 0.16961, 0.35000, -0.50978, 0.76818
19.656, 0.00000, 0.17236, 0.35000, -0.51784, 0.77508
19.667, 0.00000, 0.17503, 0.35000, -0.52570, 0.78162
19.678, 0.00000, 0.17764, 0.35000, -0.53336, 0.78779
19.689, 0.00000, 0.18019, 0.35000, -0.54083, 0.79358
19.700, 0.00000, 0.18266, 0.35000, -0.54809, 0.79901
19.711, 0.00000, 0.18507, 0.35000, -0.55516, 0.80407
19.722, 0.00000, 0.18741, 0.35000, -0.56204, 0.80876
19.733, 0.00000, 0.18969, 0.35000, -0.56871, 0.81308
19.744, 0.00000, 0.19190, 0.35000, -0.57519, 0.81703
19.756, 0.00000, 0.19404, 0.35000, -0.58147, 0.82061
19.767, 0.00000, 0.19611, 0.35000, -0.58756, 0.82382
19.778, 0.00000, 0.19811, 0.35000, -0.59344, 0.82666
19.789, 0.00000, 0.20005, 0.35000, -0.59913, 0.82913
19.800, 0.00000, 0.20192, 0.35000, -0.60463, 0.83123
19.811, 0.00000, 0.20372, 0.35000, -0.60992, 0.83297
19.822, 0.00000, 0.20546, 0.35000, -0.61502, 0.83433
19.833, 0.00000, 0.20713, 0.35000, -0.61992, 0.83532
19.844, 0.00000, 0.20873, 0.35000, -0.62462, 0.83594
19.856, 0.00000, 0.21026, 0.35000, -0.62913, 0.83620
19.867, 0.00000, 0.21173, 0.35000, -0.63344, 0.83618
19.878, 0.00000, 0.21313, 0.35000, -0.63755, 0.83617
19.889, 0.00000, 0.21446, 0.35000, -0.64146, 0.83618
19.900, 0.00000, 0.21572, 0.35000, -0.64518, 0.83618
19.911, 0.00000, 0.21692, 0.35000, -0.64870, 0.83618
19.922, 0.00000, 0.21805, 0.35000, -0.65202, 0.83618
19.933, 0.00000, 0.21911, 0.35000, -0.65514, 0.83618
19.944, 0.00000, 0.22011, 0.35000, -0.65807, 0.83618
19.956, 0.00000, 0.22103, 0.35000, -0.66080, 0.83618
19.967, 0.00000, 0.22189, 0.35000, -0.66333, 0.83618
19.978, 0.00000, 0.22269, 0.35000, -0.66567, 0.83618
19.989, 0.00000, 0.22341, 0.35000, -0.66781, 0.83618
20.000, 0.00000, 0.22407, 0.35000, -0.66975, 0.83618
20.011, 0.00000, 0.22466, 0.35000, -0.67149, 0.83618
20.022, 0.00000, 0.22519, 0.35000, -0.67304, 0.83618
20.033, 0.00000, 0.22564, 0.35000, -0.67439, 0.83618
20.044, 0.00000, 0.22603, 0.35000, -0.67554, 0.83618
20.056, 0.00000, 0.22635, 0.35000, -0.67649, 0.83618
20.067, 0.00000, 0.22661, 0.35000, -0.67725, 0.83618
20.078, 0.00000, 0.22679, 0.35000, -0.67781, 0.83618
20.089, 0.00000, 0.22691, 0.35000, -0.67817, 0.83618
20.100, 0.00000, 0.22696, 0.35000, -0.67833, 0.83618
20.111, 0.00000, 0.22697, 0.35000, -0.67835, 0.83618
20.122, 0.00000, 0.22696, 0.35000, -0.67832, 0.83618
20.133, 0.00000, 0.22696, 0.35000, -0.67833, 0.83618
20.144, 0.00000, 0.22696, 0.35000, -0.67833, 0.83618
20.156, 0.00000, 0.22696, 0.35000, -0.67833, 0.83618
20.167, 0.00000, 0.22696, 0.35000, -0.67833, 0.83618
20.178, 0.00000, 0.22696, 0.35000, -0.67833, 0.83618
20.189, 0.00000, 0.22696, 0.35000, -0.67833, 0.83618
20.200, 0.00000, 0.22696, 0.35000, -0.67833, 0.83618
20.211, 0.00000, 0.22696, 0.35000, -0.67833, 0.83618
20.222, 0.00000, 0.22696, 0.35000, -0.67833, 0.83618
20.233, 0.00000, 0.22696, 0.35000, -0.67833, 0.83618
20.244, 0.00000, 0.22696, 0.35000, -0.67833, 0.83618
20.256, 0.00000, 0.22696, 0.35000, -0.67833, 0.83618
20.267, 0.00000, 0.22696, 0.35000, -0.67833, 0.83618
20.278, 0.00000, 0.22696, 0.35000, -0.67833, 0.83618
20.289, 0.00000, 0.22696, 0.35000, -0.67833, 0.83618
20.300, 0.00000, 0.22696, 0.35000, -0.67833, 0.83618
20.311, 0.00000, 0.22696, 0.35000, -0.67833, 0.83618
20.322, 0.00000, 0.22696, 0.35000, -0.67833, 0.83618
20.333, 0.00000, 0.22696, 0.35000, -0.67833, 0.83618
20.344, 0.00000, 0.22696, 0.35000, -0.67833, 0.83618
20.356, 0.00000, 0.22696, 0.35000, -0.67833, 0.83618
20.367, 0.00000, 0.22696, 0.35000, -0.67833, 0.83618
20.378, 0.00000, 0.22696, 0.35000, -0.67833, 0.83618
20.389, 0.00000, 0.22696, 0.35000, -0.67832, 0.83618
20.400, 0.00000, 0.22696, 0.35000, -0.67833, 0.83618
20.411, 0.00000, 0.22696, 0.35000, -0.67834, 0.83618
20.422, 0.00000, 0.22697, 0.35000, -0.67829, 0.83618
20.433, 0.00000, 0.22695, 0.35000, -0.67808, 0.83618
20.444, 0.00000, 0.22687, 0.35000, -0.67765, 0.83618
20.456, 0.00000, 0.22672, 0.35000, -0.67702, 0.83618
20.467, 0.00000, 0.22650, 0.35000, -0.67620, 0.83618
20.478, 0.00000, 0.22622, 0.35000, -0.67518, 0.83618
20.489, 0.00000, 0.22587, 0.35000, -0.67396, 0.83618
20.500, 0.00000, 0.22545, 0.35000, -0.67255, 0.83618
20.511, 0.00000, 0.22496, 0.35000, -0.67094, 0.83618
20.522, 0.00000, 0.22441, 0.35000, -0.66913, 0.83618
20.533, 0.00000, 0.22378, 0.35000, -0.66712, 0.83618
20.544, 0.00000, 0.22310, 0.35000, -0.66492, 0.83618
20.556, 0.00000, 0.22234, 0.35000, -0.66252, 0.83618
20.567, 0.00000, 0.22152, 0.35000, -0.65992, 0.83618
20.578, 0.00000, 0.22063, 0.35000, -0.65712, 0.83618
20.589, 0.00000, 0.21967, 0.35000, -0.65413, 0.83618
20.600, 0.00000, 0.21864, 0.35000, -0.65094, 0.83618
20.611, 0.00000, 0.21755, 0.35000, -0.64755, 0.83618
20.622, 0.00000, 0.21639, 0.35000, -0.64397, 0.83618
20.633, 0.00000, 0.21517, 0.35000, -0.64018, 0.83618
20.644, 0.00000, 0.21387, 0.35000, -0.63621, 0.83618
20.656, 0.00000, 0.21251, 0.35000, -0.63203, 0.83617
20.667, 0.00000, 0.21108, 0.35000, -0.62765, 0.83619
20.678, 0.00000, 0.20958, 0.35000, -0.62308, 0.83614
20.689, 0.00000, 0.20802, 0.35000, -0.61832, 0.83573
20.700, 0.00000, 0.20639, 0.35000, -0.61335, 0.83495
20.711, 0.00000, 0.20469, 0.35000, -0.60819, 0.83380
20.722, 0.00000, 0.20293, 0.35000, -0.60283, 0.83229
20.733, 0.00000, 0.20109, 0.35000, -0.59727, 0.83040
20.744, 0.00000, 0.19919, 0.35000, -0.59151, 0.82815
20.756, 0.00000, 0.19723, 0.35000, -0.58556, 0.82552
20.767, 0.00000, 0.19519, 0.35000, -0.57941, 0.82253
20.778, 0.00000, 0.19309, 0.35000, -0.57307, 0.81916
20.789, 0.00000, 0.19092, 0.35000, -0.56652, 0.81543
20.800, 0.00000, 0.18868, 0.35000, -0.55978, 0.81132
20.811, 0.00000, 0.18638, 0.35000, -0.55284, 0.80685
20.822, 0.00000, 0.18401, 0.35000, -0.54571, 0.80201
