kutzer/Scor6AxisToolbox/Scor6AxisToolbox Test Functions/ScorBotBoxData_sCurve/BSEPR_Velocity_80Hz.csv
Time_(s), Base_Joint_Velocity_(rad/s), Shoulder_Joint_Velocity_(rad/s), Elbow_Joint_Velocity_(rad/s), Wrist_Pitch_Joint_Velocity_(rad/s), Wrist_Roll_Joint_Velocity_(rad/s)
0.000, -0.00001, -0.00002, 0.00002, 0.00003, -0.00005
0.013, -0.00005, -0.00030, 0.00027, 0.00013, -0.00054
0.025, -0.00012, -0.00089, 0.00082, 0.00028, -0.00147
0.038, -0.00021, -0.00180, 0.00164, 0.00050, -0.00284
0.050, -0.00034, -0.00302, 0.00275, 0.00077, -0.00466
0.063, -0.00049, -0.00455, 0.00414, 0.00110, -0.00691
0.075, -0.00067, -0.00639, 0.00581, 0.00149, -0.00960
0.088, -0.00088, -0.00855, 0.00777, 0.00194, -0.01273
0.100, -0.00112, -0.01102, 0.01001, 0.00245, -0.01631
0.113, -0.00139, -0.01380, 0.01253, 0.00301, -0.02032
0.125, -0.00169, -0.01689, 0.01533, 0.00364, -0.02478
0.138, -0.00201, -0.02030, 0.01842, 0.00432, -0.02967
0.150, -0.00236, -0.02402, 0.02179, 0.00506, -0.03501
0.163, -0.00274, -0.02805, 0.02544, 0.00585, -0.04079
0.175, -0.00315, -0.03239, 0.02938, 0.00671, -0.04701
0.188, -0.00359, -0.03705, 0.03360, 0.00762, -0.05367
0.200, -0.00406, -0.04202, 0.03810, 0.00860, -0.06077
0.213, -0.00456, -0.04730, 0.04289, 0.00963, -0.06831
0.225, -0.00508, -0.05289, 0.04796, 0.01072, -0.07629
0.238, -0.00563, -0.05880, 0.05331, 0.01186, -0.08471
0.250, -0.00621, -0.06502, 0.05894, 0.01307, -0.09357
0.263, -0.00682, -0.07155, 0.06486, 0.01433, -0.10287
0.275, -0.00746, -0.07839, 0.07106, 0.01565, -0.11262
0.288, -0.00813, -0.08555, 0.07754, 0.01703, -0.12280
0.300, -0.00882, -0.09302, 0.08431, 0.01847, -0.13343
0.313, -0.00955, -0.10080, 0.09136, 0.01997, -0.14449
0.325, -0.01030, -0.10889, 0.09869, 0.02152, -0.15600
0.338, -0.01108, -0.11731, 0.10630, 0.02313, -0.16795
0.350, -0.01189, -0.12599, 0.11421, 0.02480, -0.18034
0.363, -0.01272, -0.13476, 0.12235, 0.02653, -0.19316
0.375, -0.01359, -0.14350, 0.13055, 0.02832, -0.20643
0.388, -0.01449, -0.15225, 0.13874, 0.03017, -0.22014
0.400, -0.01541, -0.16100, 0.14693, 0.03207, -0.23429
0.413, -0.01636, -0.16975, 0.15512, 0.03403, -0.24889
0.425, -0.01734, -0.17850, 0.16330, 0.03605, -0.26392
0.438, -0.01835, -0.18725, 0.17149, 0.03813, -0.27939
0.450, -0.01936, -0.19600, 0.17968, 0.04027, -0.29530
0.463, -0.02038, -0.20475, 0.18787, 0.04246, -0.31167
0.475, -0.02139, -0.21349, 0.19606, 0.04472, -0.32841
0.488, -0.02240, -0.22226, 0.20425, 0.04703, -0.34524
0.500, -0.02341, -0.23097, 0.21244, 0.04940, -0.36203
0.513, -0.02443, -0.23946, 0.22063, 0.05182, -0.37883
0.525, -0.02544, -0.24761, 0.22867, 0.05431, -0.39563
0.537, -0.02645, -0.25545, 0.23641, 0.05685, -0.41243
0.550, -0.02747, -0.26298, 0.24387, 0.05946, -0.42923
0.563, -0.02848, -0.27020, 0.25105, 0.06212, -0.44603
0.575, -0.02949, -0.27711, 0.25795, 0.06484, -0.46283
0.588, -0.03051, -0.28370, 0.26456, 0.06761, -0.47963
0.600, -0.03152, -0.28998, 0.27090, 0.07045, -0.49645
0.613, -0.03253, -0.29595, 0.27694, 0.07334, -0.51310
0.625, -0.03354, -0.30161, 0.28271, 0.07630, -0.52934
0.638, -0.03456, -0.30695, 0.28819, 0.07931, -0.54511
0.650, -0.03557, -0.31198, 0.29339, 0.08237, -0.56045
0.663, -0.03658, -0.31670, 0.29831, 0.08550, -0.57535
0.675, -0.03760, -0.32111, 0.30294, 0.08868, -0.58981
0.688, -0.03861, -0.32520, 0.30729, 0.09193, -0.60382
0.700, -0.03962, -0.32898, 0.31136, 0.09523, -0.61740
0.713, -0.04063, -0.33245, 0.31514, 0.09859, -0.63053
0.725, -0.04165, -0.33561, 0.31865, 0.10201, -0.64323
0.738, -0.04266, -0.33845, 0.32187, 0.10548, -0.65548
0.750, -0.04367, -0.34098, 0.32480, 0.10902, -0.66730
0.763, -0.04469, -0.34320, 0.32745, 0.11261, -0.67867
0.775, -0.04570, -0.34511, 0.32983, 0.11626, -0.68960
0.788, -0.04671, -0.34670, 0.33191, 0.11997, -0.70009
0.800, -0.04773, -0.34798, 0.33372, 0.12373, -0.71014
0.813, -0.04874, -0.34895, 0.33524, 0.12756, -0.71975
0.825, -0.04975, -0.34961, 0.33648, 0.13144, -0.72892
0.838, -0.05076, -0.34994, 0.33743, 0.13539, -0.73765
0.850, -0.05178, -0.35001, 0.33810, 0.13938, -0.74594
0.863, -0.05279, -0.35000, 0.33849, 0.14344, -0.75379
0.875, -0.05380, -0.35000, 0.33860, 0.14756, -0.76119
0.888, -0.05482, -0.35000, 0.33860, 0.15173, -0.76816
0.900, -0.05583, -0.35000, 0.33859, 0.15597, -0.77468
0.913, -0.05684, -0.35000, 0.33860, 0.16026, -0.78077
0.925, -0.05786, -0.35000, 0.33859, 0.16460, -0.78641
0.938, -0.05887, -0.35000, 0.33859, 0.16897, -0.79162
0.950, -0.05988, -0.35000, 0.33859, 0.17334, -0.79638
0.963, -0.06089, -0.35000, 0.33859, 0.17769, -0.80070
0.975, -0.06191, -0.35000, 0.33859, 0.18205, -0.80458
0.988, -0.06292, -0.35000, 0.33859, 0.18641, -0.80802
1.000, -0.06393, -0.35000, 0.33859, 0.19077, -0.81102
1.012, -0.06495, -0.35000, 0.33859, 0.19512, -0.81358
1.025, -0.06596, -0.35000, 0.33859, 0.19948, -0.81570
1.038, -0.06697, -0.35000, 0.33859, 0.20384, -0.81737
1.050, -0.06798, -0.35000, 0.33859, 0.20820, -0.81861
1.063, -0.06900, -0.35000, 0.33859, 0.21255, -0.81941
1.075, -0.07001, -0.35000, 0.33859, 0.21691, -0.81976
1.088, -0.07102, -0.35000, 0.33859, 0.22127, -0.81976
1.100, -0.07204, -0.35000, 0.33859, 0.22563, -0.81975
1.113, -0.07305, -0.35000, 0.33859, 0.22999, -0.81976
1.125, -0.07406, -0.35000, 0.33859, 0.23434, -0.81975
1.137, -0.07508, -0.35000, 0.33859, 0.23870, -0.81976
1.150, -0.07609, -0.35000, 0.33859, 0.24306, -0.81976
1.163, -0.07710, -0.35000, 0.33859, 0.24743, -0.81976
1.175, -0.07811, -0.35000, 0.33859, 0.25179, -0.81976
1.188, -0.07913, -0.35000, 0.33859, 0.25613, -0.81976
1.200, -0.08014, -0.35000, 0.33859, 0.26044, -0.81976
1.213, -0.08115, -0.35000, 0.33859, 0.26470, -0.81976
1.225, -0.08217, -0.35000, 0.33859, 0.26889, -0.81976
1.238, -0.08318, -0.35000, 0.33859, 0.27302, -0.81976
1.250, -0.08419, -0.35000, 0.33859, 0.27709, -0.81976
1.263, -0.08520, -0.35000, 0.33859, 0.28111, -0.81976
1.275, -0.08622, -0.35000, 0.33859, 0.28506, -0.81976
1.288, -0.08723, -0.35000, 0.33859, 0.28896, -0.81976
1.300, -0.08824, -0.35000, 0.33859, 0.29280, -0.81976
1.313, -0.08926, -0.35000, 0.33859, 0.29658, -0.81976
1.325, -0.09027, -0.35000, 0.33859, 0.30031, -0.81976
1.338, -0.09128, -0.35000, 0.33859, 0.30397, -0.81976
1.350, -0.09230, -0.35000, 0.33859, 0.30758, -0.81976
1.363, -0.09331, -0.35000, 0.33859, 0.31113, -0.81976
1.375, -0.09432, -0.35000, 0.33859, 0.31462, -0.81976
1.388, -0.09533, -0.35000, 0.33859, 0.31805, -0.81976
1.400, -0.09635, -0.35000, 0.33859, 0.32143, -0.81976
1.413, -0.09736, -0.35000, 0.33859, 0.32474, -0.81976
1.425, -0.09837, -0.35000, 0.33859, 0.32800, -0.81976
1.438, -0.09939, -0.35000, 0.33859, 0.33120, -0.81976
1.450, -0.10040, -0.35000, 0.33859, 0.33434, -0.81976
1.463, -0.10141, -0.35000, 0.33859, 0.33743, -0.81976
1.475, -0.10243, -0.35000, 0.33859, 0.34045, -0.81976
1.488, -0.10344, -0.35000, 0.33859, 0.34342, -0.81976
1.500, -0.10445, -0.35000, 0.33859, 0.34633, -0.81976
1.513, -0.10546, -0.35000, 0.33859, 0.34918, -0.81976
1.525, -0.10648, -0.35000, 0.33859, 0.35197, -0.81976
1.538, -0.10749, -0.35000, 0.33859, 0.35470, -0.81976
1.550, -0.10850, -0.35000, 0.33859, 0.35738, -0.81976
1.563, -0.10952, -0.35000, 0.33859, 0.36000, -0.81976
1.575, -0.11053, -0.35000, 0.33859, 0.36256, -0.81976
1.588, -0.11154, -0.35000, 0.33859, 0.36506, -0.81976
1.600, -0.11256, -0.35000, 0.33859, 0.36750, -0.81976
1.613, -0.11357, -0.35000, 0.33859, 0.36988, -0.81976
1.625, -0.11458, -0.35000, 0.33859, 0.37221, -0.81976
1.638, -0.11559, -0.35000, 0.33859, 0.37448, -0.81976
1.650, -0.11661, -0.35000, 0.33859, 0.37669, -0.81976
1.663, -0.11762, -0.35000, 0.33859, 0.37884, -0.81976
1.675, -0.11860, -0.35000, 0.33859, 0.38093, -0.81976
1.688, -0.11956, -0.35000, 0.33859, 0.38297, -0.81976
1.700, -0.12048, -0.35000, 0.33859, 0.38495, -0.81976
1.713, -0.12138, -0.35000, 0.33859, 0.38686, -0.81976
1.725, -0.12224, -0.35000, 0.33859, 0.38873, -0.81976
1.738, -0.12308, -0.35000, 0.33859, 0.39053, -0.81976
1.750, -0.12389, -0.35000, 0.33859, 0.39227, -0.81976
1.763, -0.12468, -0.35000, 0.33859, 0.39396, -0.81976
1.775, -0.12543, -0.35000, 0.33859, 0.39559, -0.81976
1.788, -0.12616, -0.35000, 0.33859, 0.39715, -0.81976
1.800, -0.12685, -0.35000, 0.33859, 0.39867, -0.81976
1.813, -0.12752, -0.35000, 0.33859, 0.40012, -0.81976
1.825, -0.12816, -0.35000, 0.33859, 0.40151, -0.81976
1.838, -0.12877, -0.35000, 0.33859, 0.40285, -0.81976
1.850, -0.12936, -0.35000, 0.33859, 0.40413, -0.81976
1.863, -0.12991, -0.35000, 0.33859, 0.40535, -0.81976
1.875, -0.13044, -0.35000, 0.33859, 0.40651, -0.81976
1.888, -0.13094, -0.35000, 0.33859, 0.40761, -0.81976
1.900, -0.13140, -0.35000, 0.33859, 0.40866, -0.81976
1.913, -0.13184, -0.35000, 0.33859, 0.40965, -0.81976
1.925, -0.13226, -0.35000, 0.33859, 0.41058, -0.81976
1.938, -0.13264, -0.35000, 0.33859, 0.41145, -0.81976
1.950, -0.13300, -0.35000, 0.33859, 0.41226, -0.81976
1.963, -0.13332, -0.35000, 0.33859, 0.41301, -0.81976
1.975, -0.13362, -0.35000, 0.33859, 0.41371, -0.81976
1.988, -0.13389, -0.35000, 0.33859, 0.41435, -0.81976
2.000, -0.13413, -0.35000, 0.33859, 0.41493, -0.81976
2.013, -0.13434, -0.35000, 0.33859, 0.41545, -0.81976
2.025, -0.13453, -0.35000, 0.33859, 0.41591, -0.81976
2.038, -0.13468, -0.35000, 0.33859, 0.41632, -0.81976
2.050, -0.13481, -0.35000, 0.33859, 0.41666, -0.81976
2.063, -0.13491, -0.35000, 0.33859, 0.41695, -0.81976
2.075, -0.13498, -0.35000, 0.33859, 0.41718, -0.81976
2.087, -0.13502, -0.35000, 0.33859, 0.41735, -0.81976
2.100, -0.13503, -0.35000, 0.33859, 0.41746, -0.81976
2.113, -0.13503, -0.35000, 0.33859, 0.41752, -0.81976
2.125, -0.13503, -0.35000, 0.33859, 0.41753, -0.81976
2.138, -0.13503, -0.35000, 0.33859, 0.41752, -0.81976
2.150, -0.13503, -0.35000, 0.33859, 0.41751, -0.81976
2.163, -0.13503, -0.35000, 0.33859, 0.41751, -0.81976
2.175, -0.13503, -0.35000, 0.33859, 0.41752, -0.81976
2.188, -0.13503, -0.35000, 0.33859, 0.41752, -0.81976
2.200, -0.13503, -0.35000, 0.33859, 0.41752, -0.81976
2.212, -0.13503, -0.35000, 0.33859, 0.41751, -0.81976
2.225, -0.13503, -0.35000, 0.33859, 0.41752, -0.81976
2.238, -0.13503, -0.35000, 0.33859, 0.41752, -0.81976
2.250, -0.13503, -0.35000, 0.33859, 0.41752, -0.81976
2.263, -0.13503, -0.35000, 0.33859, 0.41752, -0.81976
2.275, -0.13503, -0.35000, 0.33859, 0.41752, -0.81976
2.288, -0.13503, -0.35000, 0.33859, 0.41752, -0.81976
2.300, -0.13503, -0.35000, 0.33859, 0.41752, -0.81976
2.313, -0.13503, -0.35000, 0.33859, 0.41752, -0.81976
2.325, -0.13503, -0.35000, 0.33859, 0.41752, -0.81976
2.337, -0.13503, -0.35000, 0.33859, 0.41752, -0.81976
2.350, -0.13503, -0.35000, 0.33859, 0.41752, -0.81976
2.363, -0.13503, -0.35000, 0.33859, 0.41752, -0.81976
2.375, -0.13503, -0.35000, 0.33859, 0.41752, -0.81976
2.388, -0.13503, -0.35000, 0.33859, 0.41752, -0.81976
2.400, -0.13503, -0.35000, 0.33859, 0.41752, -0.81976
2.413, -0.13503, -0.35000, 0.33859, 0.41752, -0.81976
2.425, -0.13503, -0.35000, 0.33859, 0.41752, -0.81976
2.438, -0.13503, -0.35000, 0.33859, 0.41752, -0.81976
2.450, -0.13503, -0.35000, 0.33859, 0.41752, -0.81976
2.463, -0.13503, -0.35000, 0.33859, 0.41752, -0.81976
2.475, -0.13503, -0.35000, 0.33859, 0.41752, -0.81976
2.488, -0.13503, -0.35000, 0.33859, 0.41752, -0.81976
2.500, -0.13503, -0.35000, 0.33859, 0.41752, -0.81976
2.513, -0.13503, -0.35000, 0.33859, 0.41752, -0.81976
2.525, -0.13503, -0.35000, 0.33859, 0.41752, -0.81976
2.538, -0.13503, -0.35000, 0.33859, 0.41752, -0.81976
2.550, -0.13503, -0.35000, 0.33859, 0.41752, -0.81976
2.563, -0.13503, -0.35000, 0.33859, 0.41752, -0.81976
2.575, -0.13503, -0.35000, 0.33859, 0.41752, -0.81976
2.588, -0.13503, -0.35000, 0.33859, 0.41752, -0.81976
2.600, -0.13503, -0.35000, 0.33859, 0.41752, -0.81976
2.613, -0.13503, -0.35000, 0.33859, 0.41752, -0.81976
2.625, -0.13503, -0.35000, 0.33859, 0.41752, -0.81976
2.638, -0.13503, -0.35000, 0.33859, 0.41752, -0.81976
2.650, -0.13503, -0.35000, 0.33859, 0.41752, -0.81976
2.663, -0.13503, -0.35000, 0.33859, 0.41752, -0.81976
2.675, -0.13503, -0.35000, 0.33859, 0.41752, -0.81976
2.688, -0.13503, -0.35000, 0.33859, 0.41752, -0.81976
2.700, -0.13503, -0.35000, 0.33859, 0.41752, -0.81976
2.713, -0.13503, -0.35000, 0.33859, 0.41752, -0.81976
2.725, -0.13503, -0.35000, 0.33859, 0.41751, -0.81976
2.738, -0.13503, -0.35000, 0.33859, 0.41751, -0.81976
2.750, -0.13503, -0.35000, 0.33859, 0.41752, -0.81976
2.763, -0.13503, -0.35000, 0.33859, 0.41752, -0.81976
2.775, -0.13503, -0.35000, 0.33859, 0.41752, -0.81976
2.788, -0.13503, -0.35000, 0.33859, 0.41750, -0.81976
2.800, -0.13503, -0.35000, 0.33859, 0.41743, -0.81976
2.813, -0.13503, -0.35000, 0.33859, 0.41729, -0.81976
2.825, -0.13500, -0.35000, 0.33859, 0.41709, -0.81976
2.838, -0.13495, -0.35000, 0.33859, 0.41684, -0.81976
2.850, -0.13486, -0.35000, 0.33859, 0.41653, -0.81976
2.863, -0.13475, -0.35000, 0.33859, 0.41616, -0.81976
2.875, -0.13461, -0.35000, 0.33859, 0.41573, -0.81976
2.888, -0.13444, -0.35000, 0.33859, 0.41524, -0.81976
2.900, -0.13424, -0.35000, 0.33859, 0.41469, -0.81976
2.913, -0.13402, -0.35000, 0.33859, 0.41409, -0.81976
2.925, -0.13376, -0.35000, 0.33859, 0.41343, -0.81976
2.938, -0.13348, -0.35000, 0.33859, 0.41271, -0.81976
2.950, -0.13317, -0.35000, 0.33859, 0.41193, -0.81976
2.963, -0.13283, -0.35000, 0.33859, 0.41109, -0.81976
2.975, -0.13246, -0.35000, 0.33859, 0.41020, -0.81976
2.988, -0.13206, -0.35000, 0.33859, 0.40924, -0.81976
3.000, -0.13163, -0.35000, 0.33859, 0.40823, -0.81976
3.013, -0.13118, -0.35000, 0.33859, 0.40716, -0.81976
3.025, -0.13069, -0.35000, 0.33859, 0.40603, -0.81976
3.038, -0.13018, -0.35000, 0.33859, 0.40485, -0.81976
3.050, -0.12964, -0.35000, 0.33859, 0.40360, -0.81976
3.063, -0.12907, -0.35000, 0.33859, 0.40230, -0.81976
3.075, -0.12848, -0.35000, 0.33859, 0.40094, -0.81976
3.088, -0.12785, -0.35000, 0.33859, 0.39952, -0.81976
3.100, -0.12720, -0.35000, 0.33859, 0.39804, -0.81976
3.113, -0.12652, -0.35000, 0.33859, 0.39651, -0.81976
3.125, -0.12580, -0.35000, 0.33859, 0.39492, -0.81976
3.138, -0.12506, -0.35000, 0.33859, 0.39326, -0.81976
3.150, -0.12430, -0.35000, 0.33859, 0.39155, -0.81976
3.163, -0.12350, -0.35000, 0.33859, 0.38979, -0.81976
3.175, -0.12268, -0.35000, 0.33859, 0.38796, -0.81976
3.188, -0.12182, -0.35000, 0.33859, 0.38607, -0.81976
3.200, -0.12094, -0.35000, 0.33859, 0.38413, -0.81976
3.213, -0.12003, -0.35000, 0.33859, 0.38213, -0.81976
3.225, -0.11909, -0.35000, 0.33859, 0.38007, -0.81976
3.238, -0.11812, -0.35000, 0.33859, 0.37795, -0.81976
3.250, -0.11712, -0.35000, 0.33859, 0.37578, -0.81976
3.263, -0.11611, -0.35000, 0.33859, 0.37354, -0.81976
3.275, -0.11510, -0.35000, 0.33859, 0.37125, -0.81976
3.288, -0.11408, -0.35000, 0.33859, 0.36890, -0.81976
3.300, -0.11307, -0.35000, 0.33859, 0.36649, -0.81976
3.313, -0.11206, -0.35000, 0.33859, 0.36402, -0.81976
3.325, -0.11105, -0.35000, 0.33859, 0.36150, -0.81976
3.338, -0.11003, -0.35000, 0.33859, 0.35892, -0.81976
3.350, -0.10902, -0.35000, 0.33859, 0.35627, -0.81976
3.363, -0.10801, -0.35000, 0.33859, 0.35357, -0.81976
3.375, -0.10699, -0.35000, 0.33859, 0.35082, -0.81976
3.388, -0.10598, -0.35000, 0.33859, 0.34800, -0.81976
3.400, -0.10497, -0.35000, 0.33859, 0.34512, -0.81976
3.413, -0.10395, -0.35000, 0.33859, 0.34219, -0.81976
3.425, -0.10294, -0.35000, 0.33859, 0.33920, -0.81976
3.438, -0.10193, -0.35000, 0.33859, 0.33615, -0.81976
3.450, -0.10092, -0.35000, 0.33859, 0.33304, -0.81976
3.463, -0.09990, -0.35000, 0.33859, 0.32988, -0.81976
3.475, -0.09889, -0.35000, 0.33859, 0.32665, -0.81976
3.488, -0.09788, -0.35000, 0.33859, 0.32337, -0.81976
3.500, -0.09686, -0.35000, 0.33859, 0.32003, -0.81976
3.513, -0.09585, -0.35000, 0.33859, 0.31663, -0.81976
3.525, -0.09484, -0.35000, 0.33859, 0.31318, -0.81976
3.538, -0.09382, -0.35000, 0.33859, 0.30966, -0.81976
3.550, -0.09281, -0.35000, 0.33859, 0.30609, -0.81976
3.563, -0.09180, -0.35000, 0.33859, 0.30246, -0.81976
3.575, -0.09079, -0.35000, 0.33859, 0.29877, -0.81976
3.588, -0.08977, -0.35000, 0.33859, 0.29502, -0.81976
3.600, -0.08876, -0.35000, 0.33859, 0.29121, -0.81976
3.613, -0.08775, -0.35000, 0.33859, 0.28735, -0.81976
3.625, -0.08673, -0.35000, 0.33859, 0.28343, -0.81976
3.638, -0.08572, -0.35000, 0.33859, 0.27944, -0.81976
3.650, -0.08471, -0.35000, 0.33859, 0.27541, -0.81976
3.663, -0.08370, -0.35000, 0.33859, 0.27131, -0.81976
3.675, -0.08268, -0.35000, 0.33859, 0.26715, -0.81976
3.688, -0.08167, -0.35000, 0.33859, 0.26294, -0.81976
3.700, -0.08066, -0.35000, 0.33859, 0.25867, -0.81976
3.713, -0.07964, -0.35000, 0.33859, 0.25433, -0.81976
3.725, -0.07863, -0.35000, 0.33859, 0.24996, -0.81976
3.738, -0.07762, -0.35000, 0.33859, 0.24560, -0.81976
3.750, -0.07660, -0.35000, 0.33859, 0.24125, -0.81976
3.763, -0.07559, -0.35000, 0.33859, 0.23689, -0.81976
3.775, -0.07458, -0.35000, 0.33859, 0.23253, -0.81976
3.788, -0.07357, -0.35000, 0.33859, 0.22817, -0.81976
3.800, -0.07255, -0.35000, 0.33859, 0.22382, -0.81975
3.813, -0.07154, -0.35000, 0.33859, 0.21946, -0.81976
3.825, -0.07053, -0.35000, 0.33859, 0.21510, -0.81975
3.838, -0.06951, -0.35000, 0.33859, 0.21074, -0.81956
3.850, -0.06850, -0.35000, 0.33859, 0.20639, -0.81888
3.863, -0.06749, -0.35000, 0.33859, 0.20203, -0.81777
3.875, -0.06648, -0.35000, 0.33859, 0.19767, -0.81622
3.888, -0.06546, -0.35000, 0.33859, 0.19331, -0.81423
3.900, -0.06445, -0.35000, 0.33859, 0.18895, -0.81179
3.913, -0.06344, -0.35000, 0.33859, 0.18460, -0.80892
3.925, -0.06242, -0.35000, 0.33859, 0.18024, -0.80560
3.938, -0.06141, -0.35000, 0.33859, 0.17588, -0.80185
3.950, -0.06040, -0.35000, 0.33859, 0.17152, -0.79765
3.963, -0.05938, -0.35000, 0.33859, 0.16716, -0.79301
3.975, -0.05837, -0.35000, 0.33859, 0.16281, -0.78794
3.988, -0.05736, -0.35000, 0.33859, 0.15847, -0.78242
4.000, -0.05635, -0.35000, 0.33860, 0.15420, -0.77646
4.013, -0.05533, -0.35000, 0.33859, 0.14999, -0.77006
4.025, -0.05432, -0.35000, 0.33860, 0.14584, -0.76322
4.038, -0.05331, -0.35000, 0.33858, 0.14175, -0.75594
4.050, -0.05229, -0.35000, 0.33838, 0.13771, -0.74822
4.063, -0.05128, -0.35001, 0.33788, 0.13374, -0.74005
4.075, -0.05027, -0.34988, 0.33710, 0.12982, -0.73145
4.088, -0.04925, -0.34946, 0.33603, 0.12596, -0.72241
4.100, -0.04824, -0.34871, 0.33469, 0.12216, -0.71292
4.112, -0.04723, -0.34765, 0.33306, 0.11842, -0.70299
4.125, -0.04622, -0.34628, 0.33114, 0.11473, -0.69263
4.138, -0.04520, -0.34460, 0.32895, 0.11111, -0.68182
4.150, -0.04419, -0.34260, 0.32647, 0.10754, -0.67057
4.163, -0.04318, -0.34029, 0.32371, 0.10403, -0.65889
4.175, -0.04216, -0.33767, 0.32066, 0.10058, -0.64676
4.188, -0.04115, -0.33474, 0.31733, 0.09718, -0.63419
4.200, -0.04014, -0.33150, 0.31372, 0.09385, -0.62118
4.213, -0.03913, -0.32794, 0.30983, 0.09057, -0.60773
4.225, -0.03811, -0.32407, 0.30565, 0.08735, -0.59383
4.237, -0.03710, -0.31989, 0.30119, 0.08419, -0.57950
4.250, -0.03609, -0.31539, 0.29645, 0.08109, -0.56473
4.263, -0.03507, -0.31058, 0.29143, 0.07805, -0.54952
4.275, -0.03406, -0.30546, 0.28612, 0.07506, -0.53386
4.288, -0.03305, -0.30003, 0.28053, 0.07213, -0.51777
4.300, -0.03203, -0.29429, 0.27465, 0.06926, -0.50121
4.313, -0.03102, -0.28823, 0.26850, 0.06645, -0.48440
4.325, -0.03001, -0.28186, 0.26206, 0.06370, -0.46760
4.338, -0.02900, -0.27517, 0.25533, 0.06100, -0.45080
4.350, -0.02798, -0.26818, 0.24833, 0.05837, -0.43400
4.362, -0.02697, -0.26087, 0.24104, 0.05579, -0.41720
4.375, -0.02596, -0.25325, 0.23347, 0.05327, -0.40040
4.388, -0.02494, -0.24532, 0.22561, 0.05081, -0.38360
4.400, -0.02393, -0.23708, 0.21749, 0.04840, -0.36680
4.413, -0.02292, -0.22850, 0.20929, 0.04606, -0.35000
4.425, -0.02190, -0.21976, 0.20110, 0.04377, -0.33320
4.438, -0.02089, -0.21101, 0.19291, 0.04154, -0.31641
4.450, -0.01988, -0.20226, 0.18472, 0.03937, -0.29990
4.463, -0.01886, -0.19351, 0.17654, 0.03726, -0.28387
4.475, -0.01785, -0.18476, 0.16835, 0.03521, -0.26827
4.487, -0.01686, -0.17601, 0.16016, 0.03321, -0.25311
4.500, -0.01589, -0.16726, 0.15197, 0.03127, -0.23840
4.513, -0.01495, -0.15851, 0.14378, 0.02939, -0.22412
4.525, -0.01404, -0.14976, 0.13559, 0.02757, -0.21029
4.538, -0.01316, -0.14101, 0.12740, 0.02581, -0.19689
4.550, -0.01231, -0.13226, 0.11920, 0.02410, -0.18394
4.563, -0.01149, -0.12349, 0.11114, 0.02246, -0.17142
4.575, -0.01069, -0.11488, 0.10334, 0.02087, -0.15935
4.588, -0.00993, -0.10655, 0.09584, 0.01934, -0.14772
4.600, -0.00919, -0.09855, 0.08862, 0.01787, -0.13653
4.612, -0.00848, -0.09086, 0.08168, 0.01645, -0.12578
4.625, -0.00780, -0.08348, 0.07502, 0.01510, -0.11547
4.638, -0.00714, -0.07641, 0.06864, 0.01380, -0.10560
4.650, -0.00652, -0.06966, 0.06255, 0.01256, -0.09617
4.663, -0.00592, -0.06322, 0.05674, 0.01138, -0.08718
4.675, -0.00536, -0.05709, 0.05122, 0.01026, -0.07864
4.688, -0.00482, -0.05127, 0.04598, 0.00919, -0.07053
4.700, -0.00431, -0.04576, 0.04102, 0.00818, -0.06286
4.713, -0.00383, -0.04057, 0.03634, 0.00724, -0.05564
4.725, -0.00337, -0.03569, 0.03195, 0.00635, -0.04885
4.737, -0.00295, -0.03112, 0.02784, 0.00552, -0.04251
4.750, -0.00255, -0.02687, 0.02401, 0.00474, -0.03661
4.763, -0.00219, -0.02293, 0.02046, 0.00403, -0.03115
4.775, -0.00185, -0.01930, 0.01720, 0.00337, -0.02612
4.788, -0.00154, -0.01598, 0.01422, 0.00277, -0.02154
4.800, -0.00125, -0.01297, 0.01153, 0.00223, -0.01740
4.813, -0.00100, -0.01028, 0.00911, 0.00175, -0.01370
4.825, -0.00078, -0.00790, 0.00698, 0.00133, -0.01045
4.838, -0.00058, -0.00584, 0.00513, 0.00096, -0.00763
4.850, -0.00041, -0.00408, 0.00357, 0.00065, -0.00525
4.863, -0.00027, -0.00264, 0.00229, 0.00040, -0.00331
4.875, -0.00016, -0.00151, 0.00129, 0.00021, -0.00182
4.888, -0.00008, -0.00069, 0.00057, 0.00008, -0.00076
4.900, -0.00002, -0.00019, 0.00014, 0.00000, -0.00015
4.913, -0.00000, -0.00001, -0.00000, -0.00001, 0.00002
4.925, -0.00000, -0.00001, -0.00000, -0.00001, 0.00002
4.938, -0.00000, -0.00001, -0.00000, -0.00001, 0.00002
4.950, -0.00000, -0.00001, -0.00000, -0.00001, 0.00002
4.963, -0.00000, -0.00001, -0.00000, -0.00001, 0.00002
4.975, -0.00000, -0.00001, -0.00000, -0.00001, 0.00001
4.988, -0.00000, -0.00001, -0.00000, -0.00001, 0.00001
5.000, -0.00000, -0.00000, -0.00000, -0.00001, 0.00001
5.013, -0.00000, -0.00000, -0.00000, -0.00001, 0.00001
5.025, -0.00000, -0.00000, -0.00000, -0.00001, 0.00001
5.038, -0.00000, -0.00000, -0.00000, -0.00001, 0.00000
5.050, -0.00000, -0.00000, -0.00000, -0.00001, 0.00000
5.063, -0.00000, -0.00000, -0.00000, -0.00001, 0.00000
5.075, -0.00000, -0.00000, -0.00000, -0.00001, -0.00000
5.088, -0.00000, -0.00000, -0.00000, -0.00001, -0.00000
5.100, -0.00000, -0.00000, -0.00000, -0.00000, -0.00000
5.113, -0.00001, -0.00000, -0.00000, -0.00000, -0.00001
5.125, -0.00001, -0.00000, -0.00000, -0.00000, -0.00001
5.138, -0.00001, -0.00000, -0.00000, -0.00000, -0.00001
5.150, -0.00001, -0.00000, -0.00000, -0.00000, -0.00001
5.163, -0.00001, -0.00000, -0.00000, -0.00000, -0.00001
5.175, -0.00001, -0.00000, -0.00000, -0.00000, -0.00001
5.188, -0.00001, -0.00000, -0.00000, -0.00000, -0.00001
5.200, -0.00001, -0.00000, -0.00000, -0.00000, -0.00001
5.213, -0.00001, -0.00000, -0.00000, -0.00000, -0.00001
5.225, -0.00001, -0.00000, -0.00000, -0.00000, -0.00001
5.238, -0.00001, -0.00000, -0.00000, -0.00000, -0.00002
5.250, -0.00001, 0.00000, 0.00000, 0.00000, -0.00002
5.263, -0.00001, 0.00000, 0.00000, 0.00000, -0.00002
5.275, -0.00001, 0.00000, 0.00000, 0.00000, -0.00002
5.288, -0.00001, 0.00000, 0.00000, 0.00000, -0.00002
5.300, -0.00001, 0.00000, 0.00000, 0.00000, -0.00002
5.313, -0.00001, 0.00000, 0.00000, 0.00000, -0.00002
5.325, -0.00001, 0.00000, 0.00000, 0.00000, -0.00002
5.338, -0.00000, 0.00000, 0.00000, 0.00000, -0.00002
5.350, -0.00000, 0.00000, 0.00000, 0.00000, -0.00002
5.363, -0.00000, 0.00000, 0.00000, 0.00000, -0.00002
5.375, -0.00000, 0.00000, 0.00000, 0.00000, -0.00002
5.388, -0.00000, 0.00000, 0.00000, 0.00000, -0.00002
5.400, -0.00000, 0.00000, 0.00000, 0.00000, -0.00002
5.413, -0.00000, 0.00000, 0.00000, 0.00000, -0.00002
5.425, -0.00000, 0.00000, 0.00000, 0.00000, -0.00002
5.438, -0.00000, 0.00000, 0.00000, 0.00000, -0.00002
5.450, -0.00000, 0.00000, 0.00000, 0.00000, -0.00002
5.463, -0.00000, 0.00000, 0.00000, 0.00000, -0.00002
5.475, -0.00000, 0.00000, 0.00000, 0.00000, -0.00002
5.488, -0.00000, 0.00000, 0.00000, 0.00000, -0.00002
5.500, -0.00000, 0.00000, 0.00000, 0.00000, -0.00001
5.513, -0.00000, 0.00000, 0.00000, 0.00000, -0.00001
5.525, -0.00000, 0.00000, 0.00000, 0.00000, -0.00001
5.538, -0.00000, 0.00000, 0.00000, 0.00000, -0.00001
5.550, -0.00000, 0.00000, 0.00000, 0.00000, -0.00001
5.563, -0.00000, 0.00000, 0.00000, 0.00000, -0.00001
5.575, 0.00000, 0.00000, 0.00000, 0.00000, -0.00001
5.588, 0.00000, 0.00000, 0.00000, 0.00000, -0.00001
5.600, 0.00000, 0.00000, 0.00000, 0.00000, -0.00001
5.613, 0.00000, 0.00000, 0.00000, 0.00000, -0.00000
5.625, 0.00000, 0.00000, 0.00000, 0.00000, -0.00000
5.638, 0.00000, 0.00000, 0.00000, 0.00000, -0.00000
5.650, 0.00000, 0.00000, 0.00000, 0.00000, -0.00000
5.663, 0.00000, 0.00000, 0.00000, 0.00000, 0.00000
5.675, 0.00000, 0.00000, 0.00000, 0.00000, 0.00000
5.688, 0.00000, 0.00000, 0.00000, 0.00000, 0.00000
5.700, 0.00001, 0.00000, 0.00000, 0.00000, 0.00001
5.713, 0.00001, 0.00000, 0.00000, 0.00000, 0.00001
5.725, 0.00001, 0.00000, 0.00000, 0.00000, 0.00001
5.738, 0.00001, 0.00000, 0.00000, 0.00000, 0.00001
5.750, 0.00001, 0.00000, 0.00000, 0.00000, 0.00001
5.763, 0.00001, 0.00000, 0.00000, 0.00000, 0.00002
5.775, 0.00001, 0.00000, 0.00000, 0.00000, 0.00002
5.788, 0.00001, 0.00000, 0.00000, 0.00000, 0.00002
5.800, 0.00001, 0.00000, 0.00000, 0.00000, 0.00002
5.813, 0.00001, 0.00000, 0.00000, 0.00000, 0.00003
5.825, 0.00001, 0.00000, 0.00000, 0.00000, 0.00003
5.838, 0.00001, 0.00000, 0.00000, 0.00000, 0.00003
5.850, 0.00001, 0.00000, 0.00000, 0.00000, 0.00003
5.863, 0.00001, 0.00000, 0.00000, 0.00000, 0.00004
5.875, 0.00001, 0.00000, 0.00000, 0.00000, 0.00004
5.888, 0.00002, 0.00000, 0.00000, 0.00000, 0.00004
5.900, 0.00002, 0.00000, 0.00000, 0.00000, 0.00004
5.913, 0.00005, 0.00000, 0.00000, 0.00000, 0.00009
5.925, 0.00039, 0.00000, 0.00000, 0.00000, 0.00049
5.938, 0.00105, 0.00000, 0.00000, 0.00000, 0.00116
5.950, 0.00202, 0.00000, 0.00000, 0.00000, 0.00211
5.963, 0.00330, 0.00000, 0.00000, 0.00000, 0.00334
5.975, 0.00489, 0.00000, 0.00000, 0.00000, 0.00485
5.988, 0.00680, 0.00000, 0.00000, 0.00000, 0.00664
6.000, 0.00902, 0.00000, 0.00000, 0.00000, 0.00871
6.013, 0.01155, 0.00000, 0.00000, 0.00000, 0.01106
6.025, 0.01439, 0.00000, 0.00000, 0.00000, 0.01368
6.038, 0.01755, 0.00000, 0.00000, 0.00000, 0.01659
6.050, 0.02102, 0.00000, 0.00000, 0.00000, 0.01978
6.063, 0.02480, 0.00000, 0.00000, 0.00000, 0.02324
6.075, 0.02889, 0.00000, 0.00000, 0.00000, 0.02698
6.088, 0.03330, 0.00000, 0.00000, 0.00000, 0.03101
6.100, 0.03802, 0.00000, 0.00000, 0.00000, 0.03531
6.113, 0.04300, 0.00000, 0.00000, 0.00000, 0.03989
6.125, 0.04800, 0.00000, 0.00000, 0.00000, 0.04475
6.138, 0.05300, 0.00000, 0.00000, 0.00000, 0.04989
6.150, 0.05800, 0.00000, 0.00000, 0.00000, 0.05531
6.163, 0.06300, 0.00000, 0.00000, 0.00000, 0.06101
6.175, 0.06800, 0.00000, 0.00000, 0.00000, 0.06698
6.188, 0.07300, 0.00000, 0.00000, 0.00000, 0.07324
6.200, 0.07800, 0.00000, 0.00000, 0.00000, 0.07977
6.213, 0.08300, 0.00000, 0.00000, 0.00000, 0.08659
6.225, 0.08800, 0.00000, 0.00000, 0.00000, 0.09368
6.238, 0.09300, 0.00000, 0.00000, 0.00000, 0.10105
6.250, 0.09800, 0.00000, 0.00000, 0.00000, 0.10871
6.263, 0.10300, 0.00000, 0.00000, 0.00000, 0.11664
6.275, 0.10800, 0.00000, 0.00000, 0.00000, 0.12485
6.288, 0.11300, 0.00000, 0.00000, 0.00000, 0.13334
6.300, 0.11800, 0.00000, 0.00000, 0.00000, 0.14210
6.313, 0.12300, 0.00000, 0.00000, 0.00000, 0.15115
6.325, 0.12800, 0.00000, 0.00000, 0.00000, 0.16048
6.338, 0.13300, 0.00000, 0.00000, 0.00000, 0.17008
6.350, 0.13800, 0.00000, 0.00000, 0.00000, 0.17997
6.363, 0.14300, 0.00000, 0.00000, 0.00000, 0.19013
6.375, 0.14800, 0.00000, 0.00000, 0.00000, 0.20058
6.388, 0.15300, 0.00000, 0.00000, 0.00000, 0.21130
6.400, 0.15800, 0.00000, 0.00000, 0.00000, 0.22230
6.413, 0.16300, 0.00000, 0.00000, 0.00000, 0.23358
6.425, 0.16800, 0.00000, 0.00000, 0.00000, 0.24514
6.438, 0.17300, 0.00000, 0.00000, 0.00000, 0.25698
6.450, 0.17800, 0.00000, 0.00000, 0.00000, 0.26910
6.463, 0.18300, 0.00000, 0.00000, 0.00000, 0.28147
6.475, 0.18800, 0.00000, 0.00000, 0.00000, 0.29388
6.488, 0.19300, 0.00000, 0.00000, 0.00000, 0.30626
6.500, 0.19800, 0.00000, 0.00000, 0.00000, 0.31866
6.513, 0.20300, 0.00000, 0.00000, 0.00000, 0.33105
6.525, 0.20800, 0.00000, 0.00000, 0.00000, 0.34344
6.538, 0.21300, 0.00000, 0.00000, 0.00000, 0.35583
6.550, 0.21800, 0.00000, 0.00000, 0.00000, 0.36822
6.563, 0.22300, 0.00000, 0.00000, 0.00000, 0.38061
6.575, 0.22800, 0.00000, 0.00000, 0.00000, 0.39300
6.588, 0.23300, 0.00000, 0.00000, 0.00000, 0.40539
6.600, 0.23800, 0.00000, 0.00000, 0.00000, 0.41780
6.613, 0.24300, 0.00000, 0.00000, 0.00000, 0.43018
6.625, 0.24800, 0.00000, 0.00000, 0.00000, 0.44242
6.638, 0.25300, 0.00000, 0.00000, 0.00000, 0.45438
6.650, 0.25800, 0.00000, 0.00000, 0.00000, 0.46604
6.663, 0.26295, 0.00000, 0.00000, 0.00000, 0.47743
6.675, 0.26761, 0.00000, 0.00000, 0.00000, 0.48854
6.688, 0.27195, 0.00000, 0.00000, 0.00000, 0.49936
6.700, 0.27598, 0.00000, 0.00000, 0.00000, 0.50992
6.713, 0.27970, 0.00000, 0.00000, 0.00000, 0.52019
6.725, 0.28311, 0.00000, 0.00000, 0.00000, 0.53018
6.738, 0.28620, 0.00000, 0.00000, 0.00000, 0.53989
6.750, 0.28898, 0.00000, 0.00000, 0.00000, 0.54933
6.763, 0.29145, 0.00000, 0.00000, 0.00000, 0.55848
6.775, 0.29361, 0.00000, 0.00000, 0.00000, 0.56736
6.788, 0.29545, 0.00000, 0.00000, 0.00000, 0.57595
6.800, 0.29698, 0.00000, 0.00000, 0.00000, 0.58427
6.813, 0.29820, 0.00000, 0.00000, 0.00000, 0.59231
6.825, 0.29911, 0.00000, 0.00000, 0.00000, 0.60007
6.838, 0.29971, 0.00000, 0.00000, 0.00000, 0.60755
6.850, 0.29997, 0.00000, 0.00000, 0.00000, 0.61475
6.863, 0.30001, 0.00000, 0.00000, 0.00000, 0.62167
6.875, 0.30000, 0.00000, 0.00000, 0.00000, 0.62831
6.888, 0.30000, 0.00000, 0.00000, 0.00000, 0.63467
6.900, 0.30000, 0.00000, 0.00000, 0.00000, 0.64076
6.913, 0.30000, 0.00000, 0.00000, 0.00000, 0.64656
6.925, 0.30000, 0.00000, 0.00000, 0.00000, 0.65209
6.938, 0.30000, 0.00000, 0.00000, 0.00000, 0.65733
6.950, 0.30000, 0.00000, 0.00000, 0.00000, 0.66230
6.963, 0.30000, 0.00000, 0.00000, 0.00000, 0.66699
6.975, 0.30000, 0.00000, 0.00000, 0.00000, 0.67140
6.988, 0.30000, 0.00000, 0.00000, 0.00000, 0.67553
7.000, 0.30000, 0.00000, 0.00000, 0.00000, 0.67938
7.013, 0.30000, 0.00000, 0.00000, 0.00000, 0.68295
7.025, 0.30000, 0.00000, 0.00000, 0.00000, 0.68624
7.038, 0.30000, 0.00000, 0.00000, 0.00000, 0.68926
7.050, 0.30000, 0.00000, 0.00000, 0.00000, 0.69199
7.063, 0.30000, 0.00000, 0.00000, 0.00000, 0.69445
7.075, 0.30000, 0.00000, 0.00000, 0.00000, 0.69662
7.088, 0.30000, 0.00000, 0.00000, 0.00000, 0.69852
7.100, 0.30000, 0.00000, 0.00000, 0.00000, 0.70013
7.113, 0.30000, 0.00000, 0.00000, 0.00000, 0.70147
7.125, 0.30000, 0.00000, 0.00000, 0.00000, 0.70253
7.138, 0.30000, 0.00000, 0.00000, 0.00000, 0.70331
7.150, 0.30000, 0.00000, 0.00000, 0.00000, 0.70381
7.163, 0.30000, 0.00000, 0.00000, 0.00000, 0.70403
7.175, 0.30000, 0.00000, 0.00000, 0.00000, 0.70403
7.188, 0.30000, 0.00000, 0.00000, 0.00000, 0.70402
7.200, 0.30000, 0.00000, 0.00000, 0.00000, 0.70403
7.213, 0.30000, 0.00000, 0.00000, 0.00000, 0.70402
7.225, 0.30000, 0.00000, 0.00000, 0.00000, 0.70402
7.238, 0.30000, 0.00000, 0.00000, 0.00000, 0.70402
7.250, 0.30000, 0.00000, 0.00000, 0.00000, 0.70402
7.263, 0.30000, 0.00000, 0.00000, 0.00000, 0.70402
7.275, 0.30000, 0.00000, 0.00000, 0.00000, 0.70402
7.288, 0.30000, 0.00000, 0.00000, 0.00000, 0.70402
7.300, 0.30000, 0.00000, 0.00000, 0.00000, 0.70402
7.313, 0.30000, 0.00000, 0.00000, 0.00000, 0.70402
7.325, 0.30000, 0.00000, 0.00000, 0.00000, 0.70402
7.338, 0.30000, 0.00000, 0.00000, 0.00000, 0.70402
7.350, 0.30000, 0.00000, 0.00000, 0.00000, 0.70402
7.363, 0.30000, 0.00000, 0.00000, 0.00000, 0.70402
7.375, 0.30000, 0.00000, 0.00000, 0.00000, 0.70402
7.388, 0.30000, 0.00000, 0.00000, 0.00000, 0.70402
7.400, 0.30000, 0.00000, 0.00000, 0.00000, 0.70402
7.413, 0.30000, 0.00000, 0.00000, 0.00000, 0.70402
7.425, 0.30000, 0.00000, 0.00000, 0.00000, 0.70402
7.438, 0.30000, 0.00000, 0.00000, 0.00000, 0.70402
7.450, 0.30000, 0.00000, 0.00000, 0.00000, 0.70402
7.463, 0.30000, 0.00000, 0.00000, 0.00000, 0.70402
7.475, 0.30000, 0.00000, 0.00000, 0.00000, 0.70402
7.488, 0.30000, 0.00000, 0.00000, 0.00000, 0.70402
7.500, 0.30000, 0.00000, 0.00000, 0.00000, 0.70402
7.513, 0.30000, 0.00000, 0.00000, 0.00000, 0.70402
7.525, 0.30000, 0.00000, 0.00000, 0.00000, 0.70402
7.538, 0.30000, 0.00000, 0.00000, 0.00000, 0.70402
7.550, 0.30000, 0.00000, 0.00000, 0.00000, 0.70402
7.563, 0.30000, 0.00000, 0.00000, 0.00000, 0.70402
7.575, 0.30000, 0.00000, 0.00000, 0.00000, 0.70402
7.588, 0.30000, 0.00000, 0.00000, 0.00000, 0.70402
7.600, 0.30000, 0.00000, 0.00000, 0.00000, 0.70402
7.613, 0.30000, 0.00000, 0.00000, 0.00000, 0.70402
7.625, 0.30000, 0.00000, 0.00000, 0.00000, 0.70402
7.638, 0.30000, 0.00000, 0.00000, 0.00000, 0.70402
7.650, 0.30000, 0.00000, 0.00000, 0.00000, 0.70402
7.663, 0.30000, 0.00000, 0.00000, 0.00000, 0.70402
7.675, 0.30000, 0.00000, 0.00000, 0.00000, 0.70402
7.688, 0.30000, 0.00000, 0.00000, 0.00000, 0.70402
7.700, 0.30000, 0.00000, 0.00000, 0.00000, 0.70402
7.713, 0.30000, 0.00000, 0.00000, 0.00000, 0.70402
7.725, 0.30000, 0.00000, 0.00000, 0.00000, 0.70402
7.738, 0.30000, 0.00000, 0.00000, 0.00000, 0.70402
7.750, 0.30000, 0.00000, 0.00000, 0.00000, 0.70402
7.763, 0.30000, 0.00000, 0.00000, 0.00000, 0.70402
7.775, 0.30000, 0.00000, 0.00000, 0.00000, 0.70402
7.788, 0.30000, 0.00000, 0.00000, 0.00000, 0.70402
7.800, 0.30000, 0.00000, 0.00000, 0.00000, 0.70402
7.813, 0.30000, 0.00000, 0.00000, 0.00000, 0.70402
7.825, 0.30000, 0.00000, 0.00000, 0.00000, 0.70402
7.838, 0.30000, 0.00000, 0.00000, 0.00000, 0.70402
7.850, 0.30000, 0.00000, 0.00000, 0.00000, 0.70402
7.863, 0.30000, 0.00000, 0.00000, 0.00000, 0.70402
7.875, 0.30000, 0.00000, 0.00000, 0.00000, 0.70402
7.888, 0.30000, 0.00000, 0.00000, 0.00000, 0.70402
7.900, 0.30000, 0.00000, 0.00000, 0.00000, 0.70402
7.913, 0.30000, 0.00000, 0.00000, 0.00000, 0.70402
7.925, 0.30000, 0.00000, 0.00000, 0.00000, 0.70402
7.938, 0.30000, 0.00000, 0.00000, 0.00000, 0.70402
7.950, 0.30000, 0.00000, 0.00000, 0.00000, 0.70402
7.963, 0.30000, 0.00000, 0.00000, 0.00000, 0.70402
7.975, 0.30000, 0.00000, 0.00000, 0.00000, 0.70402
7.988, 0.30000, 0.00000, 0.00000, 0.00000, 0.70402
8.000, 0.30000, 0.00000, 0.00000, 0.00000, 0.70402
8.013, 0.30000, 0.00000, 0.00000, 0.00000, 0.70402
8.025, 0.30000, 0.00000, 0.00000, 0.00000, 0.70402
8.037, 0.30000, 0.00000, 0.00000, 0.00000, 0.70402
8.050, 0.30000, 0.00000, 0.00000, 0.00000, 0.70402
8.063, 0.30000, 0.00000, 0.00000, 0.00000, 0.70402
8.075, 0.30000, 0.00000, 0.00000, 0.00000, 0.70402
8.088, 0.30000, 0.00000, 0.00000, 0.00000, 0.70402
8.100, 0.30000, 0.00000, 0.00000, 0.00000, 0.70402
8.113, 0.30000, 0.00000, 0.00000, 0.00000, 0.70402
8.125, 0.30000, 0.00000, 0.00000, 0.00000, 0.70403
8.138, 0.30000, 0.00000, 0.00000, 0.00000, 0.70402
8.150, 0.30000, 0.00000, 0.00000, 0.00000, 0.70377
8.162, 0.30000, 0.00000, 0.00000, 0.00000, 0.70323
8.175, 0.30000, 0.00000, 0.00000, 0.00000, 0.70242
8.188, 0.30000, 0.00000, 0.00000, 0.00000, 0.70132
8.200, 0.30000, 0.00000, 0.00000, 0.00000, 0.69995
8.213, 0.30000, 0.00000, 0.00000, 0.00000, 0.69830
8.225, 0.30000, 0.00000, 0.00000, 0.00000, 0.69637
8.238, 0.30000, 0.00000, 0.00000, 0.00000, 0.69416
8.250, 0.30000, 0.00000, 0.00000, 0.00000, 0.69167
8.263, 0.30000, 0.00000, 0.00000, 0.00000, 0.68890
8.275, 0.30000, 0.00000, 0.00000, 0.00000, 0.68585
8.287, 0.30000, 0.00000, 0.00000, 0.00000, 0.68253
8.300, 0.30000, 0.00000, 0.00000, 0.00000, 0.67892
8.313, 0.30000, 0.00000, 0.00000, 0.00000, 0.67503
8.325, 0.30000, 0.00000, 0.00000, 0.00000, 0.67087
8.338, 0.30000, 0.00000, 0.00000, 0.00000, 0.66643
8.350, 0.30000, 0.00000, 0.00000, 0.00000, 0.66170
8.363, 0.30000, 0.00000, 0.00000, 0.00000, 0.65670
8.375, 0.30000, 0.00000, 0.00000, 0.00000, 0.65142
8.388, 0.30000, 0.00000, 0.00000, 0.00000, 0.64586
8.400, 0.30000, 0.00000, 0.00000, 0.00000, 0.64002
8.412, 0.30000, 0.00000, 0.00000, 0.00000, 0.63390
8.425, 0.30000, 0.00000, 0.00000, 0.00000, 0.62751
8.438, 0.30002, 0.00000, 0.00000, 0.00000, 0.62083
8.450, 0.29993, 0.00000, 0.00000, 0.00000, 0.61387
8.463, 0.29958, 0.00000, 0.00000, 0.00000, 0.60664
8.475, 0.29890, 0.00000, 0.00000, 0.00000, 0.59912
8.488, 0.29791, 0.00000, 0.00000, 0.00000, 0.59133
8.500, 0.29661, 0.00000, 0.00000, 0.00000, 0.58326
8.513, 0.29500, 0.00000, 0.00000, 0.00000, 0.57491
8.525, 0.29307, 0.00000, 0.00000, 0.00000, 0.56628
8.537, 0.29084, 0.00000, 0.00000, 0.00000, 0.55737
8.550, 0.28829, 0.00000, 0.00000, 0.00000, 0.54818
8.563, 0.28542, 0.00000, 0.00000, 0.00000, 0.53871
8.575, 0.28225, 0.00000, 0.00000, 0.00000, 0.52896
8.588, 0.27876, 0.00000, 0.00000, 0.00000, 0.51894
8.600, 0.27496, 0.00000, 0.00000, 0.00000, 0.50863
8.613, 0.27085, 0.00000, 0.00000, 0.00000, 0.49804
8.625, 0.26642, 0.00000, 0.00000, 0.00000, 0.48718
8.638, 0.26168, 0.00000, 0.00000, 0.00000, 0.47604
8.650, 0.25670, 0.00000, 0.00000, 0.00000, 0.46461
8.662, 0.25169, 0.00000, 0.00000, 0.00000, 0.45292
8.675, 0.24669, 0.00000, 0.00000, 0.00000, 0.44093
8.688, 0.24169, 0.00000, 0.00000, 0.00000, 0.42865
8.700, 0.23669, 0.00000, 0.00000, 0.00000, 0.41627
8.713, 0.23169, 0.00000, 0.00000, 0.00000, 0.40386
8.725, 0.22669, 0.00000, 0.00000, 0.00000, 0.39148
8.738, 0.22169, 0.00000, 0.00000, 0.00000, 0.37908
8.750, 0.21669, 0.00000, 0.00000, 0.00000, 0.36669
8.763, 0.21169, 0.00000, 0.00000, 0.00000, 0.35430
8.775, 0.20669, 0.00000, 0.00000, 0.00000, 0.34191
8.787, 0.20169, 0.00000, 0.00000, 0.00000, 0.32952
8.800, 0.19669, 0.00000, 0.00000, 0.00000, 0.31713
8.813, 0.19169, 0.00000, 0.00000, 0.00000, 0.30474
8.825, 0.18669, 0.00000, 0.00000, 0.00000, 0.29235
8.838, 0.18169, 0.00000, 0.00000, 0.00000, 0.27994
8.850, 0.17669, 0.00000, 0.00000, 0.00000, 0.26759
8.863, 0.17169, 0.00000, 0.00000, 0.00000, 0.25551
8.875, 0.16669, 0.00000, 0.00000, 0.00000, 0.24370
8.888, 0.16169, 0.00000, 0.00000, 0.00000, 0.23218
8.900, 0.15669, 0.00000, 0.00000, 0.00000, 0.22093
8.912, 0.15169, 0.00000, 0.00000, 0.00000, 0.20996
8.925, 0.14669, 0.00000, 0.00000, 0.00000, 0.19927
8.938, 0.14169, 0.00000, 0.00000, 0.00000, 0.18887
8.950, 0.13669, 0.00000, 0.00000, 0.00000, 0.17874
8.963, 0.13169, 0.00000, 0.00000, 0.00000, 0.16889
8.975, 0.12669, 0.00000, 0.00000, 0.00000, 0.15931
8.988, 0.12169, 0.00000, 0.00000, 0.00000, 0.15002
9.000, 0.11669, 0.00000, 0.00000, 0.00000, 0.14101
9.013, 0.11169, 0.00000, 0.00000, 0.00000, 0.13227
9.025, 0.10669, 0.00000, 0.00000, 0.00000, 0.12382
9.037, 0.10169, 0.00000, 0.00000, 0.00000, 0.11564
9.050, 0.09669, 0.00000, 0.00000, 0.00000, 0.10775
9.063, 0.09169, 0.00000, 0.00000, 0.00000, 0.10013
9.075, 0.08669, 0.00000, 0.00000, 0.00000, 0.09279
9.088, 0.08169, 0.00000, 0.00000, 0.00000, 0.08573
9.100, 0.07669, 0.00000, 0.00000, 0.00000, 0.07895
9.113, 0.07169, 0.00000, 0.00000, 0.00000, 0.07245
9.125, 0.06669, 0.00000, 0.00000, 0.00000, 0.06623
9.138, 0.06169, 0.00000, 0.00000, 0.00000, 0.06029
9.150, 0.05669, 0.00000, 0.00000, 0.00000, 0.05462
9.162, 0.05170, 0.00000, 0.00000, 0.00000, 0.04924
9.175, 0.04669, 0.00000, 0.00000, 0.00000, 0.04414
9.188, 0.04169, 0.00000, 0.00000, 0.00000, 0.03931
9.200, 0.03676, 0.00000, 0.00000, 0.00000, 0.03476
9.213, 0.03211, 0.00000, 0.00000, 0.00000, 0.03050
9.225, 0.02779, 0.00000, 0.00000, 0.00000, 0.02651
9.238, 0.02378, 0.00000, 0.00000, 0.00000, 0.02280
9.250, 0.02008, 0.00000, 0.00000, 0.00000, 0.01937
9.263, 0.01669, 0.00000, 0.00000, 0.00000, 0.01622
9.275, 0.01362, 0.00000, 0.00000, 0.00000, 0.01335
9.287, 0.01086, 0.00000, 0.00000, 0.00000, 0.01075
9.300, 0.00841, 0.00000, 0.00000, 0.00000, 0.00844
9.313, 0.00627, 0.00000, 0.00000, 0.00000, 0.00641
9.325, 0.00445, 0.00000, 0.00000, 0.00000, 0.00465
9.338, 0.00293, 0.00000, 0.00000, 0.00000, 0.00317
9.350, 0.00173, 0.00000, 0.00000, 0.00000, 0.00198
9.363, 0.00085, 0.00000, 0.00000, 0.00000, 0.00106
9.375, 0.00027, 0.00000, 0.00000, 0.00000, 0.00042
9.388, 0.00001, 0.00000, 0.00000, 0.00000, 0.00006
9.400, -0.00001, 0.00000, 0.00000, -0.00000, 0.00002
9.412, -0.00000, 0.00000, 0.00000, -0.00000, 0.00002
9.425, -0.00000, 0.00000, 0.00000, -0.00000, 0.00002
9.438, -0.00000, 0.00000, 0.00000, -0.00000, 0.00002
9.450, -0.00000, 0.00000, 0.00000, -0.00000, 0.00001
9.463, -0.00000, 0.00000, 0.00000, -0.00001, 0.00001
9.475, -0.00000, 0.00000, 0.00000, -0.00001, 0.00001
9.488, -0.00000, 0.00000, 0.00000, -0.00001, 0.00001
9.500, -0.00000, 0.00000, 0.00000, -0.00001, 0.00000
9.513, -0.00000, 0.00000, 0.00000, -0.00001, 0.00000
9.525, -0.00000, 0.00000, 0.00000, -0.00001, 0.00000
9.537, -0.00000, 0.00000, 0.00000, -0.00001, -0.00000
9.550, -0.00000, 0.00000, 0.00000, -0.00001, -0.00000
9.563, -0.00000, 0.00000, 0.00000, -0.00001, -0.00000
9.575, -0.00000, 0.00000, 0.00000, -0.00001, -0.00001
9.588, -0.00000, 0.00000, 0.00000, -0.00001, -0.00001
9.600, -0.00000, 0.00000, 0.00000, -0.00001, -0.00001
9.613, -0.00000, 0.00000, 0.00000, -0.00001, -0.00001
9.625, -0.00000, 0.00000, 0.00001, -0.00001, -0.00001
9.638, -0.00000, 0.00000, 0.00001, -0.00001, -0.00001
9.650, -0.00000, 0.00000, 0.00001, -0.00001, -0.00001
9.663, -0.00000, 0.00000, 0.00001, -0.00001, -0.00001
9.675, -0.00000, 0.00000, 0.00001, -0.00001, -0.00002
9.688, -0.00000, 0.00000, 0.00001, -0.00001, -0.00002
9.700, -0.00000, 0.00000, 0.00001, -0.00002, -0.00002
9.713, -0.00000, 0.00000, 0.00001, -0.00002, -0.00002
9.725, 0.00000, 0.00000, 0.00001, -0.00002, -0.00002
9.738, 0.00000, 0.00000, 0.00001, -0.00002, -0.00002
9.750, 0.00000, 0.00000, 0.00001, -0.00001, -0.00002
9.763, 0.00000, 0.00000, 0.00001, -0.00001, -0.00002
9.775, 0.00000, 0.00000, 0.00001, -0.00001, -0.00002
9.788, 0.00000, 0.00000, 0.00001, -0.00001, -0.00002
9.800, 0.00000, 0.00000, 0.00001, -0.00001, -0.00002
9.813, 0.00000, 0.00000, 0.00001, -0.00001, -0.00002
9.825, 0.00000, 0.00000, 0.00001, -0.00001, -0.00002
9.838, 0.00000, 0.00000, 0.00000, -0.00001, -0.00002
9.850, 0.00000, 0.00000, 0.00000, -0.00001, -0.00002
9.863, 0.00000, 0.00000, 0.00000, -0.00001, -0.00002
9.875, 0.00000, 0.00000, 0.00000, -0.00001, -0.00002
9.888, 0.00000, 0.00000, 0.00000, -0.00001, -0.00002
9.900, 0.00000, 0.00000, 0.00000, -0.00001, -0.00002
9.913, 0.00000, 0.00000, 0.00000, -0.00001, -0.00002
9.925, 0.00000, 0.00000, 0.00000, -0.00001, -0.00002
9.938, 0.00000, 0.00000, 0.00000, -0.00001, -0.00002
9.950, 0.00000, 0.00000, 0.00000, -0.00001, -0.00002
9.963, 0.00000, 0.00000, 0.00000, -0.00001, -0.00002
9.975, 0.00000, 0.00000, 0.00000, -0.00001, -0.00002
9.988, 0.00000, 0.00000, 0.00000, -0.00001, -0.00001
10.000, 0.00000, 0.00000, 0.00000, -0.00000, -0.00001
10.013, 0.00000, 0.00000, 0.00000, -0.00000, -0.00001
10.025, 0.00000, 0.00000, 0.00000, -0.00000, -0.00001
10.038, 0.00000, 0.00000, 0.00000, -0.00000, -0.00001
10.050, 0.00000, 0.00000, 0.00000, -0.00000, -0.00001
10.063, 0.00000, -0.00000, -0.00000, 0.00000, -0.00001
10.075, 0.00000, -0.00000, -0.00000, 0.00000, -0.00001
10.088, 0.00000, -0.00000, -0.00000, 0.00000, -0.00000
10.100, 0.00000, -0.00000, -0.00000, 0.00000, -0.00000
10.113, 0.00000, -0.00000, -0.00000, 0.00001, -0.00000
10.125, 0.00000, -0.00000, -0.00000, 0.00001, 0.00000
10.138, 0.00000, -0.00000, -0.00000, 0.00001, 0.00000
10.150, 0.00000, -0.00000, -0.00000, 0.00001, 0.00000
10.163, 0.00000, -0.00000, -0.00000, 0.00001, 0.00001
10.175, 0.00000, -0.00000, -0.00000, 0.00001, 0.00001
10.188, 0.00000, -0.00000, -0.00001, 0.00001, 0.00001
10.200, 0.00000, -0.00000, -0.00001, 0.00002, 0.00001
10.213, 0.00000, -0.00000, -0.00001, 0.00002, 0.00002
10.225, 0.00000, -0.00000, -0.00001, 0.00002, 0.00002
10.238, 0.00000, -0.00000, -0.00001, 0.00002, 0.00002
10.250, 0.00000, -0.00001, -0.00001, 0.00002, 0.00002
10.263, 0.00000, -0.00001, -0.00001, 0.00002, 0.00002
10.275, 0.00000, -0.00001, -0.00001, 0.00003, 0.00003
10.288, 0.00000, -0.00001, -0.00001, 0.00003, 0.00003
10.300, 0.00000, -0.00001, -0.00001, 0.00003, 0.00003
10.313, 0.00000, -0.00001, -0.00001, 0.00003, 0.00004
10.325, 0.00000, -0.00001, -0.00001, 0.00003, 0.00004
10.338, 0.00000, -0.00001, -0.00001, 0.00004, 0.00004
10.350, 0.00000, -0.00001, -0.00001, 0.00004, 0.00005
10.363, 0.00000, -0.00001, -0.00001, 0.00004, 0.00005
10.375, 0.00000, -0.00001, -0.00002, 0.00004, 0.00005
10.388, 0.00000, -0.00001, -0.00002, 0.00004, 0.00006
10.400, 0.00000, -0.00008, -0.00022, 0.00027, 0.00043
10.413, 0.00000, -0.00024, -0.00075, 0.00078, 0.00132
10.425, 0.00000, -0.00049, -0.00159, 0.00154, 0.00267
10.438, 0.00000, -0.00083, -0.00275, 0.00255, 0.00450
10.450, 0.00000, -0.00124, -0.00422, 0.00381, 0.00679
10.463, 0.00000, -0.00175, -0.00600, 0.00531, 0.00954
10.475, 0.00000, -0.00234, -0.00809, 0.00707, 0.01277
10.488, 0.00000, -0.00301, -0.01050, 0.00908, 0.01647
10.500, 0.00000, -0.00377, -0.01322, 0.01133, 0.02063
10.513, 0.00000, -0.00462, -0.01625, 0.01384, 0.02526
10.525, 0.00000, -0.00555, -0.01959, 0.01660, 0.03035
10.538, 0.00000, -0.00656, -0.02325, 0.01960, 0.03592
10.550, 0.00000, -0.00766, -0.02722, 0.02286, 0.04195
10.563, 0.00000, -0.00885, -0.03150, 0.02636, 0.04845
10.575, 0.00000, -0.01012, -0.03609, 0.03012, 0.05542
10.588, 0.00000, -0.01148, -0.04100, 0.03412, 0.06286
10.600, 0.00000, -0.01292, -0.04622, 0.03837, 0.07076
10.613, 0.00000, -0.01445, -0.05175, 0.04288, 0.07913
10.625, 0.00000, -0.01606, -0.05759, 0.04763, 0.08797
10.638, 0.00000, -0.01776, -0.06375, 0.05263, 0.09728
10.650, 0.00000, -0.01954, -0.07022, 0.05789, 0.10705
10.663, 0.00000, -0.02141, -0.07700, 0.06339, 0.11729
10.675, 0.00000, -0.02336, -0.08409, 0.06914, 0.12800
10.688, 0.00000, -0.02540, -0.09150, 0.07514, 0.13918
10.700, 0.00000, -0.02752, -0.09922, 0.08140, 0.15082
10.713, 0.00000, -0.02973, -0.10725, 0.08790, 0.16294
10.725, 0.00000, -0.03202, -0.11559, 0.09465, 0.17552
10.738, 0.00000, -0.03440, -0.12425, 0.10165, 0.18857
10.750, 0.00000, -0.03686, -0.13300, 0.10890, 0.20208
10.763, 0.00000, -0.03941, -0.14175, 0.11640, 0.21607
10.775, 0.00000, -0.04205, -0.15050, 0.12415, 0.23052
10.788, 0.00000, -0.04477, -0.15925, 0.13215, 0.24544
10.800, 0.00000, -0.04757, -0.16800, 0.14040, 0.26082
10.813, 0.00000, -0.05046, -0.17675, 0.14890, 0.27668
10.825, 0.00000, -0.05344, -0.18550, 0.15765, 0.29300
10.838, 0.00000, -0.05650, -0.19425, 0.16664, 0.30980
10.850, 0.00000, -0.05964, -0.20300, 0.17589, 0.32704
10.863, 0.00000, -0.06288, -0.21175, 0.18539, 0.34457
10.875, 0.00000, -0.06619, -0.22050, 0.19514, 0.36204
10.888, 0.00000, -0.06959, -0.22925, 0.20513, 0.37952
10.900, 0.00000, -0.07308, -0.23778, 0.21538, 0.39700
10.913, 0.00000, -0.07665, -0.24600, 0.22588, 0.41448
10.925, 0.00000, -0.08031, -0.25391, 0.23662, 0.43196
10.938, 0.00000, -0.08399, -0.26150, 0.24762, 0.44944
10.950, 0.00000, -0.08767, -0.26878, 0.25887, 0.46692
10.963, 0.00000, -0.09135, -0.27575, 0.27034, 0.48439
10.975, 0.00000, -0.09503, -0.28241, 0.28186, 0.50190
10.988, 0.00000, -0.09871, -0.28875, 0.29336, 0.51929
11.000, 0.00000, -0.10239, -0.29478, 0.30486, 0.53630
11.013, 0.00000, -0.10607, -0.30050, 0.31637, 0.55281
11.025, 0.00000, -0.10975, -0.30591, 0.32787, 0.56886
11.038, 0.00000, -0.11343, -0.31100, 0.33937, 0.58444
11.050, 0.00000, -0.11711, -0.31578, 0.35088, 0.59955
11.063, 0.00000, -0.12079, -0.32025, 0.36238, 0.61419
11.075, 0.00000, -0.12447, -0.32441, 0.37388, 0.62837
11.088, 0.00000, -0.12814, -0.32825, 0.38538, 0.64208
11.100, 0.00000, -0.13182, -0.33178, 0.39689, 0.65532
11.113, 0.00000, -0.13550, -0.33500, 0.40841, 0.66810
11.125, 0.00000, -0.13918, -0.33791, 0.41986, 0.68040
11.138, 0.00000, -0.14286, -0.34050, 0.43111, 0.69224
11.150, 0.00000, -0.14655, -0.34278, 0.44211, 0.70361
11.163, 0.00000, -0.15020, -0.34475, 0.45284, 0.71452
11.175, 0.00000, -0.15378, -0.34641, 0.46333, 0.72495
11.188, 0.00000, -0.15727, -0.34775, 0.47356, 0.73492
11.200, 0.00000, -0.16067, -0.34878, 0.48355, 0.74442
11.213, 0.00000, -0.16399, -0.34951, 0.49329, 0.75345
11.225, 0.00000, -0.16722, -0.34990, 0.50278, 0.76202
11.238, 0.00000, -0.17037, -0.35001, 0.51202, 0.77011
11.250, 0.00000, -0.17344, -0.35000, 0.52101, 0.77774
11.263, 0.00000, -0.17641, -0.35000, 0.52975, 0.78490
11.275, 0.00000, -0.17931, -0.35000, 0.53824, 0.79160
11.288, 0.00000, -0.18211, -0.35000, 0.54648, 0.79782
11.300, 0.00000, -0.18484, -0.35000, 0.55447, 0.80358
11.313, 0.00000, -0.18747, -0.35000, 0.56221, 0.80887
11.325, 0.00000, -0.19002, -0.35000, 0.56970, 0.81369
11.338, 0.00000, -0.19249, -0.35000, 0.57694, 0.81805
11.350, 0.00000, -0.19487, -0.35000, 0.58393, 0.82194
11.363, 0.00000, -0.19717, -0.35000, 0.59067, 0.82536
11.375, 0.00000, -0.19938, -0.35000, 0.59716, 0.82831
11.388, 0.00000, -0.20151, -0.35000, 0.60341, 0.83079
11.400, 0.00000, -0.20355, -0.35000, 0.60940, 0.83281
11.413, 0.00000, -0.20550, -0.35000, 0.61514, 0.83436
11.425, 0.00000, -0.20737, -0.35000, 0.62064, 0.83544
11.438, 0.00000, -0.20916, -0.35000, 0.62588, 0.83604
11.450, 0.00000, -0.21086, -0.35000, 0.63087, 0.83621
11.463, 0.00000, -0.21247, -0.35000, 0.63562, 0.83617
11.475, 0.00000, -0.21400, -0.35000, 0.64011, 0.83618
11.488, 0.00000, -0.21544, -0.35000, 0.64436, 0.83618
11.500, 0.00000, -0.21680, -0.35000, 0.64835, 0.83618
11.513, 0.00000, -0.21808, -0.35000, 0.65210, 0.83618
11.525, 0.00000, -0.21926, -0.35000, 0.65559, 0.83618
11.538, 0.00000, -0.22037, -0.35000, 0.65884, 0.83618
11.550, 0.00000, -0.22139, -0.35000, 0.66184, 0.83618
11.563, 0.00000, -0.22232, -0.35000, 0.66458, 0.83618
11.575, 0.00000, -0.22317, -0.35000, 0.66708, 0.83618
11.588, 0.00000, -0.22393, -0.35000, 0.66933, 0.83618
11.600, 0.00000, -0.22461, -0.35000, 0.67133, 0.83618
11.613, 0.00000, -0.22520, -0.35000, 0.67307, 0.83618
11.625, 0.00000, -0.22570, -0.35000, 0.67457, 0.83618
11.638, 0.00000, -0.22613, -0.35000, 0.67582, 0.83618
11.650, 0.00000, -0.22646, -0.35000, 0.67682, 0.83618
11.663, 0.00000, -0.22671, -0.35000, 0.67757, 0.83618
11.675, 0.00000, -0.22688, -0.35000, 0.67807, 0.83618
11.688, 0.00000, -0.22696, -0.35000, 0.67831, 0.83618
11.700, 0.00000, -0.22697, -0.35000, 0.67835, 0.83618
11.713, 0.00000, -0.22696, -0.35000, 0.67832, 0.83618
11.725, 0.00000, -0.22696, -0.35000, 0.67833, 0.83618
11.738, 0.00000, -0.22696, -0.35000, 0.67833, 0.83618
11.750, 0.00000, -0.22696, -0.35000, 0.67833, 0.83618
11.763, 0.00000, -0.22696, -0.35000, 0.67833, 0.83618
11.775, 0.00000, -0.22696, -0.35000, 0.67833, 0.83618
11.788, 0.00000, -0.22696, -0.35000, 0.67833, 0.83618
11.800, 0.00000, -0.22696, -0.35000, 0.67833, 0.83618
11.813, 0.00000, -0.22696, -0.35000, 0.67833, 0.83618
11.825, 0.00000, -0.22696, -0.35000, 0.67833, 0.83618
11.838, 0.00000, -0.22696, -0.35000, 0.67833, 0.83618
11.850, 0.00000, -0.22696, -0.35000, 0.67833, 0.83618
11.863, 0.00000, -0.22696, -0.35000, 0.67833, 0.83618
11.875, 0.00000, -0.22696, -0.35000, 0.67833, 0.83618
11.888, 0.00000, -0.22696, -0.35000, 0.67833, 0.83618
11.900, 0.00000, -0.22696, -0.35000, 0.67833, 0.83618
11.913, 0.00000, -0.22696, -0.35000, 0.67833, 0.83618
11.925, 0.00000, -0.22696, -0.35000, 0.67833, 0.83618
11.938, 0.00000, -0.22696, -0.35000, 0.67833, 0.83618
11.950, 0.00000, -0.22696, -0.35000, 0.67833, 0.83618
11.963, 0.00000, -0.22696, -0.35000, 0.67833, 0.83618
11.975, 0.00000, -0.22696, -0.35000, 0.67832, 0.83618
11.988, 0.00000, -0.22696, -0.35000, 0.67833, 0.83618
12.000, 0.00000, -0.22696, -0.35000, 0.67834, 0.83618
12.013, 0.00000, -0.22697, -0.35000, 0.67828, 0.83618
12.025, 0.00000, -0.22694, -0.35000, 0.67803, 0.83618
12.038, 0.00000, -0.22683, -0.35000, 0.67750, 0.83618
12.050, 0.00000, -0.22664, -0.35000, 0.67671, 0.83618
12.063, 0.00000, -0.22636, -0.35000, 0.67569, 0.83618
12.075, 0.00000, -0.22600, -0.35000, 0.67441, 0.83618
12.088, 0.00000, -0.22555, -0.35000, 0.67288, 0.83618
12.100, 0.00000, -0.22501, -0.35000, 0.67111, 0.83618
12.113, 0.00000, -0.22439, -0.35000, 0.66908, 0.83618
12.125, 0.00000, -0.22369, -0.35000, 0.66680, 0.83618
12.138, 0.00000, -0.22290, -0.35000, 0.66428, 0.83618
12.150, 0.00000, -0.22202, -0.35000, 0.66150, 0.83618
12.163, 0.00000, -0.22106, -0.35000, 0.65847, 0.83618
12.175, 0.00000, -0.22001, -0.35000, 0.65520, 0.83618
12.188, 0.00000, -0.21888, -0.35000, 0.65167, 0.83618
12.200, 0.00000, -0.21766, -0.35000, 0.64790, 0.83618
12.213, 0.00000, -0.21636, -0.35000, 0.64387, 0.83618
12.225, 0.00000, -0.21498, -0.35000, 0.63960, 0.83618
12.238, 0.00000, -0.21350, -0.35000, 0.63508, 0.83618
12.250, 0.00000, -0.21195, -0.35000, 0.63030, 0.83617
12.263, 0.00000, -0.21030, -0.35000, 0.62528, 0.83620
12.275, 0.00000, -0.20858, -0.35000, 0.62001, 0.83591
12.288, 0.00000, -0.20676, -0.35000, 0.61448, 0.83516
12.300, 0.00000, -0.20486, -0.35000, 0.60871, 0.83394
12.313, 0.00000, -0.20288, -0.35000, 0.60269, 0.83225
12.325, 0.00000, -0.20081, -0.35000, 0.59642, 0.83009
12.338, 0.00000, -0.19866, -0.35000, 0.58990, 0.82746
12.350, 0.00000, -0.19642, -0.35000, 0.58313, 0.82437
12.363, 0.00000, -0.19409, -0.35000, 0.57610, 0.82081
12.375, 0.00000, -0.19169, -0.35000, 0.56883, 0.81678
12.388, 0.00000, -0.18919, -0.35000, 0.56131, 0.81228
12.400, 0.00000, -0.18661, -0.35000, 0.55354, 0.80732
12.413, 0.00000, -0.18395, -0.35000, 0.54552, 0.80189
12.425, 0.00000, -0.18119, -0.35000, 0.53726, 0.79599
12.438, 0.00000, -0.17836, -0.35000, 0.52874, 0.78962
12.450, 0.00000, -0.17544, -0.35000, 0.51997, 0.78278
12.463, 0.00000, -0.17243, -0.35000, 0.51095, 0.77548
12.475, 0.00000, -0.16934, -0.35000, 0.50168, 0.76771
12.488, 0.00000, -0.16616, -0.34981, 0.49216, 0.75947
12.500, 0.00000, -0.16290, -0.34931, 0.48240, 0.75077
12.513, 0.00000, -0.15956, -0.34849, 0.47238, 0.74159
12.525, 0.00000, -0.15612, -0.34735, 0.46211, 0.73195
12.538, 0.00000, -0.15261, -0.34591, 0.45160, 0.72184
12.550, 0.00000, -0.14900, -0.34415, 0.44083, 0.71126
12.563, 0.00000, -0.14533, -0.34208, 0.42982, 0.70022
12.575, 0.00000, -0.14165, -0.33970, 0.41854, 0.68871
12.588, 0.00000, -0.13797, -0.33701, 0.40706, 0.67673
12.600, 0.00000, -0.13429, -0.33400, 0.39553, 0.66428
12.613, 0.00000, -0.13061, -0.33068, 0.38404, 0.65136
12.625, 0.00000, -0.12693, -0.32705, 0.37254, 0.63798
12.638, 0.00000, -0.12325, -0.32311, 0.36103, 0.62413
12.650, 0.00000, -0.11957, -0.31885, 0.34953, 0.60981
12.663, 0.00000, -0.11589, -0.31428, 0.33803, 0.59502
12.675, 0.00000, -0.11221, -0.30940, 0.32653, 0.57977
12.688, 0.00000, -0.10853, -0.30421, 0.31502, 0.56405
12.700, 0.00000, -0.10485, -0.29870, 0.30352, 0.54786
12.713, 0.00000, -0.10117, -0.29288, 0.29202, 0.53121
12.725, 0.00000, -0.09749, -0.28675, 0.28051, 0.51404
12.738, 0.00000, -0.09381, -0.28030, 0.26900, 0.49660
12.750, 0.00000, -0.09013, -0.27355, 0.25756, 0.47910
12.763, 0.00000, -0.08646, -0.26648, 0.24631, 0.46162
12.775, 0.00000, -0.08278, -0.25910, 0.23535, 0.44414
12.788, 0.00000, -0.07909, -0.25140, 0.22464, 0.42666
12.800, 0.00000, -0.07546, -0.24340, 0.21417, 0.40918
12.813, 0.00000, -0.07192, -0.23507, 0.20395, 0.39170
12.825, 0.00000, -0.06846, -0.22645, 0.19398, 0.37422
12.838, 0.00000, -0.06509, -0.21769, 0.18427, 0.35675
12.850, 0.00000, -0.06180, -0.20894, 0.17480, 0.33927
12.863, 0.00000, -0.05860, -0.20019, 0.16558, 0.32177
12.875, 0.00000, -0.05548, -0.19144, 0.15661, 0.30466
12.888, 0.00000, -0.05245, -0.18269, 0.14789, 0.28801
12.900, 0.00000, -0.04950, -0.17394, 0.13942, 0.27183
12.913, 0.00000, -0.04664, -0.16519, 0.13120, 0.25612
12.925, 0.00000, -0.04386, -0.15644, 0.12323, 0.24087
12.938, 0.00000, -0.04117, -0.14769, 0.11551, 0.22609
12.950, 0.00000, -0.03856, -0.13894, 0.10804, 0.21178
12.963, 0.00000, -0.03604, -0.13018, 0.10082, 0.19794
12.975, 0.00000, -0.03360, -0.12145, 0.09385, 0.18457
12.988, 0.00000, -0.03125, -0.11288, 0.08712, 0.17166
13.000, 0.00000, -0.02899, -0.10464, 0.08065, 0.15922
13.013, 0.00000, -0.02681, -0.09670, 0.07443, 0.14725
13.025, 0.00000, -0.02471, -0.08909, 0.06846, 0.13575
13.038, 0.00000, -0.02270, -0.08178, 0.06273, 0.12471
13.050, 0.00000, -0.02078, -0.07479, 0.05726, 0.11414
13.063, 0.00000, -0.01894, -0.06811, 0.05204, 0.10404
13.075, 0.00000, -0.01718, -0.06174, 0.04706, 0.09441
13.088, 0.00000, -0.01552, -0.05568, 0.04234, 0.08524
13.100, 0.00000, -0.01393, -0.04994, 0.03786, 0.07655
13.113, 0.00000, -0.01243, -0.04451, 0.03364, 0.06832
13.125, 0.00000, -0.01102, -0.03939, 0.02966, 0.06055
13.138, 0.00000, -0.00969, -0.03458, 0.02594, 0.05326
13.150, 0.00000, -0.00845, -0.03009, 0.02246, 0.04643
13.163, 0.00000, -0.00729, -0.02591, 0.01924, 0.04007
13.175, 0.00000, -0.00622, -0.02204, 0.01626, 0.03418
13.188, 0.00000, -0.00523, -0.01848, 0.01353, 0.02876
13.200, 0.00000, -0.00433, -0.01524, 0.01106, 0.02381
13.213, 0.00000, -0.00351, -0.01231, 0.00883, 0.01932
13.225, 0.00000, -0.00278, -0.00969, 0.00685, 0.01530
13.238, 0.00000, -0.00213, -0.00739, 0.00512, 0.01174
13.250, 0.00000, -0.00157, -0.00539, 0.00365, 0.00866
13.263, 0.00000, -0.00110, -0.00371, 0.00242, 0.00604
13.275, 0.00000, -0.00071, -0.00234, 0.00144, 0.00389
13.288, 0.00000, -0.00040, -0.00129, 0.00071, 0.00221
13.300, 0.00000, -0.00018, -0.00054, 0.00023, 0.00100
13.313, 0.00000, -0.00004, -0.00011, -0.00000, 0.00025
13.325, 0.00000, -0.00000, -0.00000, -0.00002, 0.00003
13.338, 0.00000, -0.00000, -0.00000, -0.00002, 0.00003
13.350, 0.00000, -0.00000, -0.00000, -0.00002, 0.00002
13.363, 0.00000, -0.00000, -0.00000, -0.00002, 0.00002
13.375, 0.00000, -0.00000, -0.00000, -0.00001, 0.00002
13.388, 0.00000, -0.00000, -0.00000, -0.00001, 0.00002
13.400, 0.00000, -0.00000, -0.00000, -0.00001, 0.00001
13.413, 0.00000, -0.00000, -0.00000, -0.00001, 0.00001
13.425, 0.00000, -0.00000, -0.00000, -0.00001, 0.00001
13.438, 0.00000, -0.00000, -0.00000, -0.00001, 0.00001
13.450, 0.00000, -0.00000, -0.00000, -0.00001, 0.00001
13.463, 0.00000, -0.00000, -0.00000, -0.00001, 0.00000
13.475, 0.00000, -0.00000, -0.00000, -0.00001, 0.00000
13.488, 0.00000, -0.00000, -0.00000, -0.00001, 0.00000
13.500, 0.00000, -0.00000, -0.00000, -0.00001, -0.00000
13.513, 0.00000, -0.00000, -0.00000, -0.00001, -0.00000
13.525, 0.00000, -0.00000, -0.00000, -0.00001, -0.00000
13.538, 0.00000, -0.00000, -0.00000, -0.00001, -0.00001
13.550, 0.00001, -0.00000, -0.00000, -0.00000, -0.00001
13.563, 0.00001, -0.00000, -0.00000, -0.00000, -0.00001
13.575, 0.00001, -0.00000, -0.00000, -0.00000, -0.00001
13.588, 0.00001, -0.00000, -0.00000, -0.00000, -0.00001
13.600, 0.00001, -0.00000, -0.00000, -0.00000, -0.00001
13.613, 0.00001, -0.00000, -0.00000, -0.00000, -0.00001
13.625, 0.00001, -0.00000, -0.00000, -0.00000, -0.00001
13.638, 0.00001, -0.00000, -0.00000, -0.00000, -0.00001
13.650, 0.00001, -0.00000, -0.00000, -0.00000, -0.00002
13.663, 0.00001, 0.00000, 0.00000, 0.00000, -0.00002
13.675, 0.00001, 0.00000, 0.00000, 0.00000, -0.00002
13.688, 0.00001, 0.00000, 0.00000, 0.00000, -0.00002
13.700, 0.00001, 0.00000, 0.00000, 0.00000, -0.00002
13.713, 0.00001, 0.00000, 0.00000, 0.00000, -0.00002
13.725, 0.00001, 0.00000, 0.00000, 0.00000, -0.00002
13.738, 0.00001, 0.00000, 0.00000, 0.00000, -0.00002
13.750, 0.00001, 0.00000, 0.00000, 0.00000, -0.00002
13.763, 0.00000, 0.00000, 0.00000, 0.00000, -0.00002
13.775, 0.00000, 0.00000, 0.00000, 0.00000, -0.00002
13.788, 0.00000, 0.00000, 0.00000, 0.00000, -0.00002
13.800, 0.00000, 0.00000, 0.00000, 0.00000, -0.00002
13.813, 0.00000, 0.00000, 0.00000, 0.00000, -0.00002
13.825, 0.00000, 0.00000, 0.00000, 0.00000, -0.00002
13.838, 0.00000, 0.00000, 0.00000, 0.00000, -0.00002
13.850, 0.00000, 0.00000, 0.00000, 0.00001, -0.00002
13.863, 0.00000, 0.00000, 0.00000, 0.00001, -0.00002
13.875, 0.00000, 0.00000, 0.00000, 0.00001, -0.00002
13.888, 0.00000, 0.00000, 0.00000, 0.00001, -0.00002
13.900, 0.00000, 0.00000, 0.00000, 0.00001, -0.00002
13.913, 0.00000, 0.00000, 0.00000, 0.00001, -0.00002
13.925, 0.00000, 0.00000, 0.00000, 0.00001, -0.00001
13.938, 0.00000, 0.00000, 0.00000, 0.00001, -0.00001
13.950, 0.00000, 0.00000, 0.00000, 0.00001, -0.00001
13.963, 0.00000, 0.00000, 0.00000, 0.00001, -0.00001
13.975, 0.00000, 0.00000, 0.00000, 0.00001, -0.00001
13.988, -0.00000, 0.00000, 0.00000, 0.00001, -0.00001
14.000, -0.00000, 0.00000, 0.00000, 0.00001, -0.00001
14.013, -0.00000, 0.00000, 0.00000, 0.00001, -0.00001
14.025, -0.00000, 0.00000, 0.00000, 0.00001, -0.00001
14.038, -0.00000, 0.00000, 0.00000, 0.00001, -0.00000
14.050, -0.00000, 0.00000, 0.00000, 0.00001, -0.00000
14.063, -0.00000, 0.00000, 0.00000, 0.00001, -0.00000
14.075, -0.00000, 0.00000, 0.00000, 0.00001, 0.00000
14.088, -0.00000, 0.00000, 0.00000, 0.00001, 0.00000
14.100, -0.00000, 0.00000, 0.00000, 0.00001, 0.00000
14.113, -0.00000, 0.00000, 0.00000, 0.00001, 0.00001
14.125, -0.00001, 0.00000, 0.00000, 0.00001, 0.00001
14.138, -0.00001, 0.00000, 0.00000, 0.00000, 0.00001
14.150, -0.00001, 0.00000, 0.00000, 0.00000, 0.00001
14.163, -0.00001, 0.00000, 0.00000, 0.00000, 0.00001
14.175, -0.00001, 0.00000, 0.00000, 0.00000, 0.00002
14.188, -0.00001, 0.00000, 0.00000, 0.00000, 0.00002
14.200, -0.00001, 0.00000, 0.00000, 0.00000, 0.00002
14.213, -0.00001, 0.00000, 0.00000, 0.00000, 0.00002
14.225, -0.00001, 0.00000, 0.00000, 0.00000, 0.00003
14.238, -0.00001, 0.00000, 0.00000, 0.00000, 0.00003
14.250, -0.00001, 0.00000, 0.00000, 0.00000, 0.00003
14.263, -0.00001, 0.00000, 0.00000, 0.00000, 0.00003
14.275, -0.00001, 0.00000, 0.00000, 0.00000, 0.00004
14.288, -0.00001, 0.00000, 0.00000, 0.00000, 0.00004
14.300, -0.00002, 0.00000, 0.00000, 0.00000, 0.00004
14.313, -0.00002, 0.00000, 0.00000, 0.00000, 0.00005
14.325, -0.00009, 0.00000, 0.00000, 0.00000, 0.00015
14.338, -0.00050, 0.00000, 0.00000, 0.00000, 0.00060
14.350, -0.00122, 0.00000, 0.00000, 0.00000, 0.00133
14.363, -0.00225, 0.00000, 0.00000, 0.00000, 0.00233
14.375, -0.00359, 0.00000, 0.00000, 0.00000, 0.00362
14.388, -0.00525, 0.00000, 0.00000, 0.00000, 0.00519
14.400, -0.00722, 0.00000, 0.00000, 0.00000, 0.00703
14.413, -0.00950, 0.00000, 0.00000, 0.00000, 0.00916
14.425, -0.01209, 0.00000, 0.00000, 0.00000, 0.01156
14.438, -0.01500, 0.00000, 0.00000, 0.00000, 0.01424
14.450, -0.01822, 0.00000, 0.00000, 0.00000, 0.01721
14.463, -0.02175, 0.00000, 0.00000, 0.00000, 0.02045
14.475, -0.02559, 0.00000, 0.00000, 0.00000, 0.02397
14.488, -0.02975, 0.00000, 0.00000, 0.00000, 0.02777
14.500, -0.03422, 0.00000, 0.00000, 0.00000, 0.03184
14.513, -0.03900, 0.00000, 0.00000, 0.00000, 0.03620
14.525, -0.04400, 0.00000, 0.00000, 0.00000, 0.04084
14.538, -0.04900, 0.00000, 0.00000, 0.00000, 0.04576
14.550, -0.05400, 0.00000, 0.00000, 0.00000, 0.05095
14.563, -0.05900, 0.00000, 0.00000, 0.00000, 0.05643
14.575, -0.06400, 0.00000, 0.00000, 0.00000, 0.06218
14.588, -0.06900, 0.00000, 0.00000, 0.00000, 0.06821
14.600, -0.07400, 0.00000, 0.00000, 0.00000, 0.07452
14.613, -0.07900, 0.00000, 0.00000, 0.00000, 0.08111
14.625, -0.08400, 0.00000, 0.00000, 0.00000, 0.08798
14.638, -0.08900, 0.00000, 0.00000, 0.00000, 0.09513
14.650, -0.09400, 0.00000, 0.00000, 0.00000, 0.10256
14.663, -0.09900, 0.00000, 0.00000, 0.00000, 0.11027
14.675, -0.10400, 0.00000, 0.00000, 0.00000, 0.11826
14.688, -0.10900, 0.00000, 0.00000, 0.00000, 0.12652
14.700, -0.11400, 0.00000, 0.00000, 0.00000, 0.13507
14.713, -0.11900, 0.00000, 0.00000, 0.00000, 0.14389
14.725, -0.12400, 0.00000, 0.00000, 0.00000, 0.15300
14.738, -0.12900, 0.00000, 0.00000, 0.00000, 0.16238
14.750, -0.13400, 0.00000, 0.00000, 0.00000, 0.17204
14.763, -0.13900, 0.00000, 0.00000, 0.00000, 0.18198
14.775, -0.14400, 0.00000, 0.00000, 0.00000, 0.19220
14.788, -0.14900, 0.00000, 0.00000, 0.00000, 0.20270
14.800, -0.15400, 0.00000, 0.00000, 0.00000, 0.21348
14.813, -0.15900, 0.00000, 0.00000, 0.00000, 0.22454
14.825, -0.16400, 0.00000, 0.00000, 0.00000, 0.23587
14.838, -0.16900, 0.00000, 0.00000, 0.00000, 0.24749
14.850, -0.17400, 0.00000, 0.00000, 0.00000, 0.25939
14.863, -0.17900, 0.00000, 0.00000, 0.00000, 0.27156
14.875, -0.18400, 0.00000, 0.00000, 0.00000, 0.28396
14.888, -0.18900, 0.00000, 0.00000, 0.00000, 0.29636
14.900, -0.19400, 0.00000, 0.00000, 0.00000, 0.30874
14.913, -0.19900, 0.00000, 0.00000, 0.00000, 0.32113
14.925, -0.20400, 0.00000, 0.00000, 0.00000, 0.33353
14.938, -0.20900, 0.00000, 0.00000, 0.00000, 0.34592
14.950, -0.21400, 0.00000, 0.00000, 0.00000, 0.35831
14.963, -0.21900, 0.00000, 0.00000, 0.00000, 0.37070
14.975, -0.22400, 0.00000, 0.00000, 0.00000, 0.38309
14.988, -0.22900, 0.00000, 0.00000, 0.00000, 0.39548
15.000, -0.23400, 0.00000, 0.00000, 0.00000, 0.40787
15.013, -0.23900, 0.00000, 0.00000, 0.00000, 0.42028
15.025, -0.24400, 0.00000, 0.00000, 0.00000, 0.43264
15.038, -0.24900, 0.00000, 0.00000, 0.00000, 0.44484
15.050, -0.25400, 0.00000, 0.00000, 0.00000, 0.45673
15.063, -0.25900, 0.00000, 0.00000, 0.00000, 0.46834
15.075, -0.26391, 0.00000, 0.00000, 0.00000, 0.47967
15.088, -0.26850, 0.00000, 0.00000, 0.00000, 0.49072
15.100, -0.27278, 0.00000, 0.00000, 0.00000, 0.50150
15.113, -0.27675, 0.00000, 0.00000, 0.00000, 0.51199
15.125, -0.28041, 0.00000, 0.00000, 0.00000, 0.52221
15.138, -0.28375, 0.00000, 0.00000, 0.00000, 0.53214
15.150, -0.28678, 0.00000, 0.00000, 0.00000, 0.54180
15.163, -0.28950, 0.00000, 0.00000, 0.00000, 0.55118
15.175, -0.29191, 0.00000, 0.00000, 0.00000, 0.56028
15.188, -0.29400, 0.00000, 0.00000, 0.00000, 0.56910
15.200, -0.29578, 0.00000, 0.00000, 0.00000, 0.57764
15.213, -0.29725, 0.00000, 0.00000, 0.00000, 0.58590
15.225, -0.29841, 0.00000, 0.00000, 0.00000, 0.59388
15.238, -0.29925, 0.00000, 0.00000, 0.00000, 0.60158
15.250, -0.29979, 0.00000, 0.00000, 0.00000, 0.60901
15.263, -0.29998, 0.00000, 0.00000, 0.00000, 0.61615
15.275, -0.30001, 0.00000, 0.00000, 0.00000, 0.62302
15.288, -0.30000, 0.00000, 0.00000, 0.00000, 0.62961
15.300, -0.30000, 0.00000, 0.00000, 0.00000, 0.63591
15.313, -0.30000, 0.00000, 0.00000, 0.00000, 0.64194
15.325, -0.30000, 0.00000, 0.00000, 0.00000, 0.64769
15.338, -0.30000, 0.00000, 0.00000, 0.00000, 0.65316
15.350, -0.30000, 0.00000, 0.00000, 0.00000, 0.65835
15.363, -0.30000, 0.00000, 0.00000, 0.00000, 0.66326
15.375, -0.30000, 0.00000, 0.00000, 0.00000, 0.66789
15.388, -0.30000, 0.00000, 0.00000, 0.00000, 0.67225
15.400, -0.30000, 0.00000, 0.00000, 0.00000, 0.67632
15.413, -0.30000, 0.00000, 0.00000, 0.00000, 0.68012
15.425, -0.30000, 0.00000, 0.00000, 0.00000, 0.68363
15.438, -0.30000, 0.00000, 0.00000, 0.00000, 0.68687
15.450, -0.30000, 0.00000, 0.00000, 0.00000, 0.68983
15.463, -0.30000, 0.00000, 0.00000, 0.00000, 0.69250
15.475, -0.30000, 0.00000, 0.00000, 0.00000, 0.69490
15.488, -0.30000, 0.00000, 0.00000, 0.00000, 0.69702
15.500, -0.30000, 0.00000, 0.00000, 0.00000, 0.69886
15.513, -0.30000, 0.00000, 0.00000, 0.00000, 0.70042
15.525, -0.30000, 0.00000, 0.00000, 0.00000, 0.70171
15.538, -0.30000, 0.00000, 0.00000, 0.00000, 0.70271
15.550, -0.30000, 0.00000, 0.00000, 0.00000, 0.70344
15.563, -0.30000, 0.00000, 0.00000, 0.00000, 0.70388
15.575, -0.30000, 0.00000, 0.00000, 0.00000, 0.70405
15.588, -0.30000, 0.00000, 0.00000, 0.00000, 0.70402
15.600, -0.30000, 0.00000, 0.00000, 0.00000, 0.70402
15.613, -0.30000, 0.00000, 0.00000, 0.00000, 0.70403
15.625, -0.30000, 0.00000, 0.00000, 0.00000, 0.70402
15.638, -0.30000, 0.00000, 0.00000, 0.00000, 0.70402
15.650, -0.30000, 0.00000, 0.00000, 0.00000, 0.70402
15.663, -0.30000, 0.00000, 0.00000, 0.00000, 0.70402
15.675, -0.30000, 0.00000, 0.00000, 0.00000, 0.70402
15.688, -0.30000, 0.00000, 0.00000, 0.00000, 0.70402
15.700, -0.30000, 0.00000, 0.00000, 0.00000, 0.70402
15.713, -0.30000, 0.00000, 0.00000, 0.00000, 0.70402
15.725, -0.30000, 0.00000, 0.00000, 0.00000, 0.70402
15.738, -0.30000, 0.00000, 0.00000, 0.00000, 0.70402
15.750, -0.30000, 0.00000, 0.00000, 0.00000, 0.70402
15.763, -0.30000, 0.00000, 0.00000, 0.00000, 0.70402
15.775, -0.30000, 0.00000, 0.00000, 0.00000, 0.70402
15.788, -0.30000, 0.00000, 0.00000, 0.00000, 0.70402
15.800, -0.30000, 0.00000, 0.00000, 0.00000, 0.70402
15.813, -0.30000, 0.00000, 0.00000, 0.00000, 0.70402
15.825, -0.30000, 0.00000, 0.00000, 0.00000, 0.70402
15.838, -0.30000, 0.00000, 0.00000, 0.00000, 0.70402
15.850, -0.30000, 0.00000, 0.00000, 0.00000, 0.70402
15.863, -0.30000, 0.00000, 0.00000, 0.00000, 0.70402
15.875, -0.30000, 0.00000, 0.00000, 0.00000, 0.70402
15.888, -0.30000, 0.00000, 0.00000, 0.00000, 0.70402
15.900, -0.30000, 0.00000, 0.00000, 0.00000, 0.70402
15.913, -0.30000, 0.00000, 0.00000, 0.00000, 0.70402
15.925, -0.30000, 0.00000, 0.00000, 0.00000, 0.70402
15.938, -0.30000, 0.00000, 0.00000, 0.00000, 0.70402
15.950, -0.30000, 0.00000, 0.00000, 0.00000, 0.70402
15.963, -0.30000, 0.00000, 0.00000, 0.00000, 0.70402
15.975, -0.30000, 0.00000, 0.00000, 0.00000, 0.70402
15.988, -0.30000, 0.00000, 0.00000, 0.00000, 0.70402
16.000, -0.30000, 0.00000, 0.00000, 0.00000, 0.70402
16.013, -0.30000, 0.00000, 0.00000, 0.00000, 0.70402
16.025, -0.30000, 0.00000, 0.00000, 0.00000, 0.70402
16.038, -0.30000, 0.00000, 0.00000, 0.00000, 0.70402
16.050, -0.30000, 0.00000, 0.00000, 0.00000, 0.70402
16.063, -0.30000, 0.00000, 0.00000, 0.00000, 0.70402
16.075, -0.30000, 0.00000, 0.00000, 0.00000, 0.70402
16.088, -0.30000, 0.00000, 0.00000, 0.00000, 0.70402
16.100, -0.30000, 0.00000, 0.00000, 0.00000, 0.70402
16.113, -0.30000, 0.00000, 0.00000, 0.00000, 0.70402
16.125, -0.30000, 0.00000, 0.00000, 0.00000, 0.70402
16.138, -0.30000, 0.00000, 0.00000, 0.00000, 0.70402
16.150, -0.30000, 0.00000, 0.00000, 0.00000, 0.70402
16.163, -0.30000, 0.00000, 0.00000, 0.00000, 0.70402
16.175, -0.30000, 0.00000, 0.00000, 0.00000, 0.70402
16.188, -0.30000, 0.00000, 0.00000, 0.00000, 0.70402
16.200, -0.30000, 0.00000, 0.00000, 0.00000, 0.70402
16.213, -0.30000, 0.00000, 0.00000, 0.00000, 0.70402
16.225, -0.30000, 0.00000, 0.00000, 0.00000, 0.70402
16.238, -0.30000, 0.00000, 0.00000, 0.00000, 0.70402
16.250, -0.30000, 0.00000, 0.00000, 0.00000, 0.70402
16.263, -0.30000, 0.00000, 0.00000, 0.00000, 0.70402
16.275, -0.30000, 0.00000, 0.00000, 0.00000, 0.70402
16.288, -0.30000, 0.00000, 0.00000, 0.00000, 0.70402
16.300, -0.30000, 0.00000, 0.00000, 0.00000, 0.70402
16.313, -0.30000, 0.00000, 0.00000, 0.00000, 0.70402
16.325, -0.30000, 0.00000, 0.00000, 0.00000, 0.70402
16.338, -0.30000, 0.00000, 0.00000, 0.00000, 0.70402
16.350, -0.30000, 0.00000, 0.00000, 0.00000, 0.70402
16.363, -0.30000, 0.00000, 0.00000, 0.00000, 0.70402
16.375, -0.30000, 0.00000, 0.00000, 0.00000, 0.70402
16.388, -0.30000, 0.00000, 0.00000, 0.00000, 0.70402
16.400, -0.30000, 0.00000, 0.00000, 0.00000, 0.70402
16.413, -0.30000, 0.00000, 0.00000, 0.00000, 0.70402
16.425, -0.30000, 0.00000, 0.00000, 0.00000, 0.70402
16.438, -0.30000, 0.00000, 0.00000, 0.00000, 0.70402
16.450, -0.30000, 0.00000, 0.00000, 0.00000, 0.70402
16.463, -0.30000, 0.00000, 0.00000, 0.00000, 0.70402
16.475, -0.30000, 0.00000, 0.00000, 0.00000, 0.70402
16.488, -0.30000, 0.00000, 0.00000, 0.00000, 0.70402
16.500, -0.30000, 0.00000, 0.00000, 0.00000, 0.70402
16.513, -0.30000, 0.00000, 0.00000, 0.00000, 0.70402
16.525, -0.30000, 0.00000, 0.00000, 0.00000, 0.70402
16.538, -0.30000, 0.00000, 0.00000, 0.00000, 0.70404
16.550, -0.30000, 0.00000, 0.00000, 0.00000, 0.70399
16.563, -0.30000, 0.00000, 0.00000, 0.00000, 0.70368
16.575, -0.30000, 0.00000, 0.00000, 0.00000, 0.70309
16.588, -0.30000, 0.00000, 0.00000, 0.00000, 0.70222
16.600, -0.30000, 0.00000, 0.00000, 0.00000, 0.70107
16.613, -0.30000, 0.00000, 0.00000, 0.00000, 0.69964
16.625, -0.30000, 0.00000, 0.00000, 0.00000, 0.69794
16.638, -0.30000, 0.00000, 0.00000, 0.00000, 0.69595
16.650, -0.30000, 0.00000, 0.00000, 0.00000, 0.69368
16.663, -0.30000, 0.00000, 0.00000, 0.00000, 0.69114
16.675, -0.30000, 0.00000, 0.00000, 0.00000, 0.68832
16.688, -0.30000, 0.00000, 0.00000, 0.00000, 0.68521
16.700, -0.30000, 0.00000, 0.00000, 0.00000, 0.68183
16.713, -0.30000, 0.00000, 0.00000, 0.00000, 0.67817
16.725, -0.30000, 0.00000, 0.00000, 0.00000, 0.67423
16.738, -0.30000, 0.00000, 0.00000, 0.00000, 0.67001
16.750, -0.30000, 0.00000, 0.00000, 0.00000, 0.66551
16.763, -0.30000, 0.00000, 0.00000, 0.00000, 0.66073
16.775, -0.30000, 0.00000, 0.00000, 0.00000, 0.65567
16.788, -0.30000, 0.00000, 0.00000, 0.00000, 0.65034
16.800, -0.30000, 0.00000, 0.00000, 0.00000, 0.64472
16.813, -0.30000, 0.00000, 0.00000, 0.00000, 0.63883
16.825, -0.30000, 0.00000, 0.00000, 0.00000, 0.63265
16.838, -0.30001, 0.00000, 0.00000, 0.00000, 0.62620
16.850, -0.30001, 0.00000, 0.00000, 0.00000, 0.61947
16.863, -0.29989, 0.00000, 0.00000, 0.00000, 0.61246
16.875, -0.29947, 0.00000, 0.00000, 0.00000, 0.60517
16.888, -0.29873, 0.00000, 0.00000, 0.00000, 0.59760
16.900, -0.29768, 0.00000, 0.00000, 0.00000, 0.58975
16.913, -0.29632, 0.00000, 0.00000, 0.00000, 0.58162
16.925, -0.29464, 0.00000, 0.00000, 0.00000, 0.57321
16.938, -0.29265, 0.00000, 0.00000, 0.00000, 0.56453
16.950, -0.29035, 0.00000, 0.00000, 0.00000, 0.55556
16.963, -0.28774, 0.00000, 0.00000, 0.00000, 0.54632
16.975, -0.28481, 0.00000, 0.00000, 0.00000, 0.53679
16.988, -0.28158, 0.00000, 0.00000, 0.00000, 0.52699
17.000, -0.27803, 0.00000, 0.00000, 0.00000, 0.51691
17.013, -0.27416, 0.00000, 0.00000, 0.00000, 0.50655
17.025, -0.26999, 0.00000, 0.00000, 0.00000, 0.49591
17.038, -0.26549, 0.00000, 0.00000, 0.00000, 0.48499
17.050, -0.26070, 0.00000, 0.00000, 0.00000, 0.47379
17.063, -0.25569, 0.00000, 0.00000, 0.00000, 0.46231
17.075, -0.25069, 0.00000, 0.00000, 0.00000, 0.45056
17.088, -0.24569, 0.00000, 0.00000, 0.00000, 0.43850
17.100, -0.24069, 0.00000, 0.00000, 0.00000, 0.42620
17.113, -0.23569, 0.00000, 0.00000, 0.00000, 0.41380
17.125, -0.23069, 0.00000, 0.00000, 0.00000, 0.40140
17.138, -0.22569, 0.00000, 0.00000, 0.00000, 0.38901
17.150, -0.22069, 0.00000, 0.00000, 0.00000, 0.37662
17.163, -0.21569, 0.00000, 0.00000, 0.00000, 0.36423
17.175, -0.21069, 0.00000, 0.00000, 0.00000, 0.35184
17.188, -0.20569, 0.00000, 0.00000, 0.00000, 0.33945
17.200, -0.20069, 0.00000, 0.00000, 0.00000, 0.32706
17.213, -0.19569, 0.00000, 0.00000, 0.00000, 0.31466
17.225, -0.19069, 0.00000, 0.00000, 0.00000, 0.30227
17.238, -0.18569, 0.00000, 0.00000, 0.00000, 0.28989
17.250, -0.18069, 0.00000, 0.00000, 0.00000, 0.27747
17.263, -0.17569, 0.00000, 0.00000, 0.00000, 0.26517
17.275, -0.17069, 0.00000, 0.00000, 0.00000, 0.25314
17.288, -0.16569, 0.00000, 0.00000, 0.00000, 0.24139
17.300, -0.16069, 0.00000, 0.00000, 0.00000, 0.22992
17.313, -0.15569, 0.00000, 0.00000, 0.00000, 0.21873
17.325, -0.15069, 0.00000, 0.00000, 0.00000, 0.20782
17.338, -0.14569, 0.00000, 0.00000, 0.00000, 0.19718
17.350, -0.14069, 0.00000, 0.00000, 0.00000, 0.18683
17.363, -0.13569, 0.00000, 0.00000, 0.00000, 0.17675
17.375, -0.13069, 0.00000, 0.00000, 0.00000, 0.16696
17.388, -0.12569, 0.00000, 0.00000, 0.00000, 0.15744
17.400, -0.12069, 0.00000, 0.00000, 0.00000, 0.14821
17.413, -0.11569, 0.00000, 0.00000, 0.00000, 0.13925
17.425, -0.11069, 0.00000, 0.00000, 0.00000, 0.13057
17.438, -0.10569, 0.00000, 0.00000, 0.00000, 0.12217
17.450, -0.10069, 0.00000, 0.00000, 0.00000, 0.11405
17.463, -0.09569, 0.00000, 0.00000, 0.00000, 0.10621
17.475, -0.09069, 0.00000, 0.00000, 0.00000, 0.09865
17.488, -0.08569, 0.00000, 0.00000, 0.00000, 0.09137
17.500, -0.08069, 0.00000, 0.00000, 0.00000, 0.08436
17.513, -0.07569, 0.00000, 0.00000, 0.00000, 0.07764
17.525, -0.07069, 0.00000, 0.00000, 0.00000, 0.07119
17.538, -0.06569, 0.00000, 0.00000, 0.00000, 0.06503
17.550, -0.06069, 0.00000, 0.00000, 0.00000, 0.05914
17.563, -0.05569, 0.00000, 0.00000, 0.00000, 0.05353
17.575, -0.05069, 0.00000, 0.00000, 0.00000, 0.04820
17.588, -0.04569, 0.00000, 0.00000, 0.00000, 0.04315
17.600, -0.04070, 0.00000, 0.00000, 0.00000, 0.03838
17.613, -0.03580, 0.00000, 0.00000, 0.00000, 0.03389
17.625, -0.03122, 0.00000, 0.00000, 0.00000, 0.02968
17.638, -0.02697, 0.00000, 0.00000, 0.00000, 0.02575
17.650, -0.02301, 0.00000, 0.00000, 0.00000, 0.02209
17.663, -0.01938, 0.00000, 0.00000, 0.00000, 0.01872
17.675, -0.01605, 0.00000, 0.00000, 0.00000, 0.01562
17.688, -0.01304, 0.00000, 0.00000, 0.00000, 0.01281
17.700, -0.01034, 0.00000, 0.00000, 0.00000, 0.01027
17.713, -0.00795, 0.00000, 0.00000, 0.00000, 0.00801
17.725, -0.00588, 0.00000, 0.00000, 0.00000, 0.00603
17.738, -0.00412, 0.00000, 0.00000, 0.00000, 0.00434
17.750, -0.00267, 0.00000, 0.00000, 0.00000, 0.00291
17.763, -0.00153, 0.00000, 0.00000, 0.00000, 0.00177
17.775, -0.00071, 0.00000, 0.00000, 0.00000, 0.00091
17.788, -0.00019, 0.00000, 0.00000, 0.00000, 0.00033
17.800, 0.00001, -0.00000, -0.00000, 0.00000, 0.00002
17.813, 0.00001, -0.00000, -0.00000, 0.00000, 0.00002
17.825, 0.00000, -0.00000, -0.00000, 0.00000, 0.00002
17.838, 0.00000, -0.00000, -0.00000, 0.00000, 0.00002
17.850, 0.00000, -0.00000, -0.00000, 0.00000, 0.00001
17.863, 0.00000, -0.00000, -0.00000, 0.00001, 0.00001
17.875, 0.00000, -0.00000, -0.00000, 0.00001, 0.00001
17.888, 0.00000, -0.00000, -0.00000, 0.00001, 0.00001
17.900, 0.00000, -0.00000, -0.00000, 0.00001, 0.00001
17.913, 0.00000, -0.00000, -0.00000, 0.00001, 0.00000
17.925, 0.00000, -0.00000, -0.00000, 0.00001, 0.00000
17.938, 0.00000, -0.00000, -0.00000, 0.00001, 0.00000
17.950, 0.00000, -0.00000, -0.00000, 0.00001, -0.00000
17.963, 0.00000, -0.00000, -0.00000, 0.00001, -0.00000
17.975, 0.00000, -0.00000, -0.00000, 0.00001, -0.00000
17.988, 0.00000, -0.00000, -0.00000, 0.00001, -0.00001
18.000, 0.00000, -0.00000, -0.00000, 0.00001, -0.00001
18.013, 0.00000, -0.00000, -0.00000, 0.00001, -0.00001
18.025, 0.00000, -0.00000, -0.00000, 0.00001, -0.00001
18.038, 0.00000, -0.00000, -0.00001, 0.00001, -0.00001
18.050, 0.00000, -0.00000, -0.00001, 0.00001, -0.00001
18.063, 0.00000, -0.00000, -0.00001, 0.00001, -0.00001
18.075, 0.00000, -0.00000, -0.00001, 0.00001, -0.00001
18.088, 0.00000, -0.00000, -0.00001, 0.00001, -0.00002
18.100, 0.00000, -0.00000, -0.00001, 0.00001, -0.00002
18.113, 0.00000, -0.00000, -0.00001, 0.00002, -0.00002
18.125, 0.00000, -0.00000, -0.00001, 0.00002, -0.00002
18.138, -0.00000, -0.00000, -0.00001, 0.00002, -0.00002
18.150, -0.00000, -0.00000, -0.00001, 0.00002, -0.00002
18.163, -0.00000, -0.00000, -0.00001, 0.00001, -0.00002
18.175, -0.00000, -0.00000, -0.00001, 0.00001, -0.00002
18.188, -0.00000, -0.00000, -0.00001, 0.00001, -0.00002
18.200, -0.00000, -0.00000, -0.00001, 0.00001, -0.00002
18.213, -0.00000, -0.00000, -0.00001, 0.00001, -0.00002
18.225, -0.00000, -0.00000, -0.00001, 0.00001, -0.00002
18.238, -0.00000, -0.00000, -0.00001, 0.00001, -0.00002
18.250, -0.00000, -0.00000, -0.00000, 0.00001, -0.00002
18.263, -0.00000, -0.00000, -0.00000, 0.00001, -0.00002
18.275, -0.00000, -0.00000, -0.00000, 0.00001, -0.00002
18.288, -0.00000, -0.00000, -0.00000, 0.00001, -0.00002
18.300, -0.00000, -0.00000, -0.00000, 0.00001, -0.00002
18.313, -0.00000, -0.00000, -0.00000, 0.00001, -0.00002
18.325, -0.00000, -0.00000, -0.00000, 0.00001, -0.00002
18.338, -0.00000, -0.00000, -0.00000, 0.00001, -0.00002
18.350, -0.00000, -0.00000, -0.00000, 0.00001, -0.00002
18.363, -0.00000, -0.00000, -0.00000, 0.00001, -0.00002
18.375, -0.00000, -0.00000, -0.00000, 0.00001, -0.00002
18.388, -0.00000, -0.00000, -0.00000, 0.00001, -0.00002
18.400, -0.00000, -0.00000, -0.00000, 0.00001, -0.00001
18.413, -0.00000, -0.00000, -0.00000, 0.00000, -0.00001
18.425, -0.00000, -0.00000, -0.00000, 0.00000, -0.00001
18.438, -0.00000, -0.00000, -0.00000, 0.00000, -0.00001
18.450, -0.00000, -0.00000, -0.00000, 0.00000, -0.00001
18.463, -0.00000, -0.00000, -0.00000, 0.00000, -0.00001
18.475, -0.00000, 0.00000, 0.00000, -0.00000, -0.00001
18.488, -0.00000, 0.00000, 0.00000, -0.00000, -0.00001
18.500, -0.00000, 0.00000, 0.00000, -0.00000, -0.00000
18.513, -0.00000, 0.00000, 0.00000, -0.00000, -0.00000
18.525, -0.00000, 0.00000, 0.00000, -0.00001, -0.00000
18.538, -0.00000, 0.00000, 0.00000, -0.00001, 0.00000
18.550, -0.00000, 0.00000, 0.00000, -0.00001, 0.00000
18.563, -0.00000, 0.00000, 0.00000, -0.00001, 0.00000
18.575, -0.00000, 0.00000, 0.00000, -0.00001, 0.00001
18.588, -0.00000, 0.00000, 0.00000, -0.00001, 0.00001
18.600, -0.00000, 0.00000, 0.00001, -0.00001, 0.00001
18.613, -0.00000, 0.00000, 0.00001, -0.00002, 0.00001
18.625, -0.00000, 0.00000, 0.00001, -0.00002, 0.00002
18.638, -0.00000, 0.00000, 0.00001, -0.00002, 0.00002
18.650, -0.00000, 0.00001, 0.00001, -0.00002, 0.00002
18.663, -0.00000, 0.00001, 0.00001, -0.00002, 0.00002
18.675, -0.00000, 0.00001, 0.00001, -0.00002, 0.00003
18.688, -0.00000, 0.00001, 0.00001, -0.00003, 0.00003
18.700, -0.00000, 0.00001, 0.00001, -0.00003, 0.00003
18.713, -0.00000, 0.00001, 0.00001, -0.00003, 0.00003
18.725, -0.00000, 0.00001, 0.00001, -0.00003, 0.00004
18.738, -0.00000, 0.00001, 0.00001, -0.00003, 0.00004
18.750, -0.00000, 0.00001, 0.00001, -0.00004, 0.00004
18.763, -0.00000, 0.00001, 0.00001, -0.00004, 0.00005
18.775, -0.00000, 0.00001, 0.00002, -0.00004, 0.00005
18.788, -0.00000, 0.00001, 0.00002, -0.00004, 0.00005
18.800, 0.00000, 0.00001, 0.00002, -0.00005, 0.00006
18.813, 0.00000, 0.00011, 0.00030, -0.00035, 0.00057
18.825, 0.00000, 0.00029, 0.00089, -0.00091, 0.00155
18.838, 0.00000, 0.00055, 0.00180, -0.00172, 0.00300
18.850, 0.00000, 0.00090, 0.00302, -0.00278, 0.00492
18.863, 0.00000, 0.00134, 0.00455, -0.00409, 0.00730
18.875, 0.00000, 0.00186, 0.00639, -0.00564, 0.01015
18.888, 0.00000, 0.00247, 0.00855, -0.00745, 0.01347
18.900, 0.00000, 0.00316, 0.01102, -0.00951, 0.01726
18.913, 0.00000, 0.00394, 0.01380, -0.01181, 0.02152
18.925, 0.00000, 0.00480, 0.01689, -0.01437, 0.02624
18.938, 0.00000, 0.00574, 0.02030, -0.01718, 0.03143
18.950, 0.00000, 0.00678, 0.02402, -0.02023, 0.03709
18.963, 0.00000, 0.00789, 0.02805, -0.02354, 0.04321
18.975, 0.00000, 0.00910, 0.03239, -0.02709, 0.04981
18.988, 0.00000, 0.01039, 0.03705, -0.03090, 0.05687
19.000, 0.00000, 0.01176, 0.04202, -0.03495, 0.06440
19.013, 0.00000, 0.01322, 0.04730, -0.03925, 0.07240
19.025, 0.00000, 0.01476, 0.05289, -0.04381, 0.08086
19.038, 0.00000, 0.01639, 0.05880, -0.04861, 0.08979
19.050, 0.00000, 0.01810, 0.06502, -0.05367, 0.09919
19.063, 0.00000, 0.01990, 0.07155, -0.05897, 0.10906
19.075, 0.00000, 0.02179, 0.07839, -0.06452, 0.11940
19.088, 0.00000, 0.02376, 0.08555, -0.07032, 0.13020
19.100, 0.00000, 0.02581, 0.09302, -0.07637, 0.14147
19.113, 0.00000, 0.02795, 0.10080, -0.08268, 0.15321
19.125, 0.00000, 0.03018, 0.10889, -0.08923, 0.16542
19.138, 0.00000, 0.03249, 0.11730, -0.09603, 0.17809
19.150, 0.00000, 0.03489, 0.12600, -0.10308, 0.19123
19.163, 0.00000, 0.03737, 0.13475, -0.11038, 0.20484
19.175, 0.00000, 0.03993, 0.14350, -0.11793, 0.21892
19.188, 0.00000, 0.04259, 0.15225, -0.12573, 0.23346
19.200, 0.00000, 0.04532, 0.16100, -0.13378, 0.24848
19.213, 0.00000, 0.04814, 0.16975, -0.14208, 0.26396
19.225, 0.00000, 0.05105, 0.17850, -0.15063, 0.27991
19.238, 0.00000, 0.05404, 0.18725, -0.15942, 0.29632
19.250, 0.00000, 0.05712, 0.19600, -0.16847, 0.31321
19.263, 0.00000, 0.06028, 0.20475, -0.17777, 0.33054
19.275, 0.00000, 0.06353, 0.21350, -0.18732, 0.34806
19.288, 0.00000, 0.06687, 0.22225, -0.19712, 0.36553
19.300, 0.00000, 0.07028, 0.23098, -0.20716, 0.38301
19.313, 0.00000, 0.07379, 0.23945, -0.21746, 0.40049
19.325, 0.00000, 0.07738, 0.24761, -0.22801, 0.41797
19.338, 0.00000, 0.08104, 0.25545, -0.23880, 0.43545
19.350, 0.00000, 0.08473, 0.26298, -0.24985, 0.45293
19.363, 0.00000, 0.08841, 0.27020, -0.26115, 0.47041
19.375, 0.00000, 0.09209, 0.27711, -0.27265, 0.48789
19.388, 0.00000, 0.09577, 0.28370, -0.28416, 0.50540
19.400, 0.00000, 0.09945, 0.28998, -0.29566, 0.52273
19.413, 0.00000, 0.10312, 0.29595, -0.30716, 0.53964
19.425, 0.00000, 0.10680, 0.30161, -0.31867, 0.55605
19.438, 0.00000, 0.11048, 0.30695, -0.33017, 0.57201
19.450, 0.00000, 0.11416, 0.31198, -0.34167, 0.58750
19.463, 0.00000, 0.11784, 0.31670, -0.35318, 0.60252
19.475, 0.00000, 0.12152, 0.32111, -0.36468, 0.61707
19.488, 0.00000, 0.12520, 0.32520, -0.37618, 0.63115
19.500, 0.00000, 0.12888, 0.32898, -0.38768, 0.64477
19.513, 0.00000, 0.13256, 0.33245, -0.39919, 0.65792
19.525, 0.00000, 0.13624, 0.33561, -0.41071, 0.67060
19.538, 0.00000, 0.13992, 0.33845, -0.42213, 0.68281
19.550, 0.00000, 0.14360, 0.34098, -0.43333, 0.69455
19.563, 0.00000, 0.14728, 0.34320, -0.44427, 0.70583
19.575, 0.00000, 0.15092, 0.34511, -0.45495, 0.71664
19.588, 0.00000, 0.15448, 0.34670, -0.46539, 0.72698
19.600, 0.00000, 0.15795, 0.34798, -0.47558, 0.73686
19.613, 0.00000, 0.16134, 0.34895, -0.48552, 0.74626
19.625, 0.00000, 0.16464, 0.34961, -0.49521, 0.75520
19.638, 0.00000, 0.16786, 0.34994, -0.50465, 0.76367
19.650, 0.00000, 0.17099, 0.35002, -0.51383, 0.77168
19.663, 0.00000, 0.17404, 0.35000, -0.52277, 0.77921
19.675, 0.00000, 0.17700, 0.35000, -0.53146, 0.78628
19.688, 0.00000, 0.17987, 0.35000, -0.53990, 0.79288
19.700, 0.00000, 0.18266, 0.35000, -0.54809, 0.79901
19.713, 0.00000, 0.18537, 0.35000, -0.55603, 0.80468
19.725, 0.00000, 0.18799, 0.35000, -0.56372, 0.80987
19.738, 0.00000, 0.19052, 0.35000, -0.57117, 0.81460
19.750, 0.00000, 0.19297, 0.35000, -0.57836, 0.81886
19.763, 0.00000, 0.19534, 0.35000, -0.58530, 0.82266
19.775, 0.00000, 0.19762, 0.35000, -0.59199, 0.82598
19.788, 0.00000, 0.19981, 0.35000, -0.59843, 0.82884
19.800, 0.00000, 0.20192, 0.35000, -0.60463, 0.83123
19.813, 0.00000, 0.20394, 0.35000, -0.61057, 0.83316
19.825, 0.00000, 0.20588, 0.35000, -0.61626, 0.83461
19.838, 0.00000, 0.20773, 0.35000, -0.62171, 0.83560
19.850, 0.00000, 0.20950, 0.35000, -0.62690, 0.83611
19.863, 0.00000, 0.21119, 0.35000, -0.63184, 0.83620
19.875, 0.00000, 0.21278, 0.35000, -0.63654, 0.83617
19.888, 0.00000, 0.21430, 0.35000, -0.64098, 0.83618
19.900, 0.00000, 0.21572, 0.35000, -0.64518, 0.83618
19.913, 0.00000, 0.21706, 0.35000, -0.64912, 0.83618
19.925, 0.00000, 0.21832, 0.35000, -0.65282, 0.83618
19.938, 0.00000, 0.21949, 0.35000, -0.65626, 0.83618
19.950, 0.00000, 0.22058, 0.35000, -0.65946, 0.83618
19.963, 0.00000, 0.22158, 0.35000, -0.66241, 0.83618
19.975, 0.00000, 0.22249, 0.35000, -0.66510, 0.83618
19.988, 0.00000, 0.22333, 0.35000, -0.66755, 0.83618
20.000, 0.00000, 0.22407, 0.35000, -0.66975, 0.83618
20.013, 0.00000, 0.22473, 0.35000, -0.67170, 0.83618
20.025, 0.00000, 0.22531, 0.35000, -0.67339, 0.83618
20.038, 0.00000, 0.22580, 0.35000, -0.67484, 0.83618
20.050, 0.00000, 0.22620, 0.35000, -0.67604, 0.83618
20.063, 0.00000, 0.22652, 0.35000, -0.67699, 0.83618
20.075, 0.00000, 0.22675, 0.35000, -0.67769, 0.83618
20.088, 0.00000, 0.22690, 0.35000, -0.67814, 0.83618
20.100, 0.00000, 0.22696, 0.35000, -0.67833, 0.83618
20.113, 0.00000, 0.22697, 0.35000, -0.67835, 0.83618
20.125, 0.00000, 0.22696, 0.35000, -0.67832, 0.83618
20.138, 0.00000, 0.22696, 0.35000, -0.67833, 0.83618
20.150, 0.00000, 0.22696, 0.35000, -0.67833, 0.83618
20.163, 0.00000, 0.22696, 0.35000, -0.67833, 0.83618
20.175, 0.00000, 0.22696, 0.35000, -0.67833, 0.83618
20.188, 0.00000, 0.22696, 0.35000, -0.67833, 0.83618
20.200, 0.00000, 0.22696, 0.35000, -0.67833, 0.83618
20.213, 0.00000, 0.22696, 0.35000, -0.67833, 0.83618
20.225, 0.00000, 0.22696, 0.35000, -0.67833, 0.83618
20.238, 0.00000, 0.22696, 0.35000, -0.67833, 0.83618
20.250, 0.00000, 0.22696, 0.35000, -0.67833, 0.83618
20.263, 0.00000, 0.22696, 0.35000, -0.67833, 0.83618
20.275, 0.00000, 0.22696, 0.35000, -0.67833, 0.83618
20.288, 0.00000, 0.22696, 0.35000, -0.67833, 0.83618
20.300, 0.00000, 0.22696, 0.35000, -0.67833, 0.83618
20.313, 0.00000, 0.22696, 0.35000, -0.67833, 0.83618
20.325, 0.00000, 0.22696, 0.35000, -0.67833, 0.83618
20.338, 0.00000, 0.22696, 0.35000, -0.67833, 0.83618
20.350, 0.00000, 0.22696, 0.35000, -0.67833, 0.83618
20.363, 0.00000, 0.22696, 0.35000, -0.67833, 0.83618
20.375, 0.00000, 0.22696, 0.35000, -0.67833, 0.83618
20.388, 0.00000, 0.22696, 0.35000, -0.67832, 0.83618
20.400, 0.00000, 0.22696, 0.35000, -0.67833, 0.83618
20.413, 0.00000, 0.22696, 0.35000, -0.67834, 0.83618
20.425, 0.00000, 0.22697, 0.35000, -0.67825, 0.83618
20.438, 0.00000, 0.22693, 0.35000, -0.67795, 0.83618
20.450, 0.00000, 0.22680, 0.35000, -0.67736, 0.83618
20.463, 0.00000, 0.22659, 0.35000, -0.67653, 0.83618
20.475, 0.00000, 0.22629, 0.35000, -0.67545, 0.83618
20.488, 0.00000, 0.22591, 0.35000, -0.67412, 0.83618
20.500, 0.00000, 0.22545, 0.35000, -0.67255, 0.83618
20.513, 0.00000, 0.22489, 0.35000, -0.67072, 0.83618
20.525, 0.00000, 0.22426, 0.35000, -0.66864, 0.83618
20.538, 0.00000, 0.22353, 0.35000, -0.66632, 0.83618
20.550, 0.00000, 0.22273, 0.35000, -0.66374, 0.83618
20.563, 0.00000, 0.22183, 0.35000, -0.66091, 0.83618
20.575, 0.00000, 0.22086, 0.35000, -0.65784, 0.83618
20.588, 0.00000, 0.21979, 0.35000, -0.65451, 0.83618
20.600, 0.00000, 0.21864, 0.35000, -0.65094, 0.83618
20.613, 0.00000, 0.21741, 0.35000, -0.64711, 0.83618
20.625, 0.00000, 0.21609, 0.35000, -0.64304, 0.83618
20.638, 0.00000, 0.21469, 0.35000, -0.63872, 0.83618
20.650, 0.00000, 0.21320, 0.35000, -0.63414, 0.83618
20.663, 0.00000, 0.21162, 0.35000, -0.62932, 0.83618
20.675, 0.00000, 0.20996, 0.35000, -0.62425, 0.83618
20.688, 0.00000, 0.20822, 0.35000, -0.61892, 0.83580
20.700, 0.00000, 0.20639, 0.35000, -0.61335, 0.83495
20.713, 0.00000, 0.20447, 0.35000, -0.60753, 0.83364
20.725, 0.00000, 0.20247, 0.35000, -0.60146, 0.83185
20.738, 0.00000, 0.20039, 0.35000, -0.59513, 0.82960
20.750, 0.00000, 0.19822, 0.35000, -0.58856, 0.82688
20.763, 0.00000, 0.19596, 0.35000, -0.58174, 0.82369
20.775, 0.00000, 0.19362, 0.35000, -0.57467, 0.82004
20.788, 0.00000, 0.19119, 0.35000, -0.56735, 0.81591
20.800, 0.00000, 0.18868, 0.35000, -0.55978, 0.81132
20.813, 0.00000, 0.18608, 0.35000, -0.55196, 0.80626
20.825, 0.00000, 0.18340, 0.35000, -0.54389, 0.80074
20.838, 0.00000, 0.18063, 0.35000, -0.53557, 0.79474
20.850, 0.00000, 0.17778, 0.35000, -0.52700, 0.78828
20.863, 0.00000, 0.17484, 0.35000, -0.51818, 0.78135
20.875, 0.00000, 0.17182, 0.35000, -0.50912, 0.77396
20.888, 0.00000, 0.16871, 0.34998, -0.49980, 0.76609
20.900, 0.00000, 0.16552, 0.34974, -0.49023, 0.75776
20.913, 0.00000, 0.16224, 0.34917, -0.48041, 0.74896
20.925, 0.00000, 0.15888, 0.34828, -0.47035, 0.73969
20.938, 0.00000, 0.15543, 0.34709, -0.46003, 0.72996
20.950, 0.00000, 0.15189, 0.34558, -0.44946, 0.71975
20.963, 0.00000, 0.14827, 0.34377, -0.43865, 0.70908
20.975, 0.00000, 0.14459, 0.34163, -0.42758, 0.69794
20.988, 0.00000, 0.14091, 0.33919, -0.41626, 0.68634
21.000, 0.00000, 0.13723, 0.33643, -0.40475, 0.67426
21.013, 0.00000, 0.13355, 0.33336, -0.39324, 0.66172
21.025, 0.00000, 0.12987, 0.32998, -0.38174, 0.64871
21.038, 0.00000, 0.12619, 0.32629, -0.37024, 0.63523
21.050, 0.00000, 0.12251, 0.32228, -0.35873, 0.62129
21.063, 0.00000, 0.11883, 0.31796, -0.34723, 0.60688
21.075, 0.00000, 0.11515, 0.31333, -0.33573, 0.59199
21.088, 0.00000, 0.11148, 0.30839, -0.32422, 0.57665
21.100, 0.00000, 0.10780, 0.30313, -0.31272, 0.56083
21.113, 0.00000, 0.10412, 0.29756, -0.30122, 0.54455
21.125, 0.00000, 0.10044, 0.29168, -0.28972, 0.52780
21.138, 0.00000, 0.09676, 0.28549, -0.27820, 0.51055
21.150, 0.00000, 0.09308, 0.27898, -0.26670, 0.49308
21.163, 0.00000, 0.08940, 0.27216, -0.25529, 0.47559
21.175, 0.00000, 0.08572, 0.26503, -0.24410, 0.45811
21.188, 0.00000, 0.08204, 0.25758, -0.23319, 0.44063
21.200, 0.00000, 0.07836, 0.24983, -0.22252, 0.42315
21.213, 0.00000, 0.07475, 0.24176, -0.21210, 0.40567
21.225, 0.00000, 0.07122, 0.23337, -0.20194, 0.38819
21.238, 0.00000, 0.06778, 0.22470, -0.19202, 0.37071
21.250, 0.00000, 0.06442, 0.21594, -0.18235, 0.35324
21.263, 0.00000, 0.06115, 0.20719, -0.17293, 0.33575
21.275, 0.00000, 0.05797, 0.19844, -0.16376, 0.31830
21.288, 0.00000, 0.05487, 0.18969, -0.15485, 0.30127
21.300, 0.00000, 0.05185, 0.18094, -0.14618, 0.28472
21.313, 0.00000, 0.04892, 0.17219, -0.13776, 0.26863
21.325, 0.00000, 0.04607, 0.16344, -0.12959, 0.25301
21.338, 0.00000, 0.04331, 0.15469, -0.12167, 0.23786
21.350, 0.00000, 0.04064, 0.14594, -0.11399, 0.22318
21.363, 0.00000, 0.03805, 0.13719, -0.10657, 0.20896
21.375, 0.00000, 0.03555, 0.12843, -0.09940, 0.19522
21.388, 0.00000, 0.03313, 0.11971, -0.09248, 0.18193
21.400, 0.00000, 0.03079, 0.11120, -0.08581, 0.16912
21.413, 0.00000, 0.02855, 0.10302, -0.07939, 0.15678
21.425, 0.00000, 0.02638, 0.09515, -0.07321, 0.14490
21.438, 0.00000, 0.02430, 0.08760, -0.06729, 0.13349
21.450, 0.00000, 0.02231, 0.08036, -0.06162, 0.12255
21.463, 0.00000, 0.02040, 0.07342, -0.05620, 0.11207
21.475, 0.00000, 0.01858, 0.06681, -0.05102, 0.10207
21.488, 0.00000, 0.01684, 0.06050, -0.04610, 0.09253
21.500, 0.00000, 0.01519, 0.05451, -0.04142, 0.08346
21.513, 0.00000, 0.01363, 0.04883, -0.03700, 0.07485
21.525, 0.00000, 0.01214, 0.04346, -0.03282, 0.06672
21.538, 0.00000, 0.01075, 0.03840, -0.02890, 0.05905
21.550, 0.00000, 0.00944, 0.03366, -0.02522, 0.05185
21.563, 0.00000, 0.00821, 0.02923, -0.02180, 0.04512
21.575, 0.00000, 0.00707, 0.02511, -0.01862, 0.03885
21.588, 0.00000, 0.00601, 0.02130, -0.01569, 0.03306
21.600, 0.00000, 0.00504, 0.01781, -0.01302, 0.02773
21.613, 0.00000, 0.00416, 0.01463, -0.01059, 0.02287
21.625, 0.00000, 0.00336, 0.01176, -0.00841, 0.01847
21.638, 0.00000, 0.00264, 0.00920, -0.00649, 0.01455
21.650, 0.00000, 0.00202, 0.00696, -0.00481, 0.01109
21.663, 0.00000, 0.00147, 0.00503, -0.00338, 0.00810
21.675, 0.00000, 0.00101, 0.00341, -0.00220, 0.00557
21.688, 0.00000, 0.00064, 0.00211, -0.00127, 0.00352
21.700, 0.00000, 0.00035, 0.00111, -0.00059, 0.00193
21.713, 0.00000, 0.00015, 0.00043, -0.00016, 0.00081
21.725, 0.00000, 0.00003, 0.00006, 0.00002, 0.00016
21.738, -0.00000, 0.00000, 0.00000, 0.00002, 0.00003
21.750, -0.00000, 0.00000, 0.00000, 0.00002, 0.00003
21.763, -0.00000, 0.00000, 0.00000, 0.00002, 0.00003
21.775, -0.00000, 0.00000, 0.00000, 0.00002, 0.00003
21.788, -0.00000, 0.00000, 0.00000, 0.00002, 0.00003
21.800, -0.00000, 0.00000, 0.00000, 0.00002, 0.00003
21.813, -0.00000, 0.00000, 0.00000, 0.00002, 0.00003
21.825, -0.00000, 0.00000, 0.00001, 0.00002, 0.00003
21.838, -0.00000, -0.00000, 0.00001, 0.00002, 0.00003
21.850, -0.00000, -0.00000, 0.00001, 0.00002, 0.00003
21.863, -0.00000, -0.00000, 0.00001, 0.00002, 0.00003
21.875, -0.00000, -0.00000, 0.00001, 0.00002, 0.00003
21.888, -0.00000, -0.00000, 0.00001, 0.00001, 0.00003
21.900, -0.00000, -0.00000, 0.00001, 0.00001, 0.00003
21.913, -0.00000, -0.00000, 0.00001, 0.00001, 0.00003
21.925, -0.00000, -0.00000, 0.00001, 0.00001, 0.00002
21.938, -0.00000, -0.00000, 0.00001, 0.00001, 0.00002
21.950, -0.00000, -0.00000, 0.00001, 0.00001, 0.00002
21.963, -0.00000, -0.00000, 0.00001, 0.00001, 0.00002
21.975, -0.00000, -0.00000, 0.00001, 0.00001, 0.00002
21.988, -0.00000, -0.00000, 0.00001, 0.00001, 0.00002
22.000, -0.00000, -0.00000, 0.00001, 0.00001, 0.00002
22.013, -0.00000, -0.00000, 0.00001, 0.00001, 0.00002
22.025, -0.00000, -0.00001, 0.00001, 0.00001, 0.00002
22.038, -0.00000, -0.00001, 0.00001, 0.00001, 0.00002
22.050, -0.00000, -0.00001, 0.00001, 0.00001, 0.00002
22.063, -0.00000, -0.00001, 0.00001, 0.00001, 0.00002
22.075, -0.00000, -0.00001, 0.00001, 0.00001, 0.00002
22.088, -0.00000, -0.00001, 0.00001, 0.00001, 0.00002
22.100, -0.00000, -0.00001, 0.00001, 0.00001, 0.00002
22.113, -0.00000, -0.00001, 0.00000, 0.00001, 0.00002
22.125, -0.00000, -0.00001, 0.00000, 0.00001, 0.00001
22.138, -0.00000, -0.00001, 0.00000, 0.00001, 0.00001
22.150, -0.00000, -0.00001, 0.00000, 0.00001, 0.00001
22.163, -0.00000, -0.00001, 0.00000, 0.00001, 0.00001
22.175, -0.00000, -0.00001, 0.00000, 0.00000, 0.00001
22.188, -0.00000, -0.00001, 0.00000, 0.00000, 0.00001
22.200, -0.00000, -0.00001, 0.00000, 0.00000, 0.00001
22.213, -0.00000, -0.00001, 0.00000, 0.00000, 0.00001
22.225, -0.00000, -0.00001, 0.00000, 0.00000, 0.00001
22.238, -0.00000, -0.00001, 0.00000, 0.00000, 0.00001
22.250, -0.00000, -0.00001, 0.00000, 0.00000, 0.00000
22.263, -0.00000, -0.00000, 0.00000, 0.00000, 0.00000
22.275, -0.00000, -0.00000, 0.00000, 0.00000, 0.00000
22.288, -0.00000, -0.00000, 0.00000, -0.00000, 0.00000
22.300, -0.00000, -0.00000, 0.00000, -0.00000, 0.00000
22.313, -0.00000, -0.00000, 0.00000, -0.00000, -0.00000
22.325, -0.00000, -0.00000, 0.00000, -0.00000, -0.00000
22.338, -0.00000, -0.00000, 0.00000, -0.00000, -0.00000
22.350, -0.00000, -0.00000, 0.00000, -0.00000, -0.00000
22.363, -0.00000, -0.00000, -0.00000, -0.00000, -0.00001
22.375, -0.00000, -0.00000, -0.00000, -0.00000, -0.00001
22.388, -0.00000, -0.00000, -0.00000, -0.00001, -0.00001
22.400, 0.00000, -0.00000, -0.00000, -0.00001, -0.00001
22.413, 0.00000, -0.00000, -0.00000, -0.00001, -0.00001
22.425, 0.00000, -0.00000, -0.00000, -0.00001, -0.00001
22.438, 0.00000, -0.00000, -0.00000, -0.00001, -0.00001
22.450, 0.00000, 0.00000, -0.00000, -0.00001, -0.00002
22.463, 0.00000, 0.00000, -0.00000, -0.00001, -0.00002
22.475, 0.00000, 0.00000, -0.00000, -0.00001, -0.00002
22.488, 0.00000, 0.00000, -0.00000, -0.00001, -0.00002
22.500, 0.00000, 0.00000, -0.00000, -0.00001, -0.00002
22.513, 0.00000, 0.00000, -0.00001, -0.00001, -0.00002
22.525, 0.00000, 0.00000, -0.00001, -0.00001, -0.00003
22.538, 0.00000, 0.00000, -0.00001, -0.00001, -0.00003
22.550, 0.00000, 0.00001, -0.00001, -0.00002, -0.00003
22.563, 0.00000, 0.00001, -0.00001, -0.00002, -0.00003
22.575, 0.00000, 0.00001, -0.00001, -0.00002, -0.00003
22.588, 0.00000, 0.00001, -0.00001, -0.00002, -0.00003
22.600, 0.00000, 0.00001, -0.00001, -0.00002, -0.00004
22.613, 0.00000, 0.00001, -0.00001, -0.00002, -0.00004
22.625, 0.00000, 0.00001, -0.00001, -0.00002, -0.00004
22.638, 0.00000, 0.00001, -0.00001, -0.00002, -0.00004
22.650, 0.00001, 0.00001, -0.00001, -0.00002, -0.00004
22.663, 0.00001, 0.00001, -0.00001, -0.00002, -0.00004
22.675, 0.00001, 0.00001, -0.00001, -0.00002, -0.00005
22.688, 0.00001, 0.00001, -0.00001, -0.00002, -0.00005
22.700, 0.00001, 0.00001, -0.00001, -0.00003, -0.00005
22.713, 0.00001, 0.00002, -0.00002, -0.00003, -0.00005
22.725, 0.00001, 0.00002, -0.00002, -0.00003, -0.00005
22.738, 0.00003, 0.00015, -0.00014, -0.00008, -0.00030
22.750, 0.00008, 0.00062, -0.00057, -0.00021, -0.00105
22.763, 0.00017, 0.00140, -0.00128, -0.00041, -0.00224
22.775, 0.00028, 0.00249, -0.00227, -0.00066, -0.00388
22.788, 0.00043, 0.00390, -0.00355, -0.00096, -0.00595
22.800, 0.00060, 0.00562, -0.00511, -0.00133, -0.00847
22.813, 0.00080, 0.00765, -0.00695, -0.00176, -0.01143
22.825, 0.00102, 0.00999, -0.00908, -0.00224, -0.01482
22.838, 0.00128, 0.01265, -0.01149, -0.00278, -0.01866
22.850, 0.00156, 0.01562, -0.01418, -0.00338, -0.02294
22.863, 0.00188, 0.01890, -0.01715, -0.00404, -0.02766
22.875, 0.00222, 0.02249, -0.02041, -0.00475, -0.03282
22.888, 0.00259, 0.02640, -0.02395, -0.00553, -0.03842
22.900, 0.00299, 0.03062, -0.02777, -0.00636, -0.04447
22.913, 0.00341, 0.03515, -0.03188, -0.00725, -0.05095
22.925, 0.00387, 0.03999, -0.03627, -0.00820, -0.05787
22.938, 0.00435, 0.04515, -0.04094, -0.00921, -0.06524
22.950, 0.00487, 0.05062, -0.04590, -0.01027, -0.07304
22.963, 0.00541, 0.05640, -0.05113, -0.01140, -0.08129
22.975, 0.00598, 0.06249, -0.05666, -0.01258, -0.08997
22.988, 0.00658, 0.06890, -0.06246, -0.01382, -0.09910
23.000, 0.00720, 0.07562, -0.06855, -0.01512, -0.10867
23.013, 0.00786, 0.08265, -0.07492, -0.01647, -0.11868
23.025, 0.00854, 0.08999, -0.08157, -0.01789, -0.12912
23.038, 0.00925, 0.09765, -0.08850, -0.01936, -0.14001
23.050, 0.00999, 0.10561, -0.09572, -0.02089, -0.15134
23.063, 0.01076, 0.11390, -0.10322, -0.02248, -0.16312
23.075, 0.01156, 0.12249, -0.11101, -0.02413, -0.17533
23.088, 0.01239, 0.13125, -0.11908, -0.02583, -0.18798
23.100, 0.01324, 0.14000, -0.12727, -0.02760, -0.20107
23.113, 0.01412, 0.14875, -0.13546, -0.02942, -0.21461
23.125, 0.01503, 0.15750, -0.14365, -0.03130, -0.22858
23.138, 0.01597, 0.16625, -0.15184, -0.03324, -0.24300
23.150, 0.01695, 0.17500, -0.16003, -0.03524, -0.25785
23.163, 0.01794, 0.18375, -0.16822, -0.03729, -0.27315
23.175, 0.01896, 0.19250, -0.17641, -0.03941, -0.28888
23.188, 0.01997, 0.20125, -0.18460, -0.04158, -0.30507
23.200, 0.02098, 0.21000, -0.19279, -0.04381, -0.32167
23.213, 0.02200, 0.21875, -0.20097, -0.04610, -0.33852
23.225, 0.02301, 0.22751, -0.20916, -0.04844, -0.35531
23.238, 0.02402, 0.23610, -0.21737, -0.05085, -0.37211
23.250, 0.02504, 0.24439, -0.22548, -0.05331, -0.38891
23.263, 0.02605, 0.25235, -0.23335, -0.05583, -0.40571
23.275, 0.02706, 0.26001, -0.24092, -0.05841, -0.42251
23.288, 0.02807, 0.26735, -0.24822, -0.06105, -0.43931
23.300, 0.02909, 0.27438, -0.25523, -0.06374, -0.45611
23.313, 0.03010, 0.28110, -0.26195, -0.06650, -0.47290
23.325, 0.03111, 0.28751, -0.26840, -0.06931, -0.48973
23.338, 0.03213, 0.29360, -0.27456, -0.07218, -0.50647
23.350, 0.03314, 0.29938, -0.28044, -0.07511, -0.52290
23.363, 0.03415, 0.30485, -0.28603, -0.07809, -0.53885
23.375, 0.03516, 0.31001, -0.29135, -0.08114, -0.55437
23.388, 0.03618, 0.31485, -0.29638, -0.08424, -0.56944
