kutzer/Scor6AxisToolbox/Scor6AxisToolbox Test Functions/ScorBotBoxData_sCurve/BSEPR_Position_80Hz.csv
Time_(s), Base_Joint_Position_(rad), Shoulder_Joint_Position_(rad), Elbow_Joint_Position_(rad), Wrist_Pitch_Joint_Position_(rad), Wrist_Roll_Joint_Position_(rad)
0.000, 0.00000, 2.09925, -1.65843, -1.54994, 0.00000
0.013, -0.00000, 2.09925, -1.65843, -1.54994, -0.00000
0.025, -0.00000, 2.09924, -1.65842, -1.54994, -0.00002
0.038, -0.00000, 2.09922, -1.65841, -1.54993, -0.00004
0.050, -0.00001, 2.09919, -1.65838, -1.54992, -0.00009
0.063, -0.00001, 2.09915, -1.65834, -1.54991, -0.00016
0.075, -0.00002, 2.09908, -1.65828, -1.54990, -0.00026
0.088, -0.00003, 2.09899, -1.65819, -1.54987, -0.00040
0.100, -0.00004, 2.09886, -1.65808, -1.54985, -0.00058
0.113, -0.00006, 2.09871, -1.65794, -1.54981, -0.00081
0.125, -0.00008, 2.09852, -1.65777, -1.54977, -0.00109
0.138, -0.00010, 2.09829, -1.65755, -1.54972, -0.00143
0.150, -0.00013, 2.09801, -1.65730, -1.54966, -0.00184
0.163, -0.00016, 2.09768, -1.65701, -1.54960, -0.00231
0.175, -0.00020, 2.09731, -1.65667, -1.54952, -0.00286
0.188, -0.00024, 2.09687, -1.65627, -1.54943, -0.00349
0.200, -0.00029, 2.09638, -1.65583, -1.54933, -0.00420
0.213, -0.00034, 2.09582, -1.65532, -1.54921, -0.00501
0.225, -0.00040, 2.09520, -1.65475, -1.54909, -0.00591
0.238, -0.00047, 2.09450, -1.65412, -1.54894, -0.00692
0.250, -0.00054, 2.09372, -1.65342, -1.54879, -0.00803
0.263, -0.00062, 2.09287, -1.65264, -1.54862, -0.00926
0.275, -0.00071, 2.09193, -1.65180, -1.54843, -0.01060
0.288, -0.00081, 2.09091, -1.65087, -1.54823, -0.01208
0.300, -0.00091, 2.08980, -1.64986, -1.54800, -0.01368
0.313, -0.00103, 2.08858, -1.64876, -1.54776, -0.01541
0.325, -0.00115, 2.08727, -1.64757, -1.54750, -0.01729
0.338, -0.00129, 2.08586, -1.64629, -1.54723, -0.01931
0.350, -0.00143, 2.08434, -1.64491, -1.54693, -0.02149
0.363, -0.00158, 2.08271, -1.64343, -1.54660, -0.02382
0.375, -0.00175, 2.08097, -1.64185, -1.54626, -0.02632
0.388, -0.00192, 2.07912, -1.64017, -1.54590, -0.02899
0.400, -0.00211, 2.07716, -1.63838, -1.54551, -0.03183
0.413, -0.00231, 2.07510, -1.63650, -1.54509, -0.03485
0.425, -0.00252, 2.07292, -1.63451, -1.54466, -0.03805
0.438, -0.00274, 2.07064, -1.63241, -1.54419, -0.04145
0.450, -0.00298, 2.06824, -1.63022, -1.54370, -0.04504
0.463, -0.00323, 2.06574, -1.62792, -1.54319, -0.04883
0.475, -0.00349, 2.06312, -1.62552, -1.54264, -0.05283
0.488, -0.00376, 2.06040, -1.62302, -1.54207, -0.05704
0.500, -0.00405, 2.05756, -1.62042, -1.54147, -0.06146
0.513, -0.00435, 2.05462, -1.61771, -1.54083, -0.06609
0.525, -0.00466, 2.05158, -1.61490, -1.54017, -0.07093
0.537, -0.00498, 2.04844, -1.61199, -1.53947, -0.07598
0.550, -0.00532, 2.04519, -1.60899, -1.53875, -0.08124
0.563, -0.00567, 2.04186, -1.60590, -1.53799, -0.08671
0.575, -0.00603, 2.03844, -1.60272, -1.53719, -0.09239
0.588, -0.00641, 2.03494, -1.59945, -1.53637, -0.09828
0.600, -0.00679, 2.03135, -1.59610, -1.53550, -0.10438
0.613, -0.00719, 2.02769, -1.59268, -1.53461, -0.11069
0.625, -0.00761, 2.02395, -1.58918, -1.53367, -0.11721
0.638, -0.00803, 2.02015, -1.58561, -1.53270, -0.12393
0.650, -0.00847, 2.01628, -1.58198, -1.53169, -0.13084
0.663, -0.00892, 2.01235, -1.57828, -1.53064, -0.13794
0.675, -0.00939, 2.00836, -1.57452, -1.52955, -0.14522
0.688, -0.00986, 2.00432, -1.57071, -1.52842, -0.15268
0.700, -0.01035, 2.00024, -1.56684, -1.52725, -0.16031
0.713, -0.01085, 1.99610, -1.56292, -1.52604, -0.16811
0.725, -0.01137, 1.99193, -1.55896, -1.52479, -0.17607
0.738, -0.01189, 1.98771, -1.55496, -1.52349, -0.18419
0.750, -0.01243, 1.98347, -1.55092, -1.52215, -0.19246
0.763, -0.01299, 1.97919, -1.54684, -1.52076, -0.20087
0.775, -0.01355, 1.97489, -1.54273, -1.51933, -0.20942
0.788, -0.01413, 1.97056, -1.53860, -1.51786, -0.21811
0.800, -0.01472, 1.96622, -1.53444, -1.51633, -0.22692
0.813, -0.01532, 1.96186, -1.53025, -1.51476, -0.23586
0.825, -0.01594, 1.95750, -1.52606, -1.51315, -0.24492
0.838, -0.01657, 1.95312, -1.52184, -1.51148, -0.25408
0.850, -0.01721, 1.94875, -1.51762, -1.50976, -0.26336
0.863, -0.01786, 1.94437, -1.51339, -1.50799, -0.27273
0.875, -0.01853, 1.94000, -1.50916, -1.50617, -0.28220
0.888, -0.01920, 1.93562, -1.50493, -1.50430, -0.29176
0.900, -0.01990, 1.93125, -1.50069, -1.50238, -0.30140
0.913, -0.02060, 1.92688, -1.49646, -1.50040, -0.31112
0.925, -0.02132, 1.92250, -1.49223, -1.49837, -0.32092
0.938, -0.02205, 1.91813, -1.48800, -1.49629, -0.33078
0.950, -0.02279, 1.91375, -1.48377, -1.49415, -0.34071
0.963, -0.02354, 1.90938, -1.47953, -1.49196, -0.35069
0.975, -0.02431, 1.90500, -1.47530, -1.48971, -0.36072
0.988, -0.02509, 1.90062, -1.47107, -1.48740, -0.37080
1.000, -0.02588, 1.89625, -1.46684, -1.48505, -0.38092
1.012, -0.02669, 1.89187, -1.46260, -1.48263, -0.39108
1.025, -0.02751, 1.88750, -1.45837, -1.48017, -0.40126
1.038, -0.02834, 1.88312, -1.45414, -1.47765, -0.41147
1.050, -0.02918, 1.87875, -1.44991, -1.47507, -0.42169
1.063, -0.03004, 1.87438, -1.44567, -1.47244, -0.43193
1.075, -0.03091, 1.87000, -1.44144, -1.46976, -0.44217
1.088, -0.03179, 1.86562, -1.43721, -1.46702, -0.45242
1.100, -0.03268, 1.86125, -1.43298, -1.46423, -0.46267
1.113, -0.03359, 1.85688, -1.42874, -1.46138, -0.47292
1.125, -0.03451, 1.85250, -1.42451, -1.45848, -0.48316
1.137, -0.03544, 1.84813, -1.42028, -1.45552, -0.49341
1.150, -0.03639, 1.84375, -1.41605, -1.45251, -0.50366
1.163, -0.03734, 1.83937, -1.41181, -1.44944, -0.51390
1.175, -0.03831, 1.83500, -1.40758, -1.44632, -0.52415
1.188, -0.03930, 1.83062, -1.40335, -1.44315, -0.53440
1.200, -0.04029, 1.82625, -1.39912, -1.43992, -0.54464
1.213, -0.04130, 1.82188, -1.39488, -1.43664, -0.55489
1.225, -0.04232, 1.81750, -1.39065, -1.43330, -0.56514
1.238, -0.04335, 1.81313, -1.38642, -1.42992, -0.57539
1.250, -0.04440, 1.80875, -1.38219, -1.42648, -0.58563
1.263, -0.04546, 1.80437, -1.37795, -1.42299, -0.59588
1.275, -0.04653, 1.80000, -1.37372, -1.41945, -0.60613
1.288, -0.04761, 1.79562, -1.36949, -1.41586, -0.61637
1.300, -0.04871, 1.79125, -1.36526, -1.41223, -0.62662
1.313, -0.04982, 1.78687, -1.36102, -1.40854, -0.63687
1.325, -0.05094, 1.78250, -1.35679, -1.40481, -0.64711
1.338, -0.05208, 1.77812, -1.35256, -1.40104, -0.65736
1.350, -0.05322, 1.77375, -1.34833, -1.39721, -0.66761
1.363, -0.05438, 1.76937, -1.34409, -1.39335, -0.67785
1.375, -0.05556, 1.76500, -1.33986, -1.38944, -0.68810
1.388, -0.05674, 1.76062, -1.33563, -1.38548, -0.69835
1.400, -0.05794, 1.75625, -1.33140, -1.38148, -0.70860
1.413, -0.05915, 1.75187, -1.32716, -1.37745, -0.71884
1.425, -0.06037, 1.74750, -1.32293, -1.37337, -0.72909
1.438, -0.06161, 1.74313, -1.31870, -1.36925, -0.73934
1.450, -0.06286, 1.73875, -1.31447, -1.36509, -0.74958
1.463, -0.06412, 1.73437, -1.31024, -1.36089, -0.75983
1.475, -0.06539, 1.73000, -1.30600, -1.35665, -0.77008
1.488, -0.06668, 1.72562, -1.30177, -1.35238, -0.78032
1.500, -0.06798, 1.72125, -1.29754, -1.34807, -0.79057
1.513, -0.06929, 1.71687, -1.29331, -1.34372, -0.80082
1.525, -0.07062, 1.71250, -1.28907, -1.33934, -0.81106
1.538, -0.07195, 1.70812, -1.28484, -1.33492, -0.82131
1.550, -0.07330, 1.70375, -1.28061, -1.33047, -0.83156
1.563, -0.07467, 1.69937, -1.27638, -1.32599, -0.84181
1.575, -0.07604, 1.69500, -1.27214, -1.32147, -0.85205
1.588, -0.07743, 1.69062, -1.26791, -1.31692, -0.86230
1.600, -0.07883, 1.68625, -1.26368, -1.31234, -0.87255
1.613, -0.08024, 1.68187, -1.25945, -1.30774, -0.88279
1.625, -0.08167, 1.67750, -1.25521, -1.30310, -0.89304
1.638, -0.08311, 1.67312, -1.25098, -1.29843, -0.90329
1.650, -0.08456, 1.66875, -1.24675, -1.29374, -0.91353
1.663, -0.08602, 1.66437, -1.24252, -1.28901, -0.92378
1.675, -0.08750, 1.66000, -1.23828, -1.28426, -0.93403
1.688, -0.08899, 1.65562, -1.23405, -1.27949, -0.94428
1.700, -0.09049, 1.65125, -1.22982, -1.27469, -0.95452
1.713, -0.09200, 1.64687, -1.22559, -1.26987, -0.96477
1.725, -0.09352, 1.64250, -1.22135, -1.26502, -0.97502
1.738, -0.09506, 1.63812, -1.21712, -1.26015, -0.98526
1.750, -0.09660, 1.63375, -1.21289, -1.25526, -0.99551
1.763, -0.09815, 1.62937, -1.20866, -1.25034, -1.00576
1.775, -0.09972, 1.62500, -1.20442, -1.24541, -1.01600
1.788, -0.10129, 1.62062, -1.20019, -1.24045, -1.02625
1.800, -0.10287, 1.61625, -1.19596, -1.23548, -1.03650
1.813, -0.10446, 1.61187, -1.19173, -1.23049, -1.04674
1.825, -0.10606, 1.60750, -1.18749, -1.22548, -1.05699
1.838, -0.10766, 1.60312, -1.18326, -1.22045, -1.06724
1.850, -0.10928, 1.59875, -1.17903, -1.21541, -1.07749
1.863, -0.11090, 1.59437, -1.17480, -1.21035, -1.08773
1.875, -0.11253, 1.59000, -1.17056, -1.20527, -1.09798
1.888, -0.11416, 1.58562, -1.16633, -1.20018, -1.10823
1.900, -0.11580, 1.58125, -1.16210, -1.19508, -1.11847
1.913, -0.11744, 1.57687, -1.15787, -1.18997, -1.12872
1.925, -0.11909, 1.57250, -1.15364, -1.18484, -1.13897
1.938, -0.12075, 1.56812, -1.14940, -1.17970, -1.14921
1.950, -0.12241, 1.56375, -1.14517, -1.17455, -1.15946
1.963, -0.12408, 1.55937, -1.14094, -1.16940, -1.16971
1.975, -0.12574, 1.55500, -1.13671, -1.16423, -1.17995
1.988, -0.12742, 1.55062, -1.13247, -1.15905, -1.19020
2.000, -0.12909, 1.54625, -1.12824, -1.15387, -1.20045
2.013, -0.13077, 1.54187, -1.12401, -1.14868, -1.21070
2.025, -0.13245, 1.53750, -1.11978, -1.14349, -1.22094
2.038, -0.13413, 1.53312, -1.11554, -1.13828, -1.23119
2.050, -0.13582, 1.52875, -1.11131, -1.13308, -1.24144
2.063, -0.13750, 1.52437, -1.10708, -1.12787, -1.25168
2.075, -0.13919, 1.52000, -1.10285, -1.12265, -1.26193
2.087, -0.14088, 1.51562, -1.09861, -1.11744, -1.27218
2.100, -0.14256, 1.51125, -1.09438, -1.11222, -1.28242
2.113, -0.14425, 1.50687, -1.09015, -1.10700, -1.29267
2.125, -0.14594, 1.50250, -1.08592, -1.10178, -1.30292
2.138, -0.14763, 1.49812, -1.08168, -1.09656, -1.31317
2.150, -0.14932, 1.49375, -1.07745, -1.09134, -1.32341
2.163, -0.15100, 1.48937, -1.07322, -1.08613, -1.33366
2.175, -0.15269, 1.48500, -1.06899, -1.08091, -1.34391
2.188, -0.15438, 1.48062, -1.06475, -1.07569, -1.35415
2.200, -0.15607, 1.47625, -1.06052, -1.07047, -1.36440
2.212, -0.15776, 1.47188, -1.05629, -1.06525, -1.37465
2.225, -0.15944, 1.46750, -1.05206, -1.06003, -1.38489
2.238, -0.16113, 1.46313, -1.04782, -1.05481, -1.39514
2.250, -0.16282, 1.45875, -1.04359, -1.04959, -1.40539
2.263, -0.16451, 1.45437, -1.03936, -1.04437, -1.41563
2.275, -0.16619, 1.45000, -1.03513, -1.03916, -1.42588
2.288, -0.16788, 1.44563, -1.03089, -1.03394, -1.43613
2.300, -0.16957, 1.44125, -1.02666, -1.02872, -1.44638
2.313, -0.17126, 1.43688, -1.02243, -1.02350, -1.45662
2.325, -0.17295, 1.43250, -1.01820, -1.01828, -1.46687
2.337, -0.17463, 1.42813, -1.01396, -1.01306, -1.47712
2.350, -0.17632, 1.42375, -1.00973, -1.00784, -1.48736
2.363, -0.17801, 1.41938, -1.00550, -1.00262, -1.49761
2.375, -0.17970, 1.41500, -1.00127, -0.99740, -1.50786
2.388, -0.18139, 1.41063, -0.99704, -0.99218, -1.51810
2.400, -0.18307, 1.40625, -0.99280, -0.98697, -1.52835
2.413, -0.18476, 1.40188, -0.98857, -0.98175, -1.53860
2.425, -0.18645, 1.39750, -0.98434, -0.97653, -1.54884
2.438, -0.18814, 1.39313, -0.98011, -0.97131, -1.55909
2.450, -0.18982, 1.38875, -0.97587, -0.96609, -1.56934
2.463, -0.19151, 1.38438, -0.97164, -0.96087, -1.57959
2.475, -0.19320, 1.38000, -0.96741, -0.95565, -1.58983
2.488, -0.19489, 1.37563, -0.96318, -0.95043, -1.60008
2.500, -0.19658, 1.37125, -0.95894, -0.94521, -1.61033
2.513, -0.19826, 1.36688, -0.95471, -0.94000, -1.62057
2.525, -0.19995, 1.36250, -0.95048, -0.93478, -1.63082
2.538, -0.20164, 1.35813, -0.94625, -0.92956, -1.64107
2.550, -0.20333, 1.35375, -0.94201, -0.92434, -1.65131
2.563, -0.20502, 1.34938, -0.93778, -0.91912, -1.66156
2.575, -0.20670, 1.34500, -0.93355, -0.91390, -1.67181
2.588, -0.20839, 1.34063, -0.92932, -0.90868, -1.68206
2.600, -0.21008, 1.33625, -0.92508, -0.90346, -1.69230
2.613, -0.21177, 1.33188, -0.92085, -0.89824, -1.70255
2.625, -0.21346, 1.32750, -0.91662, -0.89302, -1.71280
2.638, -0.21514, 1.32313, -0.91239, -0.88781, -1.72304
2.650, -0.21683, 1.31875, -0.90815, -0.88259, -1.73329
2.663, -0.21852, 1.31438, -0.90392, -0.87737, -1.74354
2.675, -0.22021, 1.31000, -0.89969, -0.87215, -1.75378
2.688, -0.22189, 1.30563, -0.89546, -0.86693, -1.76403
2.700, -0.22358, 1.30125, -0.89122, -0.86171, -1.77428
2.713, -0.22527, 1.29688, -0.88699, -0.85649, -1.78452
2.725, -0.22696, 1.29250, -0.88276, -0.85127, -1.79477
2.738, -0.22865, 1.28813, -0.87853, -0.84605, -1.80502
2.750, -0.23033, 1.28375, -0.87429, -0.84084, -1.81527
2.763, -0.23202, 1.27938, -0.87006, -0.83562, -1.82551
2.775, -0.23371, 1.27500, -0.86583, -0.83040, -1.83576
2.788, -0.23540, 1.27063, -0.86160, -0.82518, -1.84601
2.800, -0.23709, 1.26625, -0.85736, -0.81996, -1.85625
2.813, -0.23877, 1.26188, -0.85313, -0.81474, -1.86650
2.825, -0.24046, 1.25750, -0.84890, -0.80953, -1.87675
2.838, -0.24215, 1.25313, -0.84467, -0.80432, -1.88699
2.850, -0.24383, 1.24875, -0.84044, -0.79911, -1.89724
2.863, -0.24552, 1.24438, -0.83620, -0.79390, -1.90749
2.875, -0.24720, 1.24000, -0.83197, -0.78870, -1.91773
2.888, -0.24889, 1.23563, -0.82774, -0.78351, -1.92798
2.900, -0.25056, 1.23125, -0.82351, -0.77832, -1.93823
2.913, -0.25224, 1.22688, -0.81927, -0.77314, -1.94848
2.925, -0.25391, 1.22250, -0.81504, -0.76797, -1.95872
2.938, -0.25558, 1.21813, -0.81081, -0.76281, -1.96897
2.950, -0.25725, 1.21375, -0.80658, -0.75765, -1.97922
2.963, -0.25891, 1.20938, -0.80234, -0.75251, -1.98946
2.975, -0.26057, 1.20500, -0.79811, -0.74738, -1.99971
2.988, -0.26223, 1.20063, -0.79388, -0.74226, -2.00996
3.000, -0.26387, 1.19625, -0.78965, -0.73715, -2.02020
3.013, -0.26552, 1.19188, -0.78541, -0.73205, -2.03045
3.025, -0.26715, 1.18750, -0.78118, -0.72697, -2.04070
3.038, -0.26878, 1.18313, -0.77695, -0.72190, -2.05095
3.050, -0.27041, 1.17875, -0.77272, -0.71685, -2.06119
3.063, -0.27202, 1.17438, -0.76848, -0.71181, -2.07144
3.075, -0.27363, 1.17000, -0.76425, -0.70679, -2.08169
3.088, -0.27524, 1.16563, -0.76002, -0.70179, -2.09193
3.100, -0.27683, 1.16125, -0.75579, -0.69680, -2.10218
3.113, -0.27842, 1.15688, -0.75155, -0.69184, -2.11243
3.125, -0.27999, 1.15250, -0.74732, -0.68689, -2.12267
3.138, -0.28156, 1.14813, -0.74309, -0.68196, -2.13292
3.150, -0.28312, 1.14375, -0.73886, -0.67706, -2.14317
3.163, -0.28467, 1.13938, -0.73462, -0.67217, -2.15341
3.175, -0.28621, 1.13500, -0.73039, -0.66731, -2.16366
3.188, -0.28773, 1.13063, -0.72616, -0.66248, -2.17391
3.200, -0.28925, 1.12625, -0.72193, -0.65766, -2.18416
3.213, -0.29076, 1.12188, -0.71769, -0.65287, -2.19440
3.225, -0.29225, 1.11750, -0.71346, -0.64811, -2.20465
3.238, -0.29374, 1.11313, -0.70923, -0.64337, -2.21490
3.250, -0.29521, 1.10875, -0.70500, -0.63866, -2.22514
3.263, -0.29666, 1.10438, -0.70076, -0.63398, -2.23539
3.275, -0.29811, 1.10000, -0.69653, -0.62932, -2.24564
3.288, -0.29954, 1.09563, -0.69230, -0.62470, -2.25588
3.300, -0.30096, 1.09125, -0.68807, -0.62010, -2.26613
3.313, -0.30237, 1.08688, -0.68384, -0.61553, -2.27638
3.325, -0.30376, 1.08250, -0.67960, -0.61100, -2.28662
3.338, -0.30514, 1.07813, -0.67537, -0.60650, -2.29687
3.350, -0.30651, 1.07375, -0.67114, -0.60203, -2.30712
3.363, -0.30787, 1.06938, -0.66691, -0.59759, -2.31737
3.375, -0.30921, 1.06500, -0.66267, -0.59319, -2.32761
3.388, -0.31054, 1.06063, -0.65844, -0.58882, -2.33786
3.400, -0.31186, 1.05625, -0.65421, -0.58449, -2.34811
3.413, -0.31317, 1.05188, -0.64998, -0.58019, -2.35835
3.425, -0.31446, 1.04750, -0.64574, -0.57593, -2.36860
3.438, -0.31574, 1.04313, -0.64151, -0.57171, -2.37885
3.450, -0.31701, 1.03875, -0.63728, -0.56753, -2.38909
3.463, -0.31826, 1.03438, -0.63305, -0.56339, -2.39934
3.475, -0.31951, 1.03000, -0.62881, -0.55928, -2.40959
3.488, -0.32074, 1.02563, -0.62458, -0.55522, -2.41984
3.500, -0.32195, 1.02125, -0.62035, -0.55120, -2.43008
3.513, -0.32316, 1.01688, -0.61612, -0.54722, -2.44033
3.525, -0.32435, 1.01250, -0.61188, -0.54328, -2.45058
3.538, -0.32553, 1.00813, -0.60765, -0.53939, -2.46082
3.550, -0.32670, 1.00375, -0.60342, -0.53554, -2.47107
3.563, -0.32785, 0.99938, -0.59919, -0.53174, -2.48132
3.575, -0.32899, 0.99500, -0.59495, -0.52798, -2.49156
3.588, -0.33012, 0.99063, -0.59072, -0.52427, -2.50181
3.600, -0.33124, 0.98625, -0.58649, -0.52061, -2.51206
3.613, -0.33234, 0.98188, -0.58226, -0.51699, -2.52230
3.625, -0.33343, 0.97750, -0.57802, -0.51342, -2.53255
3.638, -0.33451, 0.97313, -0.57379, -0.50990, -2.54280
3.650, -0.33557, 0.96875, -0.56956, -0.50644, -2.55305
3.663, -0.33662, 0.96438, -0.56533, -0.50302, -2.56329
3.675, -0.33766, 0.96000, -0.56109, -0.49965, -2.57354
3.688, -0.33869, 0.95563, -0.55686, -0.49634, -2.58379
3.700, -0.33971, 0.95125, -0.55263, -0.49308, -2.59403
3.713, -0.34071, 0.94688, -0.54840, -0.48987, -2.60428
3.725, -0.34170, 0.94250, -0.54416, -0.48672, -2.61453
3.738, -0.34267, 0.93813, -0.53993, -0.48362, -2.62477
3.750, -0.34364, 0.93375, -0.53570, -0.48058, -2.63502
3.763, -0.34459, 0.92938, -0.53147, -0.47759, -2.64527
3.775, -0.34553, 0.92500, -0.52723, -0.47466, -2.65551
3.788, -0.34645, 0.92063, -0.52300, -0.47178, -2.66576
3.800, -0.34737, 0.91625, -0.51877, -0.46896, -2.67601
3.813, -0.34827, 0.91188, -0.51454, -0.46618, -2.68626
3.825, -0.34915, 0.90750, -0.51031, -0.46347, -2.69650
3.838, -0.35003, 0.90313, -0.50607, -0.46081, -2.70675
3.850, -0.35089, 0.89875, -0.50184, -0.45820, -2.71699
3.863, -0.35174, 0.89438, -0.49761, -0.45565, -2.72722
3.875, -0.35258, 0.89000, -0.49338, -0.45315, -2.73743
3.888, -0.35340, 0.88563, -0.48914, -0.45071, -2.74762
3.900, -0.35422, 0.88125, -0.48491, -0.44832, -2.75779
3.913, -0.35502, 0.87687, -0.48068, -0.44598, -2.76792
3.925, -0.35580, 0.87250, -0.47645, -0.44370, -2.77801
3.938, -0.35658, 0.86812, -0.47221, -0.44148, -2.78805
3.950, -0.35734, 0.86375, -0.46798, -0.43930, -2.79805
3.963, -0.35809, 0.85938, -0.46375, -0.43719, -2.80799
3.975, -0.35882, 0.85500, -0.45952, -0.43513, -2.81787
3.988, -0.35955, 0.85063, -0.45528, -0.43312, -2.82769
4.000, -0.36026, 0.84625, -0.45105, -0.43116, -2.83743
4.013, -0.36095, 0.84188, -0.44682, -0.42926, -2.84710
4.025, -0.36164, 0.83750, -0.44259, -0.42741, -2.85668
4.038, -0.36231, 0.83312, -0.43835, -0.42562, -2.86618
4.050, -0.36297, 0.82875, -0.43412, -0.42387, -2.87558
4.063, -0.36362, 0.82437, -0.42990, -0.42217, -2.88488
4.075, -0.36425, 0.82000, -0.42568, -0.42053, -2.89408
4.088, -0.36488, 0.81563, -0.42147, -0.41893, -2.90317
4.100, -0.36549, 0.81127, -0.41728, -0.41738, -2.91214
4.112, -0.36608, 0.80691, -0.41310, -0.41587, -2.92099
4.125, -0.36667, 0.80258, -0.40895, -0.41442, -2.92971
4.138, -0.36724, 0.79826, -0.40483, -0.41300, -2.93830
4.150, -0.36780, 0.79396, -0.40073, -0.41164, -2.94675
4.163, -0.36834, 0.78969, -0.39667, -0.41032, -2.95506
4.175, -0.36888, 0.78546, -0.39264, -0.40904, -2.96322
4.188, -0.36940, 0.78125, -0.38865, -0.40780, -2.97123
4.200, -0.36990, 0.77709, -0.38471, -0.40661, -2.97908
4.213, -0.37040, 0.77297, -0.38081, -0.40545, -2.98676
4.225, -0.37088, 0.76889, -0.37696, -0.40434, -2.99427
4.237, -0.37135, 0.76487, -0.37317, -0.40327, -3.00160
4.250, -0.37181, 0.76090, -0.36943, -0.40224, -3.00875
4.263, -0.37225, 0.75698, -0.36576, -0.40124, -3.01572
4.275, -0.37269, 0.75313, -0.36215, -0.40029, -3.02249
4.288, -0.37311, 0.74935, -0.35861, -0.39937, -3.02906
4.300, -0.37351, 0.74563, -0.35514, -0.39848, -3.03543
4.313, -0.37391, 0.74199, -0.35174, -0.39763, -3.04159
4.325, -0.37429, 0.73843, -0.34842, -0.39682, -3.04754
4.338, -0.37466, 0.73495, -0.34519, -0.39604, -3.05328
4.350, -0.37501, 0.73155, -0.34204, -0.39530, -3.05881
4.362, -0.37536, 0.72824, -0.33898, -0.39458, -3.06413
4.375, -0.37569, 0.72503, -0.33602, -0.39390, -3.06924
4.388, -0.37601, 0.72191, -0.33315, -0.39325, -3.07414
4.400, -0.37631, 0.71890, -0.33038, -0.39263, -3.07883
4.413, -0.37660, 0.71599, -0.32771, -0.39204, -3.08331
4.425, -0.37688, 0.71319, -0.32515, -0.39148, -3.08758
4.438, -0.37715, 0.71049, -0.32268, -0.39095, -3.09164
4.450, -0.37741, 0.70791, -0.32032, -0.39044, -3.09549
4.463, -0.37765, 0.70544, -0.31807, -0.38996, -3.09914
4.475, -0.37788, 0.70307, -0.31591, -0.38951, -3.10259
4.487, -0.37810, 0.70082, -0.31386, -0.38908, -3.10585
4.500, -0.37830, 0.69867, -0.31191, -0.38868, -3.10892
4.513, -0.37849, 0.69664, -0.31006, -0.38830, -3.11181
4.525, -0.37867, 0.69471, -0.30831, -0.38794, -3.11453
4.538, -0.37884, 0.69289, -0.30667, -0.38761, -3.11707
4.550, -0.37900, 0.69118, -0.30513, -0.38730, -3.11945
4.563, -0.37915, 0.68959, -0.30369, -0.38701, -3.12167
4.575, -0.37929, 0.68810, -0.30235, -0.38674, -3.12374
4.588, -0.37942, 0.68671, -0.30110, -0.38648, -3.12566
4.600, -0.37954, 0.68543, -0.29995, -0.38625, -3.12743
4.612, -0.37965, 0.68425, -0.29889, -0.38604, -3.12907
4.625, -0.37975, 0.68316, -0.29791, -0.38584, -3.13058
4.638, -0.37984, 0.68216, -0.29701, -0.38566, -3.13196
4.650, -0.37993, 0.68125, -0.29619, -0.38550, -3.13322
4.663, -0.38001, 0.68042, -0.29544, -0.38535, -3.13437
4.675, -0.38008, 0.67967, -0.29477, -0.38521, -3.13540
4.688, -0.38014, 0.67899, -0.29416, -0.38509, -3.13634
4.700, -0.38020, 0.67838, -0.29362, -0.38498, -3.13717
4.713, -0.38025, 0.67784, -0.29314, -0.38488, -3.13791
4.725, -0.38029, 0.67737, -0.29271, -0.38480, -3.13856
4.737, -0.38033, 0.67695, -0.29234, -0.38473, -3.13913
4.750, -0.38037, 0.67659, -0.29201, -0.38466, -3.13963
4.763, -0.38040, 0.67628, -0.29173, -0.38461, -3.14005
4.775, -0.38042, 0.67601, -0.29150, -0.38456, -3.14041
4.788, -0.38044, 0.67579, -0.29130, -0.38452, -3.14070
4.800, -0.38046, 0.67561, -0.29114, -0.38449, -3.14095
4.813, -0.38048, 0.67547, -0.29101, -0.38447, -3.14114
4.825, -0.38049, 0.67535, -0.29091, -0.38445, -3.14129
4.838, -0.38049, 0.67527, -0.29084, -0.38443, -3.14140
4.850, -0.38050, 0.67521, -0.29078, -0.38442, -3.14148
4.863, -0.38051, 0.67516, -0.29075, -0.38442, -3.14154
4.875, -0.38051, 0.67514, -0.29073, -0.38441, -3.14157
4.888, -0.38051, 0.67513, -0.29071, -0.38441, -3.14158
4.900, -0.38051, 0.67512, -0.29071, -0.38441, -3.14159
4.913, -0.38051, 0.67512, -0.29071, -0.38441, -3.14159
4.925, -0.38051, 0.67512, -0.29071, -0.38441, -3.14159
4.938, -0.38051, 0.67512, -0.29071, -0.38441, -3.14159
4.950, -0.38051, 0.67512, -0.29071, -0.38441, -3.14159
4.963, -0.38051, 0.67512, -0.29071, -0.38441, -3.14159
4.975, -0.38051, 0.67512, -0.29071, -0.38441, -3.14159
4.988, -0.38051, 0.67512, -0.29071, -0.38441, -3.14159
5.000, -0.38051, 0.67512, -0.29071, -0.38441, -3.14159
5.013, -0.38051, 0.67512, -0.29071, -0.38441, -3.14159
5.025, -0.38051, 0.67512, -0.29071, -0.38441, -3.14159
5.038, -0.38051, 0.67512, -0.29071, -0.38441, -3.14159
5.050, -0.38051, 0.67512, -0.29071, -0.38441, -3.14159
5.063, -0.38051, 0.67512, -0.29071, -0.38441, -3.14159
5.075, -0.38051, 0.67512, -0.29071, -0.38441, -3.14159
5.088, -0.38051, 0.67512, -0.29071, -0.38441, -3.14159
5.100, -0.38051, 0.67512, -0.29071, -0.38441, -3.14159
5.113, -0.38051, 0.67512, -0.29071, -0.38441, -3.14159
5.125, -0.38051, 0.67512, -0.29071, -0.38441, -3.14159
5.138, -0.38051, 0.67512, -0.29071, -0.38441, -3.14159
5.150, -0.38051, 0.67512, -0.29071, -0.38441, -3.14159
5.163, -0.38051, 0.67512, -0.29071, -0.38441, -3.14159
5.175, -0.38051, 0.67512, -0.29071, -0.38441, -3.14159
5.188, -0.38051, 0.67512, -0.29071, -0.38441, -3.14159
5.200, -0.38051, 0.67512, -0.29071, -0.38441, -3.14159
5.213, -0.38051, 0.67512, -0.29071, -0.38441, -3.14159
5.225, -0.38051, 0.67512, -0.29071, -0.38441, -3.14159
5.238, -0.38051, 0.67512, -0.29071, -0.38441, -3.14159
5.250, -0.38051, 0.67512, -0.29071, -0.38441, -3.14159
5.263, -0.38051, 0.67512, -0.29071, -0.38441, -3.14159
5.275, -0.38051, 0.67512, -0.29071, -0.38441, -3.14159
5.288, -0.38051, 0.67512, -0.29071, -0.38441, -3.14159
5.300, -0.38051, 0.67512, -0.29071, -0.38441, -3.14159
5.313, -0.38051, 0.67512, -0.29071, -0.38441, -3.14159
5.325, -0.38051, 0.67512, -0.29071, -0.38441, -3.14159
5.338, -0.38051, 0.67512, -0.29071, -0.38441, -3.14159
5.350, -0.38051, 0.67512, -0.29071, -0.38441, -3.14159
5.363, -0.38051, 0.67512, -0.29071, -0.38441, -3.14159
5.375, -0.38051, 0.67512, -0.29071, -0.38441, -3.14159
5.388, -0.38051, 0.67512, -0.29071, -0.38441, -3.14159
5.400, -0.38051, 0.67512, -0.29071, -0.38441, -3.14159
5.413, -0.38051, 0.67512, -0.29071, -0.38441, -3.14159
5.425, -0.38051, 0.67512, -0.29071, -0.38441, -3.14159
5.438, -0.38051, 0.67512, -0.29071, -0.38441, -3.14159
5.450, -0.38051, 0.67512, -0.29071, -0.38441, -3.14159
5.463, -0.38051, 0.67512, -0.29071, -0.38441, -3.14159
5.475, -0.38051, 0.67512, -0.29071, -0.38441, -3.14159
5.488, -0.38051, 0.67512, -0.29071, -0.38441, -3.14159
5.500, -0.38051, 0.67512, -0.29071, -0.38441, -3.14159
5.513, -0.38051, 0.67512, -0.29071, -0.38441, -3.14159
5.525, -0.38051, 0.67512, -0.29071, -0.38441, -3.14159
5.538, -0.38051, 0.67512, -0.29071, -0.38441, -3.14159
5.550, -0.38051, 0.67512, -0.29071, -0.38441, -3.14159
5.563, -0.38051, 0.67512, -0.29071, -0.38441, -3.14159
5.575, -0.38051, 0.67512, -0.29071, -0.38441, -3.14160
5.588, -0.38051, 0.67512, -0.29071, -0.38441, -3.14160
5.600, -0.38051, 0.67512, -0.29071, -0.38441, -3.14160
5.613, -0.38051, 0.67512, -0.29071, -0.38441, -3.14160
5.625, -0.38051, 0.67512, -0.29071, -0.38441, -3.14160
5.638, -0.38051, 0.67512, -0.29071, -0.38441, -3.14160
5.650, -0.38051, 0.67512, -0.29071, -0.38441, -3.14160
5.663, -0.38051, 0.67512, -0.29071, -0.38441, -3.14160
5.675, -0.38051, 0.67512, -0.29071, -0.38441, -3.14160
5.688, -0.38051, 0.67512, -0.29071, -0.38441, -3.14160
5.700, -0.38051, 0.67512, -0.29071, -0.38441, -3.14160
5.713, -0.38051, 0.67512, -0.29071, -0.38441, -3.14160
5.725, -0.38051, 0.67512, -0.29071, -0.38441, -3.14160
5.738, -0.38051, 0.67512, -0.29071, -0.38441, -3.14159
5.750, -0.38051, 0.67512, -0.29071, -0.38441, -3.14159
5.763, -0.38051, 0.67512, -0.29071, -0.38441, -3.14159
5.775, -0.38051, 0.67512, -0.29071, -0.38441, -3.14159
5.788, -0.38051, 0.67512, -0.29071, -0.38441, -3.14159
5.800, -0.38051, 0.67512, -0.29071, -0.38441, -3.14159
5.813, -0.38051, 0.67512, -0.29071, -0.38441, -3.14159
5.825, -0.38051, 0.67512, -0.29071, -0.38441, -3.14159
5.838, -0.38051, 0.67512, -0.29071, -0.38441, -3.14159
5.850, -0.38051, 0.67512, -0.29071, -0.38441, -3.14159
5.863, -0.38051, 0.67512, -0.29071, -0.38441, -3.14159
5.875, -0.38051, 0.67512, -0.29071, -0.38441, -3.14159
5.888, -0.38051, 0.67512, -0.29071, -0.38441, -3.14159
5.900, -0.38051, 0.67512, -0.29071, -0.38441, -3.14159
5.913, -0.38051, 0.67512, -0.29071, -0.38441, -3.14159
5.925, -0.38051, 0.67512, -0.29071, -0.38441, -3.14159
5.938, -0.38050, 0.67512, -0.29071, -0.38441, -3.14158
5.950, -0.38048, 0.67512, -0.29071, -0.38441, -3.14156
5.963, -0.38045, 0.67512, -0.29071, -0.38441, -3.14152
5.975, -0.38040, 0.67512, -0.29071, -0.38441, -3.14147
5.988, -0.38032, 0.67512, -0.29071, -0.38441, -3.14140
6.000, -0.38023, 0.67512, -0.29071, -0.38441, -3.14130
6.013, -0.38010, 0.67512, -0.29071, -0.38441, -3.14118
6.025, -0.37993, 0.67512, -0.29071, -0.38441, -3.14103
6.038, -0.37974, 0.67512, -0.29071, -0.38441, -3.14084
6.050, -0.37950, 0.67512, -0.29071, -0.38441, -3.14061
6.063, -0.37921, 0.67512, -0.29071, -0.38441, -3.14034
6.075, -0.37887, 0.67512, -0.29071, -0.38441, -3.14003
6.088, -0.37849, 0.67512, -0.29071, -0.38441, -3.13967
6.100, -0.37804, 0.67512, -0.29071, -0.38441, -3.13925
6.113, -0.37753, 0.67512, -0.29071, -0.38441, -3.13878
6.125, -0.37696, 0.67512, -0.29071, -0.38441, -3.13825
6.138, -0.37633, 0.67512, -0.29071, -0.38441, -3.13766
6.150, -0.37564, 0.67512, -0.29071, -0.38441, -3.13701
6.163, -0.37488, 0.67512, -0.29071, -0.38441, -3.13628
6.175, -0.37406, 0.67512, -0.29071, -0.38441, -3.13548
6.188, -0.37318, 0.67512, -0.29071, -0.38441, -3.13460
6.200, -0.37224, 0.67512, -0.29071, -0.38441, -3.13365
6.213, -0.37123, 0.67512, -0.29071, -0.38441, -3.13261
6.225, -0.37017, 0.67512, -0.29071, -0.38441, -3.13148
6.238, -0.36903, 0.67512, -0.29071, -0.38441, -3.13026
6.250, -0.36784, 0.67512, -0.29071, -0.38441, -3.12895
6.263, -0.36658, 0.67512, -0.29071, -0.38441, -3.12755
6.275, -0.36526, 0.67512, -0.29071, -0.38441, -3.12604
6.288, -0.36388, 0.67512, -0.29071, -0.38441, -3.12442
6.300, -0.36244, 0.67512, -0.29071, -0.38441, -3.12270
6.313, -0.36093, 0.67512, -0.29071, -0.38441, -3.12087
6.325, -0.35937, 0.67512, -0.29071, -0.38441, -3.11892
6.338, -0.35773, 0.67512, -0.29071, -0.38441, -3.11686
6.350, -0.35604, 0.67512, -0.29071, -0.38441, -3.11467
6.363, -0.35428, 0.67512, -0.29071, -0.38441, -3.11236
6.375, -0.35247, 0.67512, -0.29071, -0.38441, -3.10991
6.388, -0.35058, 0.67512, -0.29071, -0.38441, -3.10734
6.400, -0.34864, 0.67512, -0.29071, -0.38441, -3.10463
6.413, -0.34663, 0.67512, -0.29071, -0.38441, -3.10178
6.425, -0.34456, 0.67512, -0.29071, -0.38441, -3.09879
6.438, -0.34243, 0.67512, -0.29071, -0.38441, -3.09565
6.450, -0.34024, 0.67512, -0.29071, -0.38441, -3.09236
6.463, -0.33798, 0.67512, -0.29071, -0.38441, -3.08892
6.475, -0.33566, 0.67512, -0.29071, -0.38441, -3.08533
6.488, -0.33328, 0.67512, -0.29071, -0.38441, -3.08158
6.500, -0.33084, 0.67512, -0.29071, -0.38441, -3.07767
6.513, -0.32833, 0.67512, -0.29071, -0.38441, -3.07361
6.525, -0.32577, 0.67512, -0.29071, -0.38441, -3.06939
6.538, -0.32313, 0.67512, -0.29071, -0.38441, -3.06502
6.550, -0.32044, 0.67512, -0.29071, -0.38441, -3.06050
6.563, -0.31768, 0.67512, -0.29071, -0.38441, -3.05582
6.575, -0.31486, 0.67512, -0.29071, -0.38441, -3.05098
6.588, -0.31198, 0.67512, -0.29071, -0.38441, -3.04599
6.600, -0.30904, 0.67512, -0.29071, -0.38441, -3.04085
6.613, -0.30603, 0.67512, -0.29071, -0.38441, -3.03555
6.625, -0.30297, 0.67512, -0.29071, -0.38441, -3.03009
6.638, -0.29983, 0.67512, -0.29071, -0.38441, -3.02449
6.650, -0.29664, 0.67512, -0.29071, -0.38441, -3.01874
6.663, -0.29338, 0.67512, -0.29071, -0.38441, -3.01284
6.675, -0.29007, 0.67512, -0.29071, -0.38441, -3.00680
6.688, -0.28669, 0.67512, -0.29071, -0.38441, -3.00063
6.700, -0.28327, 0.67512, -0.29071, -0.38441, -2.99432
6.713, -0.27980, 0.67512, -0.29071, -0.38441, -2.98788
6.725, -0.27628, 0.67512, -0.29071, -0.38441, -2.98132
6.738, -0.27272, 0.67512, -0.29071, -0.38441, -2.97463
6.750, -0.26913, 0.67512, -0.29071, -0.38441, -2.96782
6.763, -0.26550, 0.67512, -0.29071, -0.38441, -2.96090
6.775, -0.26184, 0.67512, -0.29071, -0.38441, -2.95386
6.788, -0.25816, 0.67512, -0.29071, -0.38441, -2.94671
6.800, -0.25445, 0.67512, -0.29071, -0.38441, -2.93946
6.813, -0.25073, 0.67512, -0.29071, -0.38441, -2.93211
6.825, -0.24700, 0.67512, -0.29071, -0.38441, -2.92465
6.838, -0.24326, 0.67512, -0.29071, -0.38441, -2.91711
6.850, -0.23951, 0.67512, -0.29071, -0.38441, -2.90947
6.863, -0.23576, 0.67512, -0.29071, -0.38441, -2.90174
6.875, -0.23201, 0.67512, -0.29071, -0.38441, -2.89393
6.888, -0.22826, 0.67512, -0.29071, -0.38441, -2.88603
6.900, -0.22451, 0.67512, -0.29071, -0.38441, -2.87806
6.913, -0.22076, 0.67512, -0.29071, -0.38441, -2.87001
6.925, -0.21701, 0.67512, -0.29071, -0.38441, -2.86190
6.938, -0.21326, 0.67512, -0.29071, -0.38441, -2.85371
6.950, -0.20951, 0.67512, -0.29071, -0.38441, -2.84547
6.963, -0.20576, 0.67512, -0.29071, -0.38441, -2.83716
6.975, -0.20201, 0.67512, -0.29071, -0.38441, -2.82879
6.988, -0.19826, 0.67512, -0.29071, -0.38441, -2.82037
7.000, -0.19451, 0.67512, -0.29071, -0.38441, -2.81191
7.013, -0.19076, 0.67512, -0.29071, -0.38441, -2.80339
7.025, -0.18701, 0.67512, -0.29071, -0.38441, -2.79483
7.038, -0.18326, 0.67512, -0.29071, -0.38441, -2.78624
7.050, -0.17951, 0.67512, -0.29071, -0.38441, -2.77760
7.063, -0.17576, 0.67512, -0.29071, -0.38441, -2.76894
7.075, -0.17201, 0.67512, -0.29071, -0.38441, -2.76024
7.088, -0.16826, 0.67512, -0.29071, -0.38441, -2.75152
7.100, -0.16451, 0.67512, -0.29071, -0.38441, -2.74278
7.113, -0.16076, 0.67512, -0.29071, -0.38441, -2.73402
7.125, -0.15701, 0.67512, -0.29071, -0.38441, -2.72524
7.138, -0.15326, 0.67512, -0.29071, -0.38441, -2.71646
7.150, -0.14951, 0.67512, -0.29071, -0.38441, -2.70766
7.163, -0.14576, 0.67512, -0.29071, -0.38441, -2.69886
7.175, -0.14201, 0.67512, -0.29071, -0.38441, -2.69006
7.188, -0.13826, 0.67512, -0.29071, -0.38441, -2.68126
7.200, -0.13451, 0.67512, -0.29071, -0.38441, -2.67246
7.213, -0.13076, 0.67512, -0.29071, -0.38441, -2.66366
7.225, -0.12701, 0.67512, -0.29071, -0.38441, -2.65486
7.238, -0.12326, 0.67512, -0.29071, -0.38441, -2.64606
7.250, -0.11951, 0.67512, -0.29071, -0.38441, -2.63726
7.263, -0.11576, 0.67512, -0.29071, -0.38441, -2.62846
7.275, -0.11201, 0.67512, -0.29071, -0.38441, -2.61966
7.288, -0.10826, 0.67512, -0.29071, -0.38441, -2.61086
7.300, -0.10451, 0.67512, -0.29071, -0.38441, -2.60206
7.313, -0.10076, 0.67512, -0.29071, -0.38441, -2.59326
7.325, -0.09701, 0.67512, -0.29071, -0.38441, -2.58446
7.338, -0.09326, 0.67512, -0.29071, -0.38441, -2.57566
7.350, -0.08951, 0.67512, -0.29071, -0.38441, -2.56686
7.363, -0.08576, 0.67512, -0.29071, -0.38441, -2.55806
7.375, -0.08201, 0.67512, -0.29071, -0.38441, -2.54926
7.388, -0.07826, 0.67512, -0.29071, -0.38441, -2.54046
7.400, -0.07451, 0.67512, -0.29071, -0.38441, -2.53166
7.413, -0.07076, 0.67512, -0.29071, -0.38441, -2.52286
7.425, -0.06701, 0.67512, -0.29071, -0.38441, -2.51406
7.438, -0.06326, 0.67512, -0.29071, -0.38441, -2.50526
7.450, -0.05951, 0.67512, -0.29071, -0.38441, -2.49646
7.463, -0.05576, 0.67512, -0.29071, -0.38441, -2.48766
7.475, -0.05201, 0.67512, -0.29071, -0.38441, -2.47886
7.488, -0.04826, 0.67512, -0.29071, -0.38441, -2.47006
7.500, -0.04451, 0.67512, -0.29071, -0.38441, -2.46126
7.513, -0.04076, 0.67512, -0.29071, -0.38441, -2.45246
7.525, -0.03701, 0.67512, -0.29071, -0.38441, -2.44366
7.538, -0.03326, 0.67512, -0.29071, -0.38441, -2.43486
7.550, -0.02951, 0.67512, -0.29071, -0.38441, -2.42605
7.563, -0.02576, 0.67512, -0.29071, -0.38441, -2.41725
7.575, -0.02201, 0.67512, -0.29071, -0.38441, -2.40845
7.588, -0.01826, 0.67512, -0.29071, -0.38441, -2.39965
7.600, -0.01451, 0.67512, -0.29071, -0.38441, -2.39085
7.613, -0.01076, 0.67512, -0.29071, -0.38441, -2.38205
7.625, -0.00701, 0.67512, -0.29071, -0.38441, -2.37325
7.638, -0.00326, 0.67512, -0.29071, -0.38441, -2.36445
7.650, 0.00049, 0.67512, -0.29071, -0.38441, -2.35565
7.663, 0.00424, 0.67512, -0.29071, -0.38441, -2.34685
7.675, 0.00799, 0.67512, -0.29071, -0.38441, -2.33805
7.688, 0.01174, 0.67512, -0.29071, -0.38441, -2.32925
7.700, 0.01549, 0.67512, -0.29071, -0.38441, -2.32045
7.713, 0.01924, 0.67512, -0.29071, -0.38441, -2.31165
7.725, 0.02299, 0.67512, -0.29071, -0.38441, -2.30285
7.738, 0.02674, 0.67512, -0.29071, -0.38441, -2.29405
7.750, 0.03049, 0.67512, -0.29071, -0.38441, -2.28525
7.763, 0.03424, 0.67512, -0.29071, -0.38441, -2.27645
7.775, 0.03799, 0.67512, -0.29071, -0.38441, -2.26765
7.788, 0.04174, 0.67512, -0.29071, -0.38441, -2.25885
7.800, 0.04549, 0.67512, -0.29071, -0.38441, -2.25005
7.813, 0.04924, 0.67512, -0.29071, -0.38441, -2.24125
7.825, 0.05299, 0.67512, -0.29071, -0.38441, -2.23245
7.838, 0.05674, 0.67512, -0.29071, -0.38441, -2.22365
7.850, 0.06049, 0.67512, -0.29071, -0.38441, -2.21485
7.863, 0.06424, 0.67512, -0.29071, -0.38441, -2.20605
7.875, 0.06799, 0.67512, -0.29071, -0.38441, -2.19725
7.888, 0.07174, 0.67512, -0.29071, -0.38441, -2.18845
7.900, 0.07549, 0.67512, -0.29071, -0.38441, -2.17965
7.913, 0.07924, 0.67512, -0.29071, -0.38441, -2.17085
7.925, 0.08299, 0.67512, -0.29071, -0.38441, -2.16205
7.938, 0.08674, 0.67512, -0.29071, -0.38441, -2.15325
7.950, 0.09049, 0.67512, -0.29071, -0.38441, -2.14445
7.963, 0.09424, 0.67512, -0.29071, -0.38441, -2.13565
7.975, 0.09799, 0.67512, -0.29071, -0.38441, -2.12685
7.988, 0.10174, 0.67512, -0.29071, -0.38441, -2.11804
8.000, 0.10549, 0.67512, -0.29071, -0.38441, -2.10924
8.013, 0.10924, 0.67512, -0.29071, -0.38441, -2.10044
8.025, 0.11299, 0.67512, -0.29071, -0.38441, -2.09164
8.037, 0.11674, 0.67512, -0.29071, -0.38441, -2.08284
8.050, 0.12049, 0.67512, -0.29071, -0.38441, -2.07404
8.063, 0.12424, 0.67512, -0.29071, -0.38441, -2.06524
8.075, 0.12799, 0.67512, -0.29071, -0.38441, -2.05644
8.088, 0.13174, 0.67512, -0.29071, -0.38441, -2.04764
8.100, 0.13549, 0.67512, -0.29071, -0.38441, -2.03884
8.113, 0.13924, 0.67512, -0.29071, -0.38441, -2.03004
8.125, 0.14299, 0.67512, -0.29071, -0.38441, -2.02124
8.138, 0.14674, 0.67512, -0.29071, -0.38441, -2.01244
8.150, 0.15049, 0.67512, -0.29071, -0.38441, -2.00364
8.162, 0.15424, 0.67512, -0.29071, -0.38441, -1.99485
8.175, 0.15799, 0.67512, -0.29071, -0.38441, -1.98606
8.188, 0.16174, 0.67512, -0.29071, -0.38441, -1.97729
8.200, 0.16549, 0.67512, -0.29071, -0.38441, -1.96853
8.213, 0.16924, 0.67512, -0.29071, -0.38441, -1.95979
8.225, 0.17299, 0.67512, -0.29071, -0.38441, -1.95107
8.238, 0.17674, 0.67512, -0.29071, -0.38441, -1.94238
8.250, 0.18049, 0.67512, -0.29071, -0.38441, -1.93372
8.263, 0.18424, 0.67512, -0.29071, -0.38441, -1.92509
8.275, 0.18799, 0.67512, -0.29071, -0.38441, -1.91650
8.287, 0.19174, 0.67512, -0.29071, -0.38441, -1.90795
8.300, 0.19549, 0.67512, -0.29071, -0.38441, -1.89944
8.313, 0.19924, 0.67512, -0.29071, -0.38441, -1.89098
8.325, 0.20299, 0.67512, -0.29071, -0.38441, -1.88256
8.338, 0.20674, 0.67512, -0.29071, -0.38441, -1.87421
8.350, 0.21049, 0.67512, -0.29071, -0.38441, -1.86590
8.363, 0.21424, 0.67512, -0.29071, -0.38441, -1.85766
8.375, 0.21799, 0.67512, -0.29071, -0.38441, -1.84949
8.388, 0.22174, 0.67512, -0.29071, -0.38441, -1.84138
8.400, 0.22549, 0.67512, -0.29071, -0.38441, -1.83334
8.412, 0.22924, 0.67512, -0.29071, -0.38441, -1.82538
8.425, 0.23299, 0.67512, -0.29071, -0.38441, -1.81750
8.438, 0.23674, 0.67512, -0.29071, -0.38441, -1.80969
8.450, 0.24049, 0.67512, -0.29071, -0.38441, -1.80198
8.463, 0.24424, 0.67512, -0.29071, -0.38441, -1.79435
8.475, 0.24798, 0.67512, -0.29071, -0.38441, -1.78681
8.488, 0.25171, 0.67512, -0.29071, -0.38441, -1.77937
8.500, 0.25542, 0.67512, -0.29071, -0.38441, -1.77203
8.513, 0.25912, 0.67512, -0.29071, -0.38441, -1.76479
8.525, 0.26280, 0.67512, -0.29071, -0.38441, -1.75766
8.537, 0.26645, 0.67512, -0.29071, -0.38441, -1.75063
8.550, 0.27007, 0.67512, -0.29071, -0.38441, -1.74372
8.563, 0.27365, 0.67512, -0.29071, -0.38441, -1.73693
8.575, 0.27720, 0.67512, -0.29071, -0.38441, -1.73026
8.588, 0.28071, 0.67512, -0.29071, -0.38441, -1.72371
8.600, 0.28417, 0.67512, -0.29071, -0.38441, -1.71729
8.613, 0.28758, 0.67512, -0.29071, -0.38441, -1.71099
8.625, 0.29094, 0.67512, -0.29071, -0.38441, -1.70484
8.638, 0.29424, 0.67512, -0.29071, -0.38441, -1.69882
8.650, 0.29748, 0.67512, -0.29071, -0.38441, -1.69294
8.662, 0.30066, 0.67512, -0.29071, -0.38441, -1.68720
8.675, 0.30377, 0.67512, -0.29071, -0.38441, -1.68161
8.688, 0.30683, 0.67512, -0.29071, -0.38441, -1.67618
8.700, 0.30982, 0.67512, -0.29071, -0.38441, -1.67090
8.713, 0.31274, 0.67512, -0.29071, -0.38441, -1.66577
8.725, 0.31561, 0.67512, -0.29071, -0.38441, -1.66080
8.738, 0.31841, 0.67512, -0.29071, -0.38441, -1.65599
8.750, 0.32115, 0.67512, -0.29071, -0.38441, -1.65132
8.763, 0.32383, 0.67512, -0.29071, -0.38441, -1.64682
8.775, 0.32644, 0.67512, -0.29071, -0.38441, -1.64247
8.787, 0.32899, 0.67512, -0.29071, -0.38441, -1.63827
8.800, 0.33148, 0.67512, -0.29071, -0.38441, -1.63423
8.813, 0.33391, 0.67512, -0.29071, -0.38441, -1.63034
8.825, 0.33628, 0.67512, -0.29071, -0.38441, -1.62661
8.838, 0.33858, 0.67512, -0.29071, -0.38441, -1.62303
8.850, 0.34082, 0.67512, -0.29071, -0.38441, -1.61961
8.863, 0.34300, 0.67512, -0.29071, -0.38441, -1.61634
8.875, 0.34511, 0.67512, -0.29071, -0.38441, -1.61322
8.888, 0.34716, 0.67512, -0.29071, -0.38441, -1.61025
8.900, 0.34915, 0.67512, -0.29071, -0.38441, -1.60742
8.912, 0.35108, 0.67512, -0.29071, -0.38441, -1.60473
8.925, 0.35295, 0.67512, -0.29071, -0.38441, -1.60217
8.938, 0.35475, 0.67512, -0.29071, -0.38441, -1.59974
8.950, 0.35649, 0.67512, -0.29071, -0.38441, -1.59744
8.963, 0.35817, 0.67512, -0.29071, -0.38441, -1.59527
8.975, 0.35978, 0.67512, -0.29071, -0.38441, -1.59322
8.988, 0.36133, 0.67512, -0.29071, -0.38441, -1.59129
9.000, 0.36282, 0.67512, -0.29071, -0.38441, -1.58947
9.013, 0.36425, 0.67512, -0.29071, -0.38441, -1.58776
9.025, 0.36562, 0.67512, -0.29071, -0.38441, -1.58616
9.037, 0.36692, 0.67512, -0.29071, -0.38441, -1.58467
9.050, 0.36816, 0.67512, -0.29071, -0.38441, -1.58327
9.063, 0.36934, 0.67512, -0.29071, -0.38441, -1.58197
9.075, 0.37045, 0.67512, -0.29071, -0.38441, -1.58077
9.088, 0.37150, 0.67512, -0.29071, -0.38441, -1.57965
9.100, 0.37249, 0.67512, -0.29071, -0.38441, -1.57862
9.113, 0.37342, 0.67512, -0.29071, -0.38441, -1.57767
9.125, 0.37428, 0.67512, -0.29071, -0.38441, -1.57681
9.138, 0.37509, 0.67512, -0.29071, -0.38441, -1.57602
9.150, 0.37583, 0.67512, -0.29071, -0.38441, -1.57530
9.162, 0.37650, 0.67512, -0.29071, -0.38441, -1.57465
9.175, 0.37712, 0.67512, -0.29071, -0.38441, -1.57407
9.188, 0.37767, 0.67512, -0.29071, -0.38441, -1.57355
9.200, 0.37816, 0.67512, -0.29071, -0.38441, -1.57308
9.213, 0.37859, 0.67512, -0.29071, -0.38441, -1.57268
9.225, 0.37897, 0.67512, -0.29071, -0.38441, -1.57232
9.238, 0.37929, 0.67512, -0.29071, -0.38441, -1.57201
9.250, 0.37956, 0.67512, -0.29071, -0.38441, -1.57175
9.263, 0.37979, 0.67512, -0.29071, -0.38441, -1.57153
9.275, 0.37998, 0.67512, -0.29071, -0.38441, -1.57134
9.287, 0.38013, 0.67512, -0.29071, -0.38441, -1.57119
9.300, 0.38025, 0.67512, -0.29071, -0.38441, -1.57107
9.313, 0.38034, 0.67512, -0.29071, -0.38441, -1.57098
9.325, 0.38041, 0.67512, -0.29071, -0.38441, -1.57091
9.338, 0.38046, 0.67512, -0.29071, -0.38441, -1.57086
9.350, 0.38049, 0.67512, -0.29071, -0.38441, -1.57083
9.363, 0.38050, 0.67512, -0.29071, -0.38441, -1.57081
9.375, 0.38051, 0.67512, -0.29071, -0.38441, -1.57080
9.388, 0.38051, 0.67512, -0.29071, -0.38441, -1.57080
9.400, 0.38051, 0.67512, -0.29071, -0.38441, -1.57080
9.412, 0.38051, 0.67512, -0.29071, -0.38441, -1.57080
9.425, 0.38051, 0.67512, -0.29071, -0.38441, -1.57080
9.438, 0.38051, 0.67512, -0.29071, -0.38441, -1.57080
9.450, 0.38051, 0.67512, -0.29071, -0.38441, -1.57080
9.463, 0.38051, 0.67512, -0.29071, -0.38441, -1.57080
9.475, 0.38051, 0.67512, -0.29071, -0.38441, -1.57080
9.488, 0.38051, 0.67512, -0.29071, -0.38441, -1.57080
9.500, 0.38051, 0.67512, -0.29071, -0.38441, -1.57080
9.513, 0.38051, 0.67512, -0.29071, -0.38441, -1.57080
9.525, 0.38051, 0.67512, -0.29071, -0.38441, -1.57080
9.537, 0.38051, 0.67512, -0.29071, -0.38441, -1.57080
9.550, 0.38051, 0.67512, -0.29071, -0.38441, -1.57080
9.563, 0.38051, 0.67512, -0.29071, -0.38441, -1.57080
9.575, 0.38051, 0.67512, -0.29071, -0.38441, -1.57080
9.588, 0.38051, 0.67512, -0.29071, -0.38441, -1.57080
9.600, 0.38051, 0.67512, -0.29071, -0.38441, -1.57080
9.613, 0.38051, 0.67512, -0.29071, -0.38441, -1.57080
9.625, 0.38051, 0.67512, -0.29071, -0.38441, -1.57080
9.638, 0.38051, 0.67512, -0.29071, -0.38441, -1.57080
9.650, 0.38051, 0.67512, -0.29071, -0.38441, -1.57080
9.663, 0.38051, 0.67512, -0.29071, -0.38441, -1.57080
9.675, 0.38051, 0.67512, -0.29071, -0.38441, -1.57080
9.688, 0.38051, 0.67512, -0.29071, -0.38441, -1.57080
9.700, 0.38051, 0.67512, -0.29071, -0.38441, -1.57080
9.713, 0.38051, 0.67512, -0.29071, -0.38441, -1.57080
9.725, 0.38051, 0.67512, -0.29071, -0.38441, -1.57080
9.738, 0.38051, 0.67512, -0.29071, -0.38441, -1.57080
9.750, 0.38051, 0.67512, -0.29071, -0.38441, -1.57080
9.763, 0.38051, 0.67512, -0.29071, -0.38441, -1.57080
9.775, 0.38051, 0.67512, -0.29071, -0.38441, -1.57080
9.788, 0.38051, 0.67512, -0.29071, -0.38441, -1.57080
9.800, 0.38051, 0.67512, -0.29071, -0.38441, -1.57080
9.813, 0.38051, 0.67512, -0.29071, -0.38441, -1.57080
9.825, 0.38051, 0.67512, -0.29071, -0.38441, -1.57080
9.838, 0.38051, 0.67512, -0.29071, -0.38442, -1.57080
9.850, 0.38051, 0.67512, -0.29071, -0.38442, -1.57080
9.863, 0.38051, 0.67512, -0.29071, -0.38442, -1.57080
9.875, 0.38051, 0.67512, -0.29071, -0.38442, -1.57080
9.888, 0.38051, 0.67512, -0.29071, -0.38442, -1.57080
9.900, 0.38051, 0.67512, -0.29071, -0.38442, -1.57080
9.913, 0.38051, 0.67512, -0.29071, -0.38442, -1.57080
9.925, 0.38051, 0.67512, -0.29071, -0.38442, -1.57080
9.938, 0.38051, 0.67512, -0.29071, -0.38442, -1.57080
9.950, 0.38051, 0.67512, -0.29071, -0.38442, -1.57081
9.963, 0.38051, 0.67512, -0.29071, -0.38442, -1.57081
9.975, 0.38051, 0.67512, -0.29071, -0.38442, -1.57081
9.988, 0.38051, 0.67512, -0.29071, -0.38442, -1.57081
10.000, 0.38051, 0.67512, -0.29071, -0.38442, -1.57081
10.013, 0.38051, 0.67512, -0.29071, -0.38442, -1.57081
10.025, 0.38051, 0.67512, -0.29071, -0.38442, -1.57081
10.038, 0.38051, 0.67512, -0.29071, -0.38442, -1.57081
10.050, 0.38051, 0.67512, -0.29071, -0.38442, -1.57081
10.063, 0.38051, 0.67512, -0.29071, -0.38442, -1.57081
10.075, 0.38051, 0.67512, -0.29071, -0.38442, -1.57081
10.088, 0.38051, 0.67512, -0.29071, -0.38442, -1.57081
10.100, 0.38051, 0.67512, -0.29071, -0.38442, -1.57081
10.113, 0.38051, 0.67512, -0.29071, -0.38442, -1.57081
10.125, 0.38051, 0.67512, -0.29071, -0.38442, -1.57081
10.138, 0.38051, 0.67512, -0.29071, -0.38442, -1.57081
10.150, 0.38051, 0.67512, -0.29071, -0.38442, -1.57081
10.163, 0.38051, 0.67512, -0.29071, -0.38442, -1.57081
10.175, 0.38051, 0.67512, -0.29071, -0.38442, -1.57081
10.188, 0.38051, 0.67512, -0.29071, -0.38442, -1.57081
10.200, 0.38051, 0.67512, -0.29071, -0.38442, -1.57081
10.213, 0.38051, 0.67512, -0.29071, -0.38442, -1.57081
10.225, 0.38051, 0.67512, -0.29071, -0.38442, -1.57081
10.238, 0.38051, 0.67512, -0.29071, -0.38441, -1.57081
10.250, 0.38051, 0.67512, -0.29071, -0.38441, -1.57081
10.263, 0.38051, 0.67512, -0.29071, -0.38441, -1.57081
10.275, 0.38051, 0.67512, -0.29071, -0.38441, -1.57080
10.288, 0.38051, 0.67512, -0.29071, -0.38441, -1.57080
10.300, 0.38051, 0.67512, -0.29071, -0.38441, -1.57080
10.313, 0.38051, 0.67512, -0.29071, -0.38441, -1.57080
10.325, 0.38051, 0.67512, -0.29071, -0.38441, -1.57080
10.338, 0.38051, 0.67512, -0.29071, -0.38441, -1.57080
10.350, 0.38051, 0.67512, -0.29071, -0.38441, -1.57080
10.363, 0.38051, 0.67512, -0.29071, -0.38441, -1.57080
10.375, 0.38051, 0.67512, -0.29071, -0.38441, -1.57080
10.388, 0.38051, 0.67512, -0.29071, -0.38441, -1.57080
10.400, 0.38051, 0.67512, -0.29071, -0.38441, -1.57080
10.413, 0.38051, 0.67512, -0.29072, -0.38440, -1.57079
10.425, 0.38051, 0.67511, -0.29073, -0.38439, -1.57076
10.438, 0.38051, 0.67511, -0.29076, -0.38436, -1.57072
10.450, 0.38051, 0.67509, -0.29080, -0.38432, -1.57065
10.463, 0.38051, 0.67507, -0.29086, -0.38427, -1.57055
10.475, 0.38051, 0.67505, -0.29095, -0.38419, -1.57041
10.488, 0.38051, 0.67501, -0.29107, -0.38409, -1.57023
10.500, 0.38051, 0.67497, -0.29122, -0.38396, -1.56999
10.513, 0.38051, 0.67492, -0.29140, -0.38380, -1.56971
10.525, 0.38051, 0.67486, -0.29162, -0.38361, -1.56936
10.538, 0.38051, 0.67478, -0.29189, -0.38339, -1.56895
10.550, 0.38051, 0.67469, -0.29221, -0.38312, -1.56846
10.563, 0.38051, 0.67459, -0.29257, -0.38282, -1.56790
10.575, 0.38051, 0.67447, -0.29299, -0.38246, -1.56725
10.588, 0.38051, 0.67434, -0.29348, -0.38206, -1.56651
10.600, 0.38051, 0.67418, -0.29402, -0.38161, -1.56567
10.613, 0.38051, 0.67401, -0.29463, -0.38110, -1.56474
10.625, 0.38051, 0.67382, -0.29532, -0.38054, -1.56369
10.638, 0.38051, 0.67361, -0.29607, -0.37991, -1.56254
10.650, 0.38051, 0.67338, -0.29691, -0.37922, -1.56126
10.663, 0.38051, 0.67312, -0.29783, -0.37846, -1.55986
10.675, 0.38051, 0.67284, -0.29884, -0.37763, -1.55833
10.688, 0.38051, 0.67254, -0.29993, -0.37673, -1.55666
10.700, 0.38051, 0.67221, -0.30113, -0.37575, -1.55484
10.713, 0.38051, 0.67185, -0.30242, -0.37470, -1.55288
10.725, 0.38051, 0.67146, -0.30381, -0.37356, -1.55077
10.738, 0.38051, 0.67105, -0.30531, -0.37233, -1.54849
10.750, 0.38051, 0.67060, -0.30691, -0.37101, -1.54605
10.763, 0.38051, 0.67013, -0.30863, -0.36961, -1.54344
10.775, 0.38051, 0.66962, -0.31046, -0.36810, -1.54065
10.788, 0.38051, 0.66907, -0.31239, -0.36650, -1.53768
10.800, 0.38051, 0.66850, -0.31444, -0.36480, -1.53451
10.813, 0.38051, 0.66788, -0.31659, -0.36299, -1.53115
10.825, 0.38051, 0.66724, -0.31886, -0.36107, -1.52759
10.838, 0.38051, 0.66655, -0.32123, -0.35905, -1.52383
10.850, 0.38051, 0.66582, -0.32371, -0.35691, -1.51985
10.863, 0.38051, 0.66506, -0.32631, -0.35465, -1.51565
10.875, 0.38051, 0.66425, -0.32901, -0.35227, -1.51123
10.888, 0.38051, 0.66340, -0.33182, -0.34977, -1.50660
10.900, 0.38051, 0.66251, -0.33474, -0.34714, -1.50174
10.913, 0.38051, 0.66157, -0.33776, -0.34438, -1.49667
10.925, 0.38051, 0.66059, -0.34089, -0.34149, -1.49138
10.938, 0.38051, 0.65957, -0.34411, -0.33847, -1.48587
10.950, 0.38051, 0.65849, -0.34742, -0.33530, -1.48015
10.963, 0.38051, 0.65738, -0.35083, -0.33199, -1.47420
10.975, 0.38051, 0.65621, -0.35432, -0.32854, -1.46804
10.988, 0.38051, 0.65500, -0.35789, -0.32495, -1.46165
11.000, 0.38051, 0.65374, -0.36153, -0.32121, -1.45506
11.013, 0.38051, 0.65244, -0.36525, -0.31733, -1.44825
11.025, 0.38051, 0.65109, -0.36905, -0.31330, -1.44124
11.038, 0.38051, 0.64970, -0.37290, -0.30913, -1.43403
11.050, 0.38051, 0.64826, -0.37682, -0.30482, -1.42663
11.063, 0.38051, 0.64677, -0.38079, -0.30036, -1.41904
11.075, 0.38051, 0.64524, -0.38482, -0.29576, -1.41128
11.088, 0.38051, 0.64366, -0.38890, -0.29101, -1.40333
11.100, 0.38051, 0.64203, -0.39303, -0.28612, -1.39523
11.113, 0.38051, 0.64036, -0.39720, -0.28109, -1.38695
11.125, 0.38051, 0.63864, -0.40140, -0.27591, -1.37853
11.138, 0.38051, 0.63688, -0.40564, -0.27059, -1.36995
11.150, 0.38051, 0.63507, -0.40991, -0.26514, -1.36122
11.163, 0.38051, 0.63322, -0.41421, -0.25954, -1.35236
11.175, 0.38051, 0.63132, -0.41853, -0.25382, -1.34336
11.188, 0.38051, 0.62937, -0.42287, -0.24796, -1.33424
11.200, 0.38051, 0.62739, -0.42722, -0.24198, -1.32499
11.213, 0.38051, 0.62536, -0.43159, -0.23587, -1.31563
11.225, 0.38051, 0.62329, -0.43596, -0.22965, -1.30615
11.238, 0.38051, 0.62118, -0.44033, -0.22330, -1.29658
11.250, 0.38051, 0.61903, -0.44471, -0.21685, -1.28690
11.263, 0.38051, 0.61684, -0.44908, -0.21028, -1.27714
11.275, 0.38051, 0.61462, -0.45346, -0.20360, -1.26728
11.288, 0.38051, 0.61236, -0.45783, -0.19682, -1.25735
11.300, 0.38051, 0.61007, -0.46221, -0.18994, -1.24734
11.313, 0.38051, 0.60774, -0.46659, -0.18296, -1.23726
11.325, 0.38051, 0.60538, -0.47096, -0.17589, -1.22712
11.338, 0.38051, 0.60299, -0.47534, -0.16872, -1.21692
11.350, 0.38051, 0.60057, -0.47971, -0.16147, -1.20667
11.363, 0.38051, 0.59812, -0.48409, -0.15413, -1.19637
11.375, 0.38051, 0.59564, -0.48846, -0.14670, -1.18604
11.388, 0.38051, 0.59313, -0.49283, -0.13920, -1.17567
11.400, 0.38051, 0.59060, -0.49721, -0.13162, -1.16527
11.413, 0.38051, 0.58804, -0.50158, -0.12396, -1.15485
11.425, 0.38051, 0.58546, -0.50596, -0.11624, -1.14441
11.438, 0.38051, 0.58286, -0.51033, -0.10845, -1.13397
11.450, 0.38051, 0.58024, -0.51471, -0.10059, -1.12351
11.463, 0.38051, 0.57759, -0.51909, -0.09268, -1.11306
11.475, 0.38051, 0.57492, -0.52346, -0.08470, -1.10261
11.488, 0.38051, 0.57224, -0.52784, -0.07668, -1.09216
11.500, 0.38051, 0.56954, -0.53221, -0.06860, -1.08171
11.513, 0.38051, 0.56682, -0.53658, -0.06047, -1.07125
11.525, 0.38051, 0.56409, -0.54096, -0.05229, -1.06080
11.538, 0.38051, 0.56134, -0.54534, -0.04408, -1.05035
11.550, 0.38051, 0.55858, -0.54971, -0.03582, -1.03990
11.563, 0.38051, 0.55580, -0.55408, -0.02753, -1.02944
11.575, 0.38051, 0.55302, -0.55846, -0.01921, -1.01899
11.588, 0.38051, 0.55023, -0.56283, -0.01086, -1.00854
11.600, 0.38051, 0.54742, -0.56721, -0.00248, -0.99809
11.613, 0.38051, 0.54461, -0.57159, 0.00592, -0.98764
11.625, 0.38051, 0.54179, -0.57596, 0.01435, -0.97718
11.638, 0.38051, 0.53897, -0.58034, 0.02279, -0.96673
11.650, 0.38051, 0.53614, -0.58471, 0.03124, -0.95628
11.663, 0.38051, 0.53331, -0.58909, 0.03971, -0.94583
11.675, 0.38051, 0.53047, -0.59346, 0.04818, -0.93537
11.688, 0.38051, 0.52764, -0.59784, 0.05666, -0.92492
11.700, 0.38051, 0.52480, -0.60221, 0.06514, -0.91447
11.713, 0.38051, 0.52196, -0.60658, 0.07362, -0.90402
11.725, 0.38051, 0.51913, -0.61096, 0.08209, -0.89357
11.738, 0.38051, 0.51629, -0.61534, 0.09057, -0.88311
11.750, 0.38051, 0.51345, -0.61971, 0.09905, -0.87266
11.763, 0.38051, 0.51061, -0.62409, 0.10753, -0.86221
11.775, 0.38051, 0.50778, -0.62846, 0.11601, -0.85176
11.788, 0.38051, 0.50494, -0.63284, 0.12449, -0.84130
11.800, 0.38051, 0.50210, -0.63721, 0.13297, -0.83085
11.813, 0.38051, 0.49927, -0.64159, 0.14145, -0.82040
11.825, 0.38051, 0.49643, -0.64596, 0.14993, -0.80995
11.838, 0.38051, 0.49359, -0.65033, 0.15841, -0.79950
11.850, 0.38051, 0.49075, -0.65471, 0.16689, -0.78904
11.863, 0.38051, 0.48792, -0.65909, 0.17536, -0.77859
11.875, 0.38051, 0.48508, -0.66346, 0.18384, -0.76814
11.888, 0.38051, 0.48224, -0.66784, 0.19232, -0.75769
11.900, 0.38051, 0.47941, -0.67221, 0.20080, -0.74723
11.913, 0.38051, 0.47657, -0.67659, 0.20928, -0.73678
11.925, 0.38051, 0.47373, -0.68096, 0.21776, -0.72633
11.938, 0.38051, 0.47090, -0.68534, 0.22624, -0.71588
11.950, 0.38051, 0.46806, -0.68971, 0.23472, -0.70543
11.963, 0.38051, 0.46522, -0.69409, 0.24320, -0.69497
11.975, 0.38051, 0.46238, -0.69846, 0.25168, -0.68452
11.988, 0.38051, 0.45955, -0.70284, 0.26016, -0.67407
12.000, 0.38051, 0.45671, -0.70721, 0.26864, -0.66362
12.013, 0.38051, 0.45387, -0.71159, 0.27711, -0.65316
12.025, 0.38051, 0.45104, -0.71596, 0.28559, -0.64271
12.038, 0.38051, 0.44820, -0.72034, 0.29406, -0.63226
12.050, 0.38051, 0.44537, -0.72471, 0.30253, -0.62181
12.063, 0.38051, 0.44253, -0.72909, 0.31098, -0.61136
12.075, 0.38051, 0.43971, -0.73346, 0.31942, -0.60090
12.088, 0.38051, 0.43689, -0.73784, 0.32784, -0.59045
12.100, 0.38051, 0.43407, -0.74221, 0.33624, -0.58000
12.113, 0.38051, 0.43126, -0.74659, 0.34462, -0.56955
12.125, 0.38051, 0.42846, -0.75096, 0.35297, -0.55909
12.138, 0.38051, 0.42567, -0.75534, 0.36129, -0.54864
12.150, 0.38051, 0.42289, -0.75971, 0.36957, -0.53819
12.163, 0.38051, 0.42012, -0.76409, 0.37782, -0.52774
12.175, 0.38051, 0.41736, -0.76846, 0.38603, -0.51729
12.188, 0.38051, 0.41462, -0.77284, 0.39420, -0.50683
12.200, 0.38051, 0.41189, -0.77721, 0.40232, -0.49638
12.213, 0.38051, 0.40918, -0.78159, 0.41040, -0.48593
12.225, 0.38051, 0.40648, -0.78596, 0.41842, -0.47548
12.238, 0.38051, 0.40380, -0.79034, 0.42639, -0.46502
12.250, 0.38051, 0.40114, -0.79471, 0.43430, -0.45457
12.263, 0.38051, 0.39850, -0.79909, 0.44214, -0.44412
12.275, 0.38051, 0.39589, -0.80346, 0.44993, -0.43367
12.288, 0.38051, 0.39329, -0.80783, 0.45764, -0.42322
12.300, 0.38051, 0.39072, -0.81221, 0.46529, -0.41279
12.313, 0.38051, 0.38817, -0.81658, 0.47286, -0.40238
12.325, 0.38051, 0.38565, -0.82096, 0.48035, -0.39199
12.338, 0.38051, 0.38315, -0.82533, 0.48777, -0.38163
12.350, 0.38051, 0.38068, -0.82971, 0.49510, -0.37130
12.363, 0.38051, 0.37824, -0.83409, 0.50235, -0.36102
12.375, 0.38051, 0.37583, -0.83846, 0.50950, -0.35078
12.388, 0.38051, 0.37345, -0.84284, 0.51656, -0.34060
12.400, 0.38051, 0.37110, -0.84721, 0.52353, -0.33048
12.413, 0.38051, 0.36878, -0.85159, 0.53040, -0.32042
12.425, 0.38051, 0.36650, -0.85596, 0.53717, -0.31043
12.438, 0.38051, 0.36425, -0.86033, 0.54383, -0.30052
12.450, 0.38051, 0.36204, -0.86471, 0.55039, -0.29070
12.463, 0.38051, 0.35987, -0.86908, 0.55683, -0.28096
12.475, 0.38051, 0.35773, -0.87346, 0.56316, -0.27131
12.488, 0.38051, 0.35563, -0.87783, 0.56937, -0.26177
12.500, 0.38051, 0.35358, -0.88220, 0.57546, -0.25233
12.513, 0.38051, 0.35156, -0.88657, 0.58143, -0.24300
12.525, 0.38051, 0.34959, -0.89091, 0.58727, -0.23379
12.538, 0.38051, 0.34766, -0.89525, 0.59298, -0.22470
12.550, 0.38051, 0.34577, -0.89956, 0.59856, -0.21574
12.563, 0.38051, 0.34393, -0.90385, 0.60400, -0.20692
12.575, 0.38051, 0.34214, -0.90811, 0.60930, -0.19824
12.588, 0.38051, 0.34039, -0.91234, 0.61446, -0.18971
12.600, 0.38051, 0.33869, -0.91654, 0.61948, -0.18132
12.613, 0.38051, 0.33704, -0.92069, 0.62435, -0.17310
12.625, 0.38051, 0.33543, -0.92480, 0.62908, -0.16504
12.638, 0.38051, 0.33386, -0.92887, 0.63367, -0.15715
12.650, 0.38051, 0.33235, -0.93288, 0.63811, -0.14944
12.663, 0.38051, 0.33087, -0.93684, 0.64241, -0.14191
12.675, 0.38051, 0.32945, -0.94073, 0.64656, -0.13457
12.688, 0.38051, 0.32807, -0.94457, 0.65057, -0.12742
12.700, 0.38051, 0.32673, -0.94834, 0.65443, -0.12047
12.713, 0.38051, 0.32545, -0.95204, 0.65816, -0.11372
12.725, 0.38051, 0.32421, -0.95566, 0.66173, -0.10719
12.738, 0.38051, 0.32301, -0.95920, 0.66517, -0.10087
12.750, 0.38051, 0.32186, -0.96266, 0.66846, -0.09478
12.763, 0.38051, 0.32076, -0.96604, 0.67161, -0.08890
12.775, 0.38051, 0.31970, -0.96933, 0.67462, -0.08323
12.788, 0.38051, 0.31869, -0.97252, 0.67749, -0.07779
12.800, 0.38051, 0.31772, -0.97561, 0.68024, -0.07257
12.813, 0.38051, 0.31680, -0.97860, 0.68285, -0.06756
12.825, 0.38051, 0.31592, -0.98148, 0.68534, -0.06278
12.838, 0.38051, 0.31509, -0.98426, 0.68770, -0.05821
12.850, 0.38051, 0.31430, -0.98693, 0.68994, -0.05386
12.863, 0.38051, 0.31354, -0.98948, 0.69207, -0.04973
12.875, 0.38051, 0.31283, -0.99193, 0.69408, -0.04581
12.888, 0.38051, 0.31216, -0.99427, 0.69599, -0.04211
12.900, 0.38051, 0.31152, -0.99650, 0.69778, -0.03861
12.913, 0.38051, 0.31092, -0.99862, 0.69947, -0.03531
12.925, 0.38051, 0.31035, -1.00063, 0.70106, -0.03220
12.938, 0.38051, 0.30982, -1.00253, 0.70255, -0.02929
12.950, 0.38051, 0.30932, -1.00432, 0.70395, -0.02655
12.963, 0.38051, 0.30886, -1.00600, 0.70526, -0.02399
12.975, 0.38051, 0.30842, -1.00758, 0.70647, -0.02160
12.988, 0.38051, 0.30802, -1.00904, 0.70760, -0.01937
13.000, 0.38051, 0.30764, -1.01040, 0.70865, -0.01731
13.013, 0.38051, 0.30729, -1.01166, 0.70962, -0.01539
13.025, 0.38051, 0.30697, -1.01282, 0.71051, -0.01362
13.038, 0.38051, 0.30667, -1.01389, 0.71133, -0.01200
13.050, 0.38051, 0.30640, -1.01486, 0.71208, -0.01050
13.063, 0.38051, 0.30615, -1.01576, 0.71277, -0.00914
13.075, 0.38051, 0.30593, -1.01657, 0.71339, -0.00790
13.088, 0.38051, 0.30572, -1.01730, 0.71394, -0.00678
13.100, 0.38051, 0.30554, -1.01796, 0.71445, -0.00577
13.113, 0.38051, 0.30537, -1.01855, 0.71489, -0.00486
13.125, 0.38051, 0.30523, -1.01908, 0.71529, -0.00406
13.138, 0.38051, 0.30510, -1.01954, 0.71563, -0.00335
13.150, 0.38051, 0.30499, -1.01994, 0.71594, -0.00272
13.163, 0.38051, 0.30489, -1.02029, 0.71620, -0.00218
13.175, 0.38051, 0.30480, -1.02059, 0.71642, -0.00172
13.188, 0.38051, 0.30473, -1.02084, 0.71660, -0.00133
13.200, 0.38051, 0.30467, -1.02105, 0.71676, -0.00100
13.213, 0.38051, 0.30462, -1.02123, 0.71688, -0.00073
13.225, 0.38051, 0.30458, -1.02136, 0.71698, -0.00051
13.238, 0.38051, 0.30455, -1.02147, 0.71705, -0.00035
13.250, 0.38051, 0.30453, -1.02155, 0.71711, -0.00022
13.263, 0.38051, 0.30451, -1.02160, 0.71715, -0.00013
13.275, 0.38051, 0.30450, -1.02164, 0.71717, -0.00007
13.288, 0.38051, 0.30450, -1.02166, 0.71718, -0.00003
13.300, 0.38051, 0.30449, -1.02168, 0.71719, -0.00001
13.313, 0.38051, 0.30449, -1.02168, 0.71719, -0.00000
13.325, 0.38051, 0.30449, -1.02168, 0.71719, 0.00000
13.338, 0.38051, 0.30449, -1.02168, 0.71719, 0.00000
13.350, 0.38051, 0.30449, -1.02168, 0.71719, 0.00000
13.363, 0.38051, 0.30449, -1.02168, 0.71719, 0.00000
13.375, 0.38051, 0.30449, -1.02168, 0.71719, 0.00000
13.388, 0.38051, 0.30449, -1.02168, 0.71719, 0.00000
13.400, 0.38051, 0.30449, -1.02168, 0.71719, 0.00000
13.413, 0.38051, 0.30449, -1.02168, 0.71719, 0.00000
13.425, 0.38051, 0.30449, -1.02168, 0.71719, 0.00000
13.438, 0.38051, 0.30449, -1.02168, 0.71719, 0.00000
13.450, 0.38051, 0.30449, -1.02168, 0.71719, 0.00000
13.463, 0.38051, 0.30449, -1.02168, 0.71719, 0.00000
13.475, 0.38051, 0.30449, -1.02168, 0.71719, 0.00000
13.488, 0.38051, 0.30449, -1.02168, 0.71719, 0.00000
13.500, 0.38051, 0.30449, -1.02168, 0.71719, 0.00000
13.513, 0.38051, 0.30449, -1.02168, 0.71719, 0.00000
13.525, 0.38051, 0.30449, -1.02168, 0.71719, 0.00000
13.538, 0.38051, 0.30449, -1.02168, 0.71719, 0.00000
13.550, 0.38051, 0.30449, -1.02168, 0.71719, 0.00000
13.563, 0.38051, 0.30449, -1.02168, 0.71719, 0.00000
13.575, 0.38051, 0.30449, -1.02168, 0.71719, 0.00000
13.588, 0.38051, 0.30449, -1.02168, 0.71719, 0.00000
13.600, 0.38051, 0.30449, -1.02168, 0.71719, 0.00000
13.613, 0.38051, 0.30449, -1.02168, 0.71719, 0.00000
13.625, 0.38051, 0.30449, -1.02168, 0.71719, 0.00000
13.638, 0.38051, 0.30449, -1.02168, 0.71719, 0.00000
13.650, 0.38051, 0.30449, -1.02168, 0.71719, 0.00000
13.663, 0.38051, 0.30449, -1.02168, 0.71719, 0.00000
13.675, 0.38051, 0.30449, -1.02168, 0.71719, 0.00000
13.688, 0.38051, 0.30449, -1.02168, 0.71719, 0.00000
13.700, 0.38051, 0.30449, -1.02168, 0.71719, 0.00000
13.713, 0.38051, 0.30449, -1.02168, 0.71719, -0.00000
13.725, 0.38051, 0.30449, -1.02168, 0.71719, -0.00000
13.738, 0.38051, 0.30449, -1.02168, 0.71719, -0.00000
13.750, 0.38051, 0.30449, -1.02168, 0.71719, -0.00000
13.763, 0.38051, 0.30449, -1.02168, 0.71719, -0.00000
13.775, 0.38051, 0.30449, -1.02168, 0.71719, -0.00000
13.788, 0.38051, 0.30449, -1.02168, 0.71719, -0.00000
13.800, 0.38051, 0.30449, -1.02168, 0.71719, -0.00000
13.813, 0.38051, 0.30449, -1.02168, 0.71719, -0.00000
13.825, 0.38051, 0.30449, -1.02168, 0.71719, -0.00000
13.838, 0.38051, 0.30449, -1.02168, 0.71719, -0.00000
13.850, 0.38051, 0.30449, -1.02168, 0.71719, -0.00000
13.863, 0.38051, 0.30449, -1.02168, 0.71719, -0.00000
13.875, 0.38051, 0.30449, -1.02168, 0.71719, -0.00000
13.888, 0.38051, 0.30449, -1.02168, 0.71719, -0.00000
13.900, 0.38051, 0.30449, -1.02168, 0.71719, -0.00000
13.913, 0.38051, 0.30449, -1.02168, 0.71719, -0.00000
13.925, 0.38051, 0.30449, -1.02168, 0.71719, -0.00000
13.938, 0.38051, 0.30449, -1.02168, 0.71719, -0.00000
13.950, 0.38051, 0.30449, -1.02168, 0.71719, -0.00000
13.963, 0.38051, 0.30449, -1.02168, 0.71719, -0.00000
13.975, 0.38051, 0.30449, -1.02168, 0.71719, -0.00000
13.988, 0.38051, 0.30449, -1.02168, 0.71719, -0.00000
14.000, 0.38051, 0.30449, -1.02168, 0.71719, -0.00000
14.013, 0.38051, 0.30449, -1.02168, 0.71719, -0.00000
14.025, 0.38051, 0.30449, -1.02168, 0.71719, -0.00001
14.038, 0.38051, 0.30449, -1.02168, 0.71719, -0.00001
14.050, 0.38051, 0.30449, -1.02168, 0.71719, -0.00001
14.063, 0.38051, 0.30449, -1.02168, 0.71719, -0.00001
14.075, 0.38051, 0.30449, -1.02168, 0.71719, -0.00001
14.088, 0.38051, 0.30449, -1.02168, 0.71719, -0.00001
14.100, 0.38051, 0.30449, -1.02168, 0.71719, -0.00001
14.113, 0.38051, 0.30449, -1.02168, 0.71719, -0.00001
14.125, 0.38051, 0.30449, -1.02168, 0.71719, -0.00001
14.138, 0.38051, 0.30449, -1.02168, 0.71719, -0.00000
14.150, 0.38051, 0.30449, -1.02168, 0.71719, -0.00000
14.163, 0.38051, 0.30449, -1.02168, 0.71719, -0.00000
14.175, 0.38051, 0.30449, -1.02168, 0.71719, -0.00000
14.188, 0.38051, 0.30449, -1.02168, 0.71719, -0.00000
14.200, 0.38051, 0.30449, -1.02168, 0.71719, -0.00000
14.213, 0.38051, 0.30449, -1.02168, 0.71719, -0.00000
14.225, 0.38051, 0.30449, -1.02168, 0.71719, -0.00000
14.238, 0.38051, 0.30449, -1.02168, 0.71719, -0.00000
14.250, 0.38051, 0.30449, -1.02168, 0.71719, -0.00000
14.263, 0.38051, 0.30449, -1.02168, 0.71719, -0.00000
14.275, 0.38051, 0.30449, -1.02168, 0.71719, -0.00000
14.288, 0.38051, 0.30449, -1.02168, 0.71719, -0.00000
14.300, 0.38051, 0.30449, -1.02168, 0.71719, -0.00000
14.313, 0.38051, 0.30449, -1.02168, 0.71719, -0.00000
14.325, 0.38051, 0.30449, -1.02168, 0.71719, 0.00000
14.338, 0.38051, 0.30449, -1.02168, 0.71719, 0.00000
14.350, 0.38050, 0.30449, -1.02168, 0.71719, 0.00002
14.363, 0.38047, 0.30449, -1.02168, 0.71719, 0.00004
14.375, 0.38044, 0.30449, -1.02168, 0.71719, 0.00008
14.388, 0.38038, 0.30449, -1.02168, 0.71719, 0.00013
14.400, 0.38031, 0.30449, -1.02168, 0.71719, 0.00021
14.413, 0.38020, 0.30449, -1.02168, 0.71719, 0.00031
14.425, 0.38007, 0.30449, -1.02168, 0.71719, 0.00044
14.438, 0.37990, 0.30449, -1.02168, 0.71719, 0.00060
14.450, 0.37969, 0.30449, -1.02168, 0.71719, 0.00079
14.463, 0.37944, 0.30449, -1.02168, 0.71719, 0.00103
14.475, 0.37915, 0.30449, -1.02168, 0.71719, 0.00131
14.488, 0.37880, 0.30449, -1.02168, 0.71719, 0.00163
14.500, 0.37840, 0.30449, -1.02168, 0.71719, 0.00200
14.513, 0.37794, 0.30449, -1.02168, 0.71719, 0.00243
14.525, 0.37742, 0.30449, -1.02168, 0.71719, 0.00291
14.538, 0.37684, 0.30449, -1.02168, 0.71719, 0.00345
14.550, 0.37620, 0.30449, -1.02168, 0.71719, 0.00405
14.563, 0.37549, 0.30449, -1.02168, 0.71719, 0.00472
14.575, 0.37472, 0.30449, -1.02168, 0.71719, 0.00547
14.588, 0.37389, 0.30449, -1.02168, 0.71719, 0.00628
14.600, 0.37300, 0.30449, -1.02168, 0.71719, 0.00717
14.613, 0.37204, 0.30449, -1.02168, 0.71719, 0.00814
14.625, 0.37103, 0.30449, -1.02168, 0.71719, 0.00920
14.638, 0.36994, 0.30449, -1.02168, 0.71719, 0.01034
14.650, 0.36880, 0.30449, -1.02168, 0.71719, 0.01158
14.663, 0.36759, 0.30449, -1.02168, 0.71719, 0.01291
14.675, 0.36633, 0.30449, -1.02168, 0.71719, 0.01434
14.688, 0.36499, 0.30449, -1.02168, 0.71719, 0.01587
14.700, 0.36360, 0.30449, -1.02168, 0.71719, 0.01750
14.713, 0.36214, 0.30449, -1.02168, 0.71719, 0.01925
14.725, 0.36062, 0.30449, -1.02168, 0.71719, 0.02110
14.738, 0.35904, 0.30449, -1.02168, 0.71719, 0.02307
14.750, 0.35740, 0.30449, -1.02168, 0.71719, 0.02516
14.763, 0.35569, 0.30449, -1.02168, 0.71719, 0.02737
14.775, 0.35392, 0.30449, -1.02168, 0.71719, 0.02971
14.788, 0.35209, 0.30449, -1.02168, 0.71719, 0.03218
14.800, 0.35020, 0.30449, -1.02168, 0.71719, 0.03478
14.813, 0.34824, 0.30449, -1.02168, 0.71719, 0.03752
14.825, 0.34622, 0.30449, -1.02168, 0.71719, 0.04040
14.838, 0.34414, 0.30449, -1.02168, 0.71719, 0.04342
14.850, 0.34200, 0.30449, -1.02168, 0.71719, 0.04658
14.863, 0.33979, 0.30449, -1.02168, 0.71719, 0.04990
14.875, 0.33752, 0.30449, -1.02168, 0.71719, 0.05337
14.888, 0.33519, 0.30449, -1.02168, 0.71719, 0.05700
14.900, 0.33280, 0.30449, -1.02168, 0.71719, 0.06078
14.913, 0.33034, 0.30449, -1.02168, 0.71719, 0.06472
14.925, 0.32783, 0.30449, -1.02168, 0.71719, 0.06881
14.938, 0.32524, 0.30449, -1.02168, 0.71719, 0.07306
14.950, 0.32260, 0.30449, -1.02168, 0.71719, 0.07746
14.963, 0.31989, 0.30449, -1.02168, 0.71719, 0.08201
14.975, 0.31713, 0.30449, -1.02168, 0.71719, 0.08673
14.988, 0.31429, 0.30449, -1.02168, 0.71719, 0.09159
15.000, 0.31140, 0.30449, -1.02168, 0.71719, 0.09661
15.013, 0.30844, 0.30449, -1.02168, 0.71719, 0.10179
15.025, 0.30542, 0.30449, -1.02168, 0.71719, 0.10712
15.038, 0.30234, 0.30449, -1.02168, 0.71719, 0.11260
15.050, 0.29920, 0.30449, -1.02168, 0.71719, 0.11824
15.063, 0.29599, 0.30449, -1.02168, 0.71719, 0.12402
15.075, 0.29273, 0.30449, -1.02168, 0.71719, 0.12995
15.088, 0.28940, 0.30449, -1.02168, 0.71719, 0.13601
15.100, 0.28601, 0.30449, -1.02168, 0.71719, 0.14221
15.113, 0.28258, 0.30449, -1.02168, 0.71719, 0.14855
15.125, 0.27910, 0.30449, -1.02168, 0.71719, 0.15501
15.138, 0.27557, 0.30449, -1.02168, 0.71719, 0.16160
15.150, 0.27200, 0.30449, -1.02168, 0.71719, 0.16831
15.163, 0.26840, 0.30449, -1.02168, 0.71719, 0.17515
15.175, 0.26477, 0.30449, -1.02168, 0.71719, 0.18209
15.188, 0.26111, 0.30449, -1.02168, 0.71719, 0.18915
15.200, 0.25742, 0.30449, -1.02168, 0.71719, 0.19632
15.213, 0.25371, 0.30449, -1.02168, 0.71719, 0.20359
15.225, 0.24999, 0.30449, -1.02168, 0.71719, 0.21097
15.238, 0.24625, 0.30449, -1.02168, 0.71719, 0.21844
15.250, 0.24251, 0.30449, -1.02168, 0.71719, 0.22600
15.263, 0.23876, 0.30449, -1.02168, 0.71719, 0.23366
15.275, 0.23501, 0.30449, -1.02168, 0.71719, 0.24141
15.288, 0.23126, 0.30449, -1.02168, 0.71719, 0.24924
15.300, 0.22751, 0.30449, -1.02168, 0.71719, 0.25715
15.313, 0.22376, 0.30449, -1.02168, 0.71719, 0.26513
15.325, 0.22001, 0.30449, -1.02168, 0.71719, 0.27319
15.338, 0.21626, 0.30449, -1.02168, 0.71719, 0.28132
15.350, 0.21251, 0.30449, -1.02168, 0.71719, 0.28952
15.363, 0.20876, 0.30449, -1.02168, 0.71719, 0.29778
15.375, 0.20501, 0.30449, -1.02168, 0.71719, 0.30610
15.388, 0.20126, 0.30449, -1.02168, 0.71719, 0.31448
15.400, 0.19751, 0.30449, -1.02168, 0.71719, 0.32291
15.413, 0.19376, 0.30449, -1.02168, 0.71719, 0.33138
15.425, 0.19001, 0.30449, -1.02168, 0.71719, 0.33991
15.438, 0.18626, 0.30449, -1.02168, 0.71719, 0.34847
15.450, 0.18251, 0.30449, -1.02168, 0.71719, 0.35708
15.463, 0.17876, 0.30449, -1.02168, 0.71719, 0.36572
15.475, 0.17501, 0.30449, -1.02168, 0.71719, 0.37439
15.488, 0.17126, 0.30449, -1.02168, 0.71719, 0.38309
15.500, 0.16751, 0.30449, -1.02168, 0.71719, 0.39181
15.513, 0.16376, 0.30449, -1.02168, 0.71719, 0.40056
15.525, 0.16001, 0.30449, -1.02168, 0.71719, 0.40932
15.538, 0.15626, 0.30449, -1.02168, 0.71719, 0.41810
15.550, 0.15251, 0.30449, -1.02168, 0.71719, 0.42689
15.563, 0.14876, 0.30449, -1.02168, 0.71719, 0.43569
15.575, 0.14501, 0.30449, -1.02168, 0.71719, 0.44449
15.588, 0.14126, 0.30449, -1.02168, 0.71719, 0.45329
15.600, 0.13751, 0.30449, -1.02168, 0.71719, 0.46209
15.613, 0.13376, 0.30449, -1.02168, 0.71719, 0.47089
15.625, 0.13001, 0.30449, -1.02168, 0.71719, 0.47969
15.638, 0.12626, 0.30449, -1.02168, 0.71719, 0.48849
15.650, 0.12251, 0.30449, -1.02168, 0.71719, 0.49729
15.663, 0.11876, 0.30449, -1.02168, 0.71719, 0.50609
15.675, 0.11501, 0.30449, -1.02168, 0.71719, 0.51489
15.688, 0.11126, 0.30449, -1.02168, 0.71719, 0.52369
15.700, 0.10751, 0.30449, -1.02168, 0.71719, 0.53249
15.713, 0.10376, 0.30449, -1.02168, 0.71719, 0.54129
15.725, 0.10001, 0.30449, -1.02168, 0.71719, 0.55009
15.738, 0.09626, 0.30449, -1.02168, 0.71719, 0.55889
15.750, 0.09251, 0.30449, -1.02168, 0.71719, 0.56769
15.763, 0.08876, 0.30449, -1.02168, 0.71719, 0.57649
15.775, 0.08501, 0.30449, -1.02168, 0.71719, 0.58529
15.788, 0.08126, 0.30449, -1.02168, 0.71719, 0.59409
15.800, 0.07751, 0.30449, -1.02168, 0.71719, 0.60289
15.813, 0.07376, 0.30449, -1.02168, 0.71719, 0.61169
15.825, 0.07001, 0.30449, -1.02168, 0.71719, 0.62049
15.838, 0.06626, 0.30449, -1.02168, 0.71719, 0.62929
15.850, 0.06251, 0.30449, -1.02168, 0.71719, 0.63809
15.863, 0.05876, 0.30449, -1.02168, 0.71719, 0.64689
15.875, 0.05501, 0.30449, -1.02168, 0.71719, 0.65569
15.888, 0.05126, 0.30449, -1.02168, 0.71719, 0.66449
15.900, 0.04751, 0.30449, -1.02168, 0.71719, 0.67329
15.913, 0.04376, 0.30449, -1.02168, 0.71719, 0.68209
15.925, 0.04001, 0.30449, -1.02168, 0.71719, 0.69089
15.938, 0.03626, 0.30449, -1.02168, 0.71719, 0.69969
15.950, 0.03251, 0.30449, -1.02168, 0.71719, 0.70849
15.963, 0.02876, 0.30449, -1.02168, 0.71719, 0.71730
15.975, 0.02501, 0.30449, -1.02168, 0.71719, 0.72610
15.988, 0.02126, 0.30449, -1.02168, 0.71719, 0.73490
16.000, 0.01751, 0.30449, -1.02168, 0.71719, 0.74370
16.013, 0.01376, 0.30449, -1.02168, 0.71719, 0.75250
16.025, 0.01001, 0.30449, -1.02168, 0.71719, 0.76130
16.038, 0.00626, 0.30449, -1.02168, 0.71719, 0.77010
16.050, 0.00251, 0.30449, -1.02168, 0.71719, 0.77890
16.063, -0.00124, 0.30449, -1.02168, 0.71719, 0.78770
16.075, -0.00499, 0.30449, -1.02168, 0.71719, 0.79650
16.088, -0.00874, 0.30449, -1.02168, 0.71719, 0.80530
16.100, -0.01249, 0.30449, -1.02168, 0.71719, 0.81410
16.113, -0.01624, 0.30449, -1.02168, 0.71719, 0.82290
16.125, -0.01999, 0.30449, -1.02168, 0.71719, 0.83170
16.138, -0.02374, 0.30449, -1.02168, 0.71719, 0.84050
16.150, -0.02749, 0.30449, -1.02168, 0.71719, 0.84930
16.163, -0.03124, 0.30449, -1.02168, 0.71719, 0.85810
16.175, -0.03499, 0.30449, -1.02168, 0.71719, 0.86690
16.188, -0.03874, 0.30449, -1.02168, 0.71719, 0.87570
16.200, -0.04249, 0.30449, -1.02168, 0.71719, 0.88450
16.213, -0.04624, 0.30449, -1.02168, 0.71719, 0.89330
16.225, -0.04999, 0.30449, -1.02168, 0.71719, 0.90210
16.238, -0.05374, 0.30449, -1.02168, 0.71719, 0.91090
16.250, -0.05749, 0.30449, -1.02168, 0.71719, 0.91970
16.263, -0.06124, 0.30449, -1.02168, 0.71719, 0.92850
16.275, -0.06499, 0.30449, -1.02168, 0.71719, 0.93730
16.288, -0.06874, 0.30449, -1.02168, 0.71719, 0.94610
16.300, -0.07249, 0.30449, -1.02168, 0.71719, 0.95490
16.313, -0.07624, 0.30449, -1.02168, 0.71719, 0.96370
16.325, -0.07999, 0.30449, -1.02168, 0.71719, 0.97250
16.338, -0.08374, 0.30449, -1.02168, 0.71719, 0.98130
16.350, -0.08749, 0.30449, -1.02168, 0.71719, 0.99010
16.363, -0.09124, 0.30449, -1.02168, 0.71719, 0.99890
16.375, -0.09499, 0.30449, -1.02168, 0.71719, 1.00770
16.388, -0.09874, 0.30449, -1.02168, 0.71719, 1.01651
16.400, -0.10249, 0.30449, -1.02168, 0.71719, 1.02531
16.413, -0.10624, 0.30449, -1.02168, 0.71719, 1.03411
16.425, -0.10999, 0.30449, -1.02168, 0.71719, 1.04291
16.438, -0.11374, 0.30449, -1.02168, 0.71719, 1.05171
16.450, -0.11749, 0.30449, -1.02168, 0.71719, 1.06051
16.463, -0.12124, 0.30449, -1.02168, 0.71719, 1.06931
16.475, -0.12499, 0.30449, -1.02168, 0.71719, 1.07811
16.488, -0.12874, 0.30449, -1.02168, 0.71719, 1.08691
16.500, -0.13249, 0.30449, -1.02168, 0.71719, 1.09571
16.513, -0.13624, 0.30449, -1.02168, 0.71719, 1.10451
16.525, -0.13999, 0.30449, -1.02168, 0.71719, 1.11331
16.538, -0.14374, 0.30449, -1.02168, 0.71719, 1.12211
16.550, -0.14749, 0.30449, -1.02168, 0.71719, 1.13091
16.563, -0.15124, 0.30449, -1.02168, 0.71719, 1.13971
16.575, -0.15499, 0.30449, -1.02168, 0.71719, 1.14850
16.588, -0.15874, 0.30449, -1.02168, 0.71719, 1.15728
16.600, -0.16249, 0.30449, -1.02168, 0.71719, 1.16605
16.613, -0.16624, 0.30449, -1.02168, 0.71719, 1.17481
16.625, -0.16999, 0.30449, -1.02168, 0.71719, 1.18354
16.638, -0.17374, 0.30449, -1.02168, 0.71719, 1.19226
16.650, -0.17749, 0.30449, -1.02168, 0.71719, 1.20094
16.663, -0.18124, 0.30449, -1.02168, 0.71719, 1.20960
16.675, -0.18499, 0.30449, -1.02168, 0.71719, 1.21822
16.688, -0.18874, 0.30449, -1.02168, 0.71719, 1.22680
16.700, -0.19249, 0.30449, -1.02168, 0.71719, 1.23535
16.713, -0.19624, 0.30449, -1.02168, 0.71719, 1.24385
16.725, -0.19999, 0.30449, -1.02168, 0.71719, 1.25230
16.738, -0.20374, 0.30449, -1.02168, 0.71719, 1.26070
16.750, -0.20749, 0.30449, -1.02168, 0.71719, 1.26905
16.763, -0.21124, 0.30449, -1.02168, 0.71719, 1.27734
16.775, -0.21499, 0.30449, -1.02168, 0.71719, 1.28557
16.788, -0.21874, 0.30449, -1.02168, 0.71719, 1.29373
16.800, -0.22249, 0.30449, -1.02168, 0.71719, 1.30182
16.813, -0.22624, 0.30449, -1.02168, 0.71719, 1.30985
16.825, -0.22999, 0.30449, -1.02168, 0.71719, 1.31779
16.838, -0.23374, 0.30449, -1.02168, 0.71719, 1.32566
16.850, -0.23749, 0.30449, -1.02168, 0.71719, 1.33345
16.863, -0.24124, 0.30449, -1.02168, 0.71719, 1.34115
16.875, -0.24499, 0.30449, -1.02168, 0.71719, 1.34876
16.888, -0.24873, 0.30449, -1.02168, 0.71719, 1.35628
16.900, -0.25245, 0.30449, -1.02168, 0.71719, 1.36370
16.913, -0.25617, 0.30449, -1.02168, 0.71719, 1.37102
16.925, -0.25986, 0.30449, -1.02168, 0.71719, 1.37824
16.938, -0.26353, 0.30449, -1.02168, 0.71719, 1.38535
16.950, -0.26717, 0.30449, -1.02168, 0.71719, 1.39235
16.963, -0.27079, 0.30449, -1.02168, 0.71719, 1.39924
16.975, -0.27437, 0.30449, -1.02168, 0.71719, 1.40601
16.988, -0.27791, 0.30449, -1.02168, 0.71719, 1.41265
17.000, -0.28140, 0.30449, -1.02168, 0.71719, 1.41918
17.013, -0.28486, 0.30449, -1.02168, 0.71719, 1.42558
17.025, -0.28826, 0.30449, -1.02168, 0.71719, 1.43184
17.038, -0.29160, 0.30449, -1.02168, 0.71719, 1.43797
17.050, -0.29489, 0.30449, -1.02168, 0.71719, 1.44396
17.063, -0.29812, 0.30449, -1.02168, 0.71719, 1.44982
17.075, -0.30129, 0.30449, -1.02168, 0.71719, 1.45552
17.088, -0.30439, 0.30449, -1.02168, 0.71719, 1.46108
17.100, -0.30743, 0.30449, -1.02168, 0.71719, 1.46648
17.113, -0.31041, 0.30449, -1.02168, 0.71719, 1.47173
17.125, -0.31332, 0.30449, -1.02168, 0.71719, 1.47683
17.138, -0.31617, 0.30449, -1.02168, 0.71719, 1.48177
17.150, -0.31896, 0.30449, -1.02168, 0.71719, 1.48655
17.163, -0.32169, 0.30449, -1.02168, 0.71719, 1.49118
17.175, -0.32436, 0.30449, -1.02168, 0.71719, 1.49566
17.188, -0.32696, 0.30449, -1.02168, 0.71719, 1.49998
17.200, -0.32950, 0.30449, -1.02168, 0.71719, 1.50415
17.213, -0.33198, 0.30449, -1.02168, 0.71719, 1.50816
17.225, -0.33439, 0.30449, -1.02168, 0.71719, 1.51201
17.238, -0.33674, 0.30449, -1.02168, 0.71719, 1.51571
17.250, -0.33903, 0.30449, -1.02168, 0.71719, 1.51926
17.263, -0.34126, 0.30449, -1.02168, 0.71719, 1.52265
17.275, -0.34342, 0.30449, -1.02168, 0.71719, 1.52589
17.288, -0.34553, 0.30449, -1.02168, 0.71719, 1.52898
17.300, -0.34757, 0.30449, -1.02168, 0.71719, 1.53192
17.313, -0.34954, 0.30449, -1.02168, 0.71719, 1.53473
17.325, -0.35146, 0.30449, -1.02168, 0.71719, 1.53739
17.338, -0.35331, 0.30449, -1.02168, 0.71719, 1.53993
17.350, -0.35510, 0.30449, -1.02168, 0.71719, 1.54232
17.363, -0.35683, 0.30449, -1.02168, 0.71719, 1.54460
17.375, -0.35849, 0.30449, -1.02168, 0.71719, 1.54675
17.388, -0.36010, 0.30449, -1.02168, 0.71719, 1.54877
17.400, -0.36164, 0.30449, -1.02168, 0.71719, 1.55068
17.413, -0.36311, 0.30449, -1.02168, 0.71719, 1.55248
17.425, -0.36453, 0.30449, -1.02168, 0.71719, 1.55416
17.438, -0.36588, 0.30449, -1.02168, 0.71719, 1.55574
17.450, -0.36717, 0.30449, -1.02168, 0.71719, 1.55722
17.463, -0.36840, 0.30449, -1.02168, 0.71719, 1.55860
17.475, -0.36956, 0.30449, -1.02168, 0.71719, 1.55988
17.488, -0.37067, 0.30449, -1.02168, 0.71719, 1.56106
17.500, -0.37171, 0.30449, -1.02168, 0.71719, 1.56216
17.513, -0.37268, 0.30449, -1.02168, 0.71719, 1.56317
17.525, -0.37360, 0.30449, -1.02168, 0.71719, 1.56410
17.538, -0.37445, 0.30449, -1.02168, 0.71719, 1.56496
17.550, -0.37524, 0.30449, -1.02168, 0.71719, 1.56573
17.563, -0.37597, 0.30449, -1.02168, 0.71719, 1.56643
17.575, -0.37663, 0.30449, -1.02168, 0.71719, 1.56707
17.588, -0.37724, 0.30449, -1.02168, 0.71719, 1.56764
17.600, -0.37777, 0.30449, -1.02168, 0.71719, 1.56815
17.613, -0.37825, 0.30449, -1.02168, 0.71719, 1.56860
17.625, -0.37867, 0.30449, -1.02168, 0.71719, 1.56900
17.638, -0.37903, 0.30449, -1.02168, 0.71719, 1.56934
17.650, -0.37935, 0.30449, -1.02168, 0.71719, 1.56964
17.663, -0.37961, 0.30449, -1.02168, 0.71719, 1.56990
17.675, -0.37983, 0.30449, -1.02168, 0.71719, 1.57011
17.688, -0.38001, 0.30449, -1.02168, 0.71719, 1.57029
17.700, -0.38016, 0.30449, -1.02168, 0.71719, 1.57043
17.713, -0.38027, 0.30449, -1.02168, 0.71719, 1.57055
17.725, -0.38036, 0.30449, -1.02168, 0.71719, 1.57064
17.738, -0.38042, 0.30449, -1.02168, 0.71719, 1.57070
17.750, -0.38046, 0.30449, -1.02168, 0.71719, 1.57075
17.763, -0.38049, 0.30449, -1.02168, 0.71719, 1.57077
17.775, -0.38050, 0.30449, -1.02168, 0.71719, 1.57079
17.788, -0.38051, 0.30449, -1.02168, 0.71719, 1.57080
17.800, -0.38051, 0.30449, -1.02168, 0.71719, 1.57080
17.813, -0.38051, 0.30449, -1.02168, 0.71719, 1.57080
17.825, -0.38051, 0.30449, -1.02168, 0.71719, 1.57080
17.838, -0.38051, 0.30449, -1.02168, 0.71719, 1.57080
17.850, -0.38051, 0.30449, -1.02168, 0.71719, 1.57080
17.863, -0.38051, 0.30449, -1.02168, 0.71719, 1.57080
17.875, -0.38051, 0.30449, -1.02168, 0.71719, 1.57080
17.888, -0.38051, 0.30449, -1.02168, 0.71719, 1.57080
17.900, -0.38051, 0.30449, -1.02168, 0.71719, 1.57080
17.913, -0.38051, 0.30449, -1.02168, 0.71719, 1.57080
17.925, -0.38051, 0.30449, -1.02168, 0.71719, 1.57080
17.938, -0.38051, 0.30449, -1.02168, 0.71719, 1.57080
17.950, -0.38051, 0.30449, -1.02168, 0.71719, 1.57080
17.963, -0.38051, 0.30449, -1.02168, 0.71719, 1.57080
17.975, -0.38051, 0.30449, -1.02168, 0.71719, 1.57080
17.988, -0.38051, 0.30449, -1.02168, 0.71719, 1.57080
18.000, -0.38051, 0.30449, -1.02168, 0.71719, 1.57080
18.013, -0.38051, 0.30449, -1.02168, 0.71719, 1.57080
18.025, -0.38051, 0.30449, -1.02168, 0.71719, 1.57080
18.038, -0.38051, 0.30449, -1.02168, 0.71719, 1.57080
18.050, -0.38051, 0.30449, -1.02168, 0.71719, 1.57080
18.063, -0.38051, 0.30449, -1.02168, 0.71719, 1.57080
18.075, -0.38051, 0.30449, -1.02168, 0.71719, 1.57080
18.088, -0.38051, 0.30449, -1.02168, 0.71719, 1.57080
18.100, -0.38051, 0.30449, -1.02168, 0.71719, 1.57080
18.113, -0.38051, 0.30449, -1.02168, 0.71719, 1.57080
18.125, -0.38051, 0.30449, -1.02168, 0.71719, 1.57080
18.138, -0.38051, 0.30449, -1.02168, 0.71719, 1.57080
18.150, -0.38051, 0.30449, -1.02168, 0.71719, 1.57080
18.163, -0.38051, 0.30449, -1.02168, 0.71719, 1.57080
18.175, -0.38051, 0.30449, -1.02168, 0.71719, 1.57080
18.188, -0.38051, 0.30449, -1.02168, 0.71719, 1.57080
18.200, -0.38051, 0.30449, -1.02168, 0.71719, 1.57080
18.213, -0.38051, 0.30449, -1.02168, 0.71719, 1.57080
18.225, -0.38051, 0.30449, -1.02168, 0.71719, 1.57080
18.238, -0.38051, 0.30449, -1.02168, 0.71719, 1.57080
18.250, -0.38051, 0.30449, -1.02168, 0.71720, 1.57080
18.263, -0.38051, 0.30449, -1.02168, 0.71720, 1.57080
18.275, -0.38051, 0.30449, -1.02168, 0.71720, 1.57080
18.288, -0.38051, 0.30449, -1.02168, 0.71720, 1.57080
18.300, -0.38051, 0.30449, -1.02168, 0.71720, 1.57080
18.313, -0.38051, 0.30449, -1.02168, 0.71720, 1.57080
18.325, -0.38051, 0.30449, -1.02168, 0.71720, 1.57080
18.338, -0.38051, 0.30449, -1.02168, 0.71720, 1.57080
18.350, -0.38051, 0.30449, -1.02168, 0.71720, 1.57080
18.363, -0.38051, 0.30449, -1.02168, 0.71720, 1.57079
18.375, -0.38051, 0.30449, -1.02168, 0.71720, 1.57079
18.388, -0.38051, 0.30449, -1.02168, 0.71720, 1.57079
18.400, -0.38051, 0.30449, -1.02168, 0.71720, 1.57079
18.413, -0.38051, 0.30449, -1.02168, 0.71720, 1.57079
18.425, -0.38051, 0.30449, -1.02168, 0.71720, 1.57079
18.438, -0.38051, 0.30449, -1.02168, 0.71720, 1.57079
18.450, -0.38051, 0.30449, -1.02168, 0.71720, 1.57079
18.463, -0.38051, 0.30449, -1.02168, 0.71720, 1.57079
18.475, -0.38051, 0.30449, -1.02168, 0.71720, 1.57079
18.488, -0.38051, 0.30449, -1.02168, 0.71720, 1.57079
18.500, -0.38051, 0.30449, -1.02168, 0.71720, 1.57079
18.513, -0.38051, 0.30449, -1.02168, 0.71720, 1.57079
18.525, -0.38051, 0.30449, -1.02168, 0.71720, 1.57079
18.538, -0.38051, 0.30449, -1.02168, 0.71720, 1.57079
18.550, -0.38051, 0.30449, -1.02168, 0.71720, 1.57079
18.563, -0.38051, 0.30449, -1.02168, 0.71720, 1.57079
18.575, -0.38051, 0.30449, -1.02168, 0.71720, 1.57079
18.588, -0.38051, 0.30449, -1.02168, 0.71720, 1.57079
18.600, -0.38051, 0.30449, -1.02168, 0.71720, 1.57079
18.613, -0.38051, 0.30449, -1.02168, 0.71720, 1.57079
18.625, -0.38051, 0.30449, -1.02168, 0.71720, 1.57079
18.638, -0.38051, 0.30449, -1.02168, 0.71720, 1.57079
18.650, -0.38051, 0.30449, -1.02168, 0.71719, 1.57079
18.663, -0.38051, 0.30449, -1.02168, 0.71719, 1.57079
18.675, -0.38051, 0.30449, -1.02168, 0.71719, 1.57080
18.688, -0.38051, 0.30449, -1.02168, 0.71719, 1.57080
18.700, -0.38051, 0.30449, -1.02168, 0.71719, 1.57080
18.713, -0.38051, 0.30449, -1.02168, 0.71719, 1.57080
18.725, -0.38051, 0.30449, -1.02168, 0.71719, 1.57080
18.738, -0.38051, 0.30449, -1.02168, 0.71719, 1.57080
18.750, -0.38051, 0.30449, -1.02168, 0.71719, 1.57080
18.763, -0.38051, 0.30449, -1.02168, 0.71719, 1.57080
18.775, -0.38051, 0.30449, -1.02168, 0.71719, 1.57080
18.788, -0.38051, 0.30449, -1.02168, 0.71719, 1.57080
18.800, -0.38051, 0.30449, -1.02168, 0.71719, 1.57080
18.813, -0.38051, 0.30449, -1.02168, 0.71719, 1.57080
18.825, -0.38051, 0.30449, -1.02167, 0.71718, 1.57082
18.838, -0.38051, 0.30450, -1.02165, 0.71716, 1.57084
18.850, -0.38051, 0.30451, -1.02162, 0.71714, 1.57089
18.863, -0.38051, 0.30452, -1.02158, 0.71709, 1.57097
18.875, -0.38051, 0.30454, -1.02151, 0.71703, 1.57108
18.888, -0.38051, 0.30457, -1.02142, 0.71695, 1.57122
18.900, -0.38051, 0.30460, -1.02129, 0.71685, 1.57142
18.913, -0.38051, 0.30465, -1.02114, 0.71671, 1.57166
18.925, -0.38051, 0.30470, -1.02095, 0.71655, 1.57196
18.938, -0.38051, 0.30477, -1.02072, 0.71635, 1.57232
18.950, -0.38051, 0.30485, -1.02044, 0.71612, 1.57274
18.963, -0.38051, 0.30494, -1.02011, 0.71585, 1.57325
18.975, -0.38051, 0.30504, -1.01974, 0.71553, 1.57383
18.988, -0.38051, 0.30517, -1.01930, 0.71517, 1.57449
19.000, -0.38051, 0.30530, -1.01881, 0.71476, 1.57525
19.013, -0.38051, 0.30546, -1.01825, 0.71429, 1.57610
19.025, -0.38051, 0.30563, -1.01763, 0.71377, 1.57706
19.038, -0.38051, 0.30583, -1.01693, 0.71320, 1.57813
19.050, -0.38051, 0.30604, -1.01616, 0.71256, 1.57931
19.063, -0.38051, 0.30628, -1.01530, 0.71185, 1.58061
19.075, -0.38051, 0.30654, -1.01437, 0.71108, 1.58204
19.088, -0.38051, 0.30683, -1.01334, 0.71024, 1.58360
19.100, -0.38051, 0.30714, -1.01223, 0.70932, 1.58529
19.113, -0.38051, 0.30747, -1.01101, 0.70833, 1.58714
19.125, -0.38051, 0.30784, -1.00970, 0.70725, 1.58913
19.138, -0.38051, 0.30823, -1.00829, 0.70610, 1.59127
19.150, -0.38051, 0.30865, -1.00677, 0.70485, 1.59358
19.163, -0.38051, 0.30910, -1.00514, 0.70352, 1.59606
19.175, -0.38051, 0.30958, -1.00340, 0.70209, 1.59870
19.188, -0.38051, 0.31010, -1.00155, 0.70057, 1.60153
19.200, -0.38051, 0.31065, -0.99960, 0.69895, 1.60454
19.213, -0.38051, 0.31123, -0.99753, 0.69722, 1.60774
19.225, -0.38051, 0.31185, -0.99535, 0.69540, 1.61114
19.238, -0.38051, 0.31251, -0.99307, 0.69346, 1.61474
19.250, -0.38051, 0.31320, -0.99067, 0.69141, 1.61855
19.263, -0.38051, 0.31394, -0.98817, 0.68924, 1.62258
19.275, -0.38051, 0.31471, -0.98555, 0.68696, 1.62682
19.288, -0.38051, 0.31553, -0.98283, 0.68456, 1.63128
19.300, -0.38051, 0.31638, -0.97999, 0.68203, 1.63596
19.313, -0.38051, 0.31728, -0.97705, 0.67938, 1.64085
19.325, -0.38051, 0.31823, -0.97401, 0.67660, 1.64597
19.338, -0.38051, 0.31922, -0.97087, 0.67368, 1.65130
19.350, -0.38051, 0.32025, -0.96763, 0.67063, 1.65685
19.363, -0.38051, 0.32134, -0.96429, 0.66743, 1.66263
19.375, -0.38051, 0.32246, -0.96087, 0.66410, 1.66861
19.388, -0.38051, 0.32364, -0.95737, 0.66062, 1.67482
19.400, -0.38051, 0.32486, -0.95378, 0.65699, 1.68125
19.413, -0.38051, 0.32612, -0.95012, 0.65322, 1.68789
19.425, -0.38051, 0.32744, -0.94638, 0.64931, 1.69474
19.438, -0.38051, 0.32879, -0.94258, 0.64526, 1.70179
19.450, -0.38051, 0.33020, -0.93871, 0.64106, 1.70904
19.463, -0.38051, 0.33165, -0.93478, 0.63672, 1.71647
19.475, -0.38051, 0.33314, -0.93079, 0.63223, 1.72410
19.488, -0.38051, 0.33469, -0.92675, 0.62760, 1.73190
19.500, -0.38051, 0.33627, -0.92267, 0.62282, 1.73987
19.513, -0.38051, 0.33791, -0.91853, 0.61791, 1.74802
19.525, -0.38051, 0.33959, -0.91436, 0.61284, 1.75632
19.538, -0.38051, 0.34131, -0.91014, 0.60764, 1.76478
19.550, -0.38051, 0.34309, -0.90590, 0.60229, 1.77339
19.563, -0.38051, 0.34490, -0.90162, 0.59681, 1.78214
19.575, -0.38051, 0.34677, -0.89732, 0.59119, 1.79103
19.588, -0.38051, 0.34868, -0.89299, 0.58543, 1.80005
19.600, -0.38051, 0.35063, -0.88865, 0.57955, 1.80920
19.613, -0.38051, 0.35263, -0.88429, 0.57355, 1.81847
19.625, -0.38051, 0.35466, -0.87993, 0.56742, 1.82786
19.638, -0.38051, 0.35674, -0.87555, 0.56117, 1.83735
19.650, -0.38051, 0.35886, -0.87118, 0.55480, 1.84695
19.663, -0.38051, 0.36102, -0.86680, 0.54832, 1.85664
19.675, -0.38051, 0.36321, -0.86243, 0.54173, 1.86643
19.688, -0.38051, 0.36544, -0.85805, 0.53504, 1.87630
19.700, -0.38051, 0.36771, -0.85368, 0.52824, 1.88625
19.713, -0.38051, 0.37001, -0.84930, 0.52134, 1.89627
19.725, -0.38051, 0.37234, -0.84493, 0.51434, 1.90636
19.738, -0.38051, 0.37471, -0.84056, 0.50724, 1.91652
19.750, -0.38051, 0.37710, -0.83618, 0.50006, 1.92673
19.763, -0.38051, 0.37953, -0.83181, 0.49279, 1.93699
19.775, -0.38051, 0.38199, -0.82743, 0.48543, 1.94729
19.788, -0.38051, 0.38447, -0.82306, 0.47799, 1.95763
19.800, -0.38051, 0.38698, -0.81868, 0.47047, 1.96801
19.813, -0.38051, 0.38952, -0.81430, 0.46287, 1.97841
19.825, -0.38051, 0.39208, -0.80993, 0.45520, 1.98884
19.838, -0.38051, 0.39466, -0.80555, 0.44747, 1.99928
19.850, -0.38051, 0.39727, -0.80118, 0.43966, 2.00972
19.863, -0.38051, 0.39990, -0.79680, 0.43179, 2.02018
19.875, -0.38051, 0.40255, -0.79243, 0.42387, 2.03063
19.888, -0.38051, 0.40522, -0.78805, 0.41588, 2.04108
19.900, -0.38051, 0.40791, -0.78368, 0.40784, 2.05153
19.913, -0.38051, 0.41061, -0.77930, 0.39975, 2.06198
19.925, -0.38051, 0.41334, -0.77493, 0.39162, 2.07244
19.938, -0.38051, 0.41607, -0.77055, 0.38343, 2.08289
19.950, -0.38051, 0.41882, -0.76618, 0.37521, 2.09334
19.963, -0.38051, 0.42159, -0.76180, 0.36695, 2.10379
19.975, -0.38051, 0.42436, -0.75743, 0.35865, 2.11425
19.988, -0.38051, 0.42715, -0.75305, 0.35032, 2.12470
20.000, -0.38051, 0.42994, -0.74868, 0.34196, 2.13515
20.013, -0.38051, 0.43275, -0.74430, 0.33358, 2.14560
20.025, -0.38051, 0.43556, -0.73993, 0.32517, 2.15605
20.038, -0.38051, 0.43838, -0.73555, 0.31675, 2.16651
20.050, -0.38051, 0.44121, -0.73118, 0.30830, 2.17696
20.063, -0.38051, 0.44404, -0.72680, 0.29985, 2.18741
20.075, -0.38051, 0.44687, -0.72243, 0.29138, 2.19786
20.088, -0.38051, 0.44970, -0.71805, 0.28290, 2.20832
20.100, -0.38051, 0.45254, -0.71368, 0.27443, 2.21877
20.113, -0.38051, 0.45538, -0.70930, 0.26595, 2.22922
20.125, -0.38051, 0.45822, -0.70493, 0.25747, 2.23967
20.138, -0.38051, 0.46105, -0.70055, 0.24899, 2.25012
20.150, -0.38051, 0.46389, -0.69618, 0.24051, 2.26058
20.163, -0.38051, 0.46673, -0.69180, 0.23203, 2.27103
20.175, -0.38051, 0.46956, -0.68743, 0.22355, 2.28148
20.188, -0.38051, 0.47240, -0.68305, 0.21507, 2.29193
20.200, -0.38051, 0.47524, -0.67868, 0.20659, 2.30239
20.213, -0.38051, 0.47807, -0.67430, 0.19811, 2.31284
20.225, -0.38051, 0.48091, -0.66993, 0.18964, 2.32329
20.238, -0.38051, 0.48375, -0.66555, 0.18116, 2.33374
20.250, -0.38051, 0.48659, -0.66118, 0.17268, 2.34419
20.263, -0.38051, 0.48942, -0.65680, 0.16420, 2.35465
20.275, -0.38051, 0.49226, -0.65243, 0.15572, 2.36510
20.288, -0.38051, 0.49510, -0.64805, 0.14724, 2.37555
20.300, -0.38051, 0.49793, -0.64368, 0.13876, 2.38600
20.313, -0.38051, 0.50077, -0.63930, 0.13028, 2.39646
20.325, -0.38051, 0.50361, -0.63493, 0.12180, 2.40691
20.338, -0.38051, 0.50644, -0.63055, 0.11332, 2.41736
20.350, -0.38051, 0.50928, -0.62618, 0.10484, 2.42781
20.363, -0.38051, 0.51212, -0.62180, 0.09637, 2.43826
20.375, -0.38051, 0.51496, -0.61743, 0.08789, 2.44872
20.388, -0.38051, 0.51779, -0.61305, 0.07941, 2.45917
20.400, -0.38051, 0.52063, -0.60868, 0.07093, 2.46962
20.413, -0.38051, 0.52347, -0.60430, 0.06245, 2.48007
20.425, -0.38051, 0.52630, -0.59993, 0.05397, 2.49053
20.438, -0.38051, 0.52914, -0.59555, 0.04549, 2.50098
20.450, -0.38051, 0.53198, -0.59118, 0.03702, 2.51143
20.463, -0.38051, 0.53481, -0.58680, 0.02856, 2.52188
20.475, -0.38051, 0.53764, -0.58243, 0.02011, 2.53233
20.488, -0.38051, 0.54047, -0.57805, 0.01168, 2.54279
20.500, -0.38051, 0.54329, -0.57368, 0.00326, 2.55324
20.513, -0.38051, 0.54610, -0.56930, -0.00514, 2.56369
20.525, -0.38051, 0.54891, -0.56493, -0.01351, 2.57414
20.538, -0.38051, 0.55171, -0.56055, -0.02185, 2.58460
20.550, -0.38051, 0.55450, -0.55618, -0.03017, 2.59505
20.563, -0.38051, 0.55728, -0.55180, -0.03844, 2.60550
20.575, -0.38051, 0.56004, -0.54743, -0.04669, 2.61595
20.588, -0.38051, 0.56280, -0.54305, -0.05489, 2.62640
20.600, -0.38051, 0.56554, -0.53868, -0.06305, 2.63686
20.613, -0.38051, 0.56826, -0.53430, -0.07116, 2.64731
20.625, -0.38051, 0.57097, -0.52993, -0.07923, 2.65776
20.638, -0.38051, 0.57367, -0.52555, -0.08724, 2.66821
20.650, -0.38051, 0.57634, -0.52118, -0.09519, 2.67867
20.663, -0.38051, 0.57900, -0.51680, -0.10309, 2.68912
20.675, -0.38051, 0.58163, -0.51243, -0.11092, 2.69957
20.688, -0.38051, 0.58424, -0.50806, -0.11869, 2.71002
20.700, -0.38051, 0.58684, -0.50368, -0.12640, 2.72046
20.713, -0.38051, 0.58940, -0.49930, -0.13403, 2.73089
20.725, -0.38051, 0.59195, -0.49493, -0.14158, 2.74130
20.738, -0.38051, 0.59447, -0.49055, -0.14906, 2.75169
20.750, -0.38051, 0.59696, -0.48618, -0.15646, 2.76204
20.763, -0.38051, 0.59942, -0.48180, -0.16378, 2.77236
20.775, -0.38051, 0.60186, -0.47743, -0.17100, 2.78263
20.788, -0.38051, 0.60426, -0.47306, -0.17814, 2.79286
20.800, -0.38051, 0.60663, -0.46868, -0.18519, 2.80303
20.813, -0.38051, 0.60898, -0.46431, -0.19213, 2.81314
20.825, -0.38051, 0.61129, -0.45993, -0.19898, 2.82318
20.838, -0.38051, 0.61356, -0.45556, -0.20573, 2.83315
20.850, -0.38051, 0.61580, -0.45118, -0.21237, 2.84305
20.863, -0.38051, 0.61801, -0.44680, -0.21891, 2.85286
20.875, -0.38051, 0.62017, -0.44243, -0.22533, 2.86258
20.888, -0.38051, 0.62230, -0.43805, -0.23163, 2.87221
20.900, -0.38051, 0.62439, -0.43368, -0.23782, 2.88173
20.913, -0.38051, 0.62644, -0.42931, -0.24389, 2.89115
20.925, -0.38051, 0.62845, -0.42495, -0.24983, 2.90045
20.938, -0.38051, 0.63041, -0.42061, -0.25564, 2.90964
20.950, -0.38051, 0.63233, -0.41628, -0.26133, 2.91870
20.963, -0.38051, 0.63421, -0.41197, -0.26688, 2.92763
20.975, -0.38051, 0.63604, -0.40768, -0.27229, 2.93642
20.988, -0.38051, 0.63782, -0.40343, -0.27757, 2.94508
21.000, -0.38051, 0.63956, -0.39921, -0.28270, 2.95358
21.013, -0.38051, 0.64125, -0.39502, -0.28769, 2.96193
21.025, -0.38051, 0.64290, -0.39087, -0.29253, 2.97012
21.038, -0.38051, 0.64450, -0.38677, -0.29723, 2.97815
21.050, -0.38051, 0.64605, -0.38272, -0.30179, 2.98600
21.063, -0.38051, 0.64756, -0.37872, -0.30620, 2.99368
21.075, -0.38051, 0.64903, -0.37477, -0.31047, 3.00117
21.088, -0.38051, 0.65044, -0.37088, -0.31459, 3.00848
21.100, -0.38051, 0.65181, -0.36706, -0.31857, 3.01558
21.113, -0.38051, 0.65314, -0.36331, -0.32241, 3.02249
21.125, -0.38051, 0.65441, -0.35962, -0.32610, 3.02920
21.138, -0.38051, 0.65565, -0.35602, -0.32965, 3.03569
21.150, -0.38051, 0.65683, -0.35249, -0.33306, 3.04196
21.163, -0.38051, 0.65797, -0.34904, -0.33632, 3.04801
21.175, -0.38051, 0.65907, -0.34569, -0.33944, 3.05385
21.188, -0.38051, 0.66012, -0.34242, -0.34242, 3.05947
21.200, -0.38051, 0.66112, -0.33925, -0.34527, 3.06486
21.213, -0.38051, 0.66208, -0.33617, -0.34799, 3.07005
21.225, -0.38051, 0.66299, -0.33320, -0.35058, 3.07501
21.238, -0.38051, 0.66386, -0.33034, -0.35304, 3.07975
21.250, -0.38051, 0.66468, -0.32759, -0.35538, 3.08427
21.263, -0.38051, 0.66547, -0.32494, -0.35760, 3.08858
21.275, -0.38051, 0.66621, -0.32241, -0.35970, 3.09267
21.288, -0.38051, 0.66692, -0.31998, -0.36169, 3.09654
21.300, -0.38051, 0.66758, -0.31767, -0.36357, 3.10020
21.313, -0.38051, 0.66821, -0.31546, -0.36535, 3.10366
21.325, -0.38051, 0.66881, -0.31336, -0.36702, 3.10692
21.338, -0.38051, 0.66937, -0.31137, -0.36859, 3.10999
21.350, -0.38051, 0.66989, -0.30949, -0.37006, 3.11287
21.363, -0.38051, 0.67038, -0.30772, -0.37144, 3.11557
21.375, -0.38051, 0.67084, -0.30606, -0.37273, 3.11809
21.388, -0.38051, 0.67127, -0.30451, -0.37393, 3.12045
21.400, -0.38051, 0.67167, -0.30307, -0.37504, 3.12264
21.413, -0.38051, 0.67204, -0.30173, -0.37607, 3.12468
21.425, -0.38051, 0.67239, -0.30049, -0.37703, 3.12657
21.438, -0.38051, 0.67270, -0.29935, -0.37790, 3.12831
21.450, -0.38051, 0.67299, -0.29830, -0.37871, 3.12991
21.463, -0.38051, 0.67326, -0.29734, -0.37945, 3.13137
21.475, -0.38051, 0.67350, -0.29646, -0.38012, 3.13271
21.488, -0.38051, 0.67373, -0.29567, -0.38072, 3.13392
21.500, -0.38051, 0.67393, -0.29495, -0.38127, 3.13502
21.513, -0.38051, 0.67411, -0.29431, -0.38176, 3.13601
21.525, -0.38051, 0.67427, -0.29373, -0.38219, 3.13690
21.538, -0.38051, 0.67441, -0.29322, -0.38258, 3.13768
21.550, -0.38051, 0.67454, -0.29277, -0.38292, 3.13838
21.563, -0.38051, 0.67465, -0.29237, -0.38321, 3.13898
21.575, -0.38051, 0.67474, -0.29204, -0.38346, 3.13951
21.588, -0.38051, 0.67482, -0.29175, -0.38368, 3.13995
21.600, -0.38051, 0.67489, -0.29150, -0.38386, 3.14033
21.613, -0.38051, 0.67495, -0.29130, -0.38400, 3.14065
21.625, -0.38051, 0.67500, -0.29113, -0.38412, 3.14091
21.638, -0.38051, 0.67503, -0.29100, -0.38422, 3.14111
21.650, -0.38051, 0.67506, -0.29090, -0.38429, 3.14127
21.663, -0.38051, 0.67508, -0.29083, -0.38434, 3.14139
21.675, -0.38051, 0.67510, -0.29078, -0.38437, 3.14148
21.688, -0.38051, 0.67511, -0.29074, -0.38439, 3.14153
21.700, -0.38051, 0.67512, -0.29072, -0.38440, 3.14157
21.713, -0.38051, 0.67512, -0.29071, -0.38441, 3.14158
21.725, -0.38051, 0.67512, -0.29071, -0.38441, 3.14159
21.738, -0.38051, 0.67512, -0.29071, -0.38441, 3.14159
21.750, -0.38051, 0.67512, -0.29071, -0.38441, 3.14159
21.763, -0.38051, 0.67512, -0.29071, -0.38441, 3.14159
21.775, -0.38051, 0.67512, -0.29071, -0.38441, 3.14159
21.788, -0.38051, 0.67512, -0.29071, -0.38441, 3.14159
21.800, -0.38051, 0.67512, -0.29071, -0.38441, 3.14159
21.813, -0.38051, 0.67512, -0.29071, -0.38441, 3.14159
21.825, -0.38051, 0.67512, -0.29071, -0.38441, 3.14159
21.838, -0.38051, 0.67512, -0.29071, -0.38441, 3.14159
21.850, -0.38051, 0.67512, -0.29071, -0.38441, 3.14159
21.863, -0.38051, 0.67512, -0.29071, -0.38441, 3.14159
21.875, -0.38051, 0.67512, -0.29071, -0.38441, 3.14159
21.888, -0.38051, 0.67512, -0.29071, -0.38441, 3.14159
21.900, -0.38051, 0.67512, -0.29071, -0.38441, 3.14159
21.913, -0.38051, 0.67512, -0.29071, -0.38441, 3.14160
21.925, -0.38051, 0.67512, -0.29071, -0.38441, 3.14160
21.938, -0.38051, 0.67512, -0.29071, -0.38441, 3.14160
21.950, -0.38051, 0.67512, -0.29071, -0.38441, 3.14160
21.963, -0.38051, 0.67512, -0.29071, -0.38441, 3.14160
21.975, -0.38051, 0.67512, -0.29071, -0.38441, 3.14160
21.988, -0.38051, 0.67512, -0.29071, -0.38441, 3.14160
22.000, -0.38051, 0.67512, -0.29071, -0.38441, 3.14160
22.013, -0.38051, 0.67512, -0.29071, -0.38441, 3.14160
22.025, -0.38051, 0.67512, -0.29071, -0.38441, 3.14160
22.038, -0.38051, 0.67512, -0.29071, -0.38441, 3.14160
22.050, -0.38051, 0.67512, -0.29071, -0.38441, 3.14160
22.063, -0.38051, 0.67512, -0.29071, -0.38441, 3.14160
22.075, -0.38051, 0.67512, -0.29071, -0.38441, 3.14160
22.088, -0.38051, 0.67512, -0.29071, -0.38440, 3.14160
22.100, -0.38051, 0.67512, -0.29071, -0.38440, 3.14160
22.113, -0.38051, 0.67512, -0.29071, -0.38440, 3.14160
22.125, -0.38051, 0.67512, -0.29071, -0.38440, 3.14160
22.138, -0.38051, 0.67512, -0.29071, -0.38440, 3.14160
22.150, -0.38051, 0.67512, -0.29071, -0.38440, 3.14160
22.163, -0.38051, 0.67512, -0.29071, -0.38440, 3.14160
22.175, -0.38051, 0.67512, -0.29071, -0.38440, 3.14160
22.188, -0.38051, 0.67512, -0.29071, -0.38440, 3.14160
22.200, -0.38051, 0.67512, -0.29071, -0.38440, 3.14160
22.213, -0.38051, 0.67512, -0.29071, -0.38440, 3.14160
22.225, -0.38051, 0.67512, -0.29071, -0.38440, 3.14160
22.238, -0.38051, 0.67512, -0.29071, -0.38440, 3.14160
22.250, -0.38051, 0.67512, -0.29071, -0.38440, 3.14160
22.263, -0.38051, 0.67512, -0.29071, -0.38440, 3.14160
22.275, -0.38051, 0.67512, -0.29071, -0.38440, 3.14160
22.288, -0.38051, 0.67512, -0.29071, -0.38440, 3.14160
22.300, -0.38051, 0.67512, -0.29071, -0.38440, 3.14160
22.313, -0.38051, 0.67512, -0.29071, -0.38440, 3.14160
22.325, -0.38051, 0.67512, -0.29071, -0.38440, 3.14160
22.338, -0.38051, 0.67512, -0.29071, -0.38440, 3.14160
22.350, -0.38051, 0.67512, -0.29071, -0.38440, 3.14160
22.363, -0.38051, 0.67512, -0.29071, -0.38440, 3.14160
22.375, -0.38051, 0.67512, -0.29071, -0.38440, 3.14160
22.388, -0.38051, 0.67512, -0.29071, -0.38440, 3.14160
22.400, -0.38051, 0.67512, -0.29071, -0.38440, 3.14160
22.413, -0.38051, 0.67512, -0.29071, -0.38440, 3.14160
22.425, -0.38051, 0.67512, -0.29071, -0.38440, 3.14160
22.438, -0.38051, 0.67512, -0.29071, -0.38440, 3.14160
22.450, -0.38051, 0.67512, -0.29071, -0.38440, 3.14160
22.463, -0.38051, 0.67512, -0.29071, -0.38441, 3.14160
22.475, -0.38051, 0.67512, -0.29071, -0.38441, 3.14160
22.488, -0.38051, 0.67512, -0.29071, -0.38441, 3.14160
22.500, -0.38051, 0.67512, -0.29071, -0.38441, 3.14160
22.513, -0.38051, 0.67512, -0.29071, -0.38441, 3.14160
22.525, -0.38051, 0.67512, -0.29071, -0.38441, 3.14160
22.538, -0.38051, 0.67512, -0.29071, -0.38441, 3.14160
22.550, -0.38051, 0.67512, -0.29071, -0.38441, 3.14160
22.563, -0.38051, 0.67512, -0.29071, -0.38441, 3.14160
22.575, -0.38051, 0.67512, -0.29071, -0.38441, 3.14160
22.588, -0.38051, 0.67512, -0.29071, -0.38441, 3.14160
22.600, -0.38051, 0.67512, -0.29071, -0.38441, 3.14160
22.613, -0.38051, 0.67512, -0.29071, -0.38441, 3.14160
22.625, -0.38051, 0.67512, -0.29071, -0.38441, 3.14159
22.638, -0.38051, 0.67512, -0.29071, -0.38441, 3.14159
22.650, -0.38051, 0.67512, -0.29071, -0.38441, 3.14159
22.663, -0.38051, 0.67512, -0.29071, -0.38441, 3.14159
22.675, -0.38051, 0.67512, -0.29071, -0.38441, 3.14159
22.688, -0.38051, 0.67512, -0.29071, -0.38441, 3.14159
22.700, -0.38051, 0.67512, -0.29071, -0.38441, 3.14159
22.713, -0.38051, 0.67512, -0.29071, -0.38441, 3.14159
22.725, -0.38051, 0.67512, -0.29071, -0.38441, 3.14159
22.738, -0.38051, 0.67512, -0.29071, -0.38441, 3.14159
22.750, -0.38051, 0.67513, -0.29071, -0.38441, 3.14158
22.763, -0.38051, 0.67514, -0.29073, -0.38442, 3.14156
22.775, -0.38050, 0.67516, -0.29075, -0.38442, 3.14152
22.788, -0.38050, 0.67520, -0.29078, -0.38443, 3.14146
22.800, -0.38049, 0.67526, -0.29084, -0.38445, 3.14137
22.813, -0.38049, 0.67534, -0.29091, -0.38447, 3.14125
22.825, -0.38047, 0.67545, -0.29101, -0.38449, 3.14108
22.838, -0.38046, 0.67559, -0.29114, -0.38452, 3.14088
22.850, -0.38044, 0.67577, -0.29130, -0.38456, 3.14062
22.863, -0.38042, 0.67599, -0.29150, -0.38461, 3.14030
22.875, -0.38039, 0.67624, -0.29173, -0.38466, 3.13992
22.888, -0.38036, 0.67655, -0.29201, -0.38473, 3.13948
22.900, -0.38033, 0.67690, -0.29233, -0.38480, 3.13896
22.913, -0.38029, 0.67732, -0.29270, -0.38489, 3.13836
