kutzer/Scor6AxisToolbox/Scor6AxisToolbox Test Functions/ScorBotBoxData_sCurve/BSEPR_Position_50Hz.csv
Time_(s), Base_Joint_Position_(rad), Shoulder_Joint_Position_(rad), Elbow_Joint_Position_(rad), Wrist_Pitch_Joint_Position_(rad), Wrist_Roll_Joint_Position_(rad)
0.000, 0.00000, 2.09925, -1.65843, -1.54994, 0.00000
0.020, -0.00000, 2.09924, -1.65843, -1.54994, -0.00001
0.040, -0.00000, 2.09922, -1.65840, -1.54993, -0.00005
0.060, -0.00001, 2.09916, -1.65835, -1.54991, -0.00014
0.080, -0.00002, 2.09905, -1.65824, -1.54989, -0.00031
0.100, -0.00004, 2.09886, -1.65808, -1.54985, -0.00058
0.120, -0.00007, 2.09860, -1.65784, -1.54979, -0.00097
0.140, -0.00010, 2.09824, -1.65751, -1.54971, -0.00151
0.160, -0.00015, 2.09775, -1.65707, -1.54961, -0.00221
0.180, -0.00021, 2.09714, -1.65652, -1.54948, -0.00310
0.200, -0.00029, 2.09638, -1.65583, -1.54933, -0.00420
0.220, -0.00037, 2.09545, -1.65499, -1.54914, -0.00554
0.240, -0.00048, 2.09435, -1.65398, -1.54891, -0.00713
0.260, -0.00060, 2.09305, -1.65281, -1.54865, -0.00900
0.280, -0.00075, 2.09154, -1.65143, -1.54835, -0.01118
0.300, -0.00091, 2.08980, -1.64986, -1.54800, -0.01368
0.320, -0.00110, 2.08781, -1.64806, -1.54761, -0.01652
0.340, -0.00131, 2.08556, -1.64602, -1.54717, -0.01974
0.360, -0.00155, 2.08305, -1.64374, -1.54667, -0.02335
0.380, -0.00182, 2.08024, -1.64119, -1.54612, -0.02737
0.400, -0.00211, 2.07716, -1.63838, -1.54551, -0.03183
0.420, -0.00243, 2.07381, -1.63531, -1.54483, -0.03675
0.440, -0.00279, 2.07016, -1.63198, -1.54410, -0.04215
0.460, -0.00318, 2.06624, -1.62839, -1.54329, -0.04806
0.480, -0.00360, 2.06205, -1.62453, -1.54242, -0.05449
0.500, -0.00405, 2.05756, -1.62042, -1.54147, -0.06146
0.520, -0.00453, 2.05281, -1.61604, -1.54044, -0.06897
0.540, -0.00505, 2.04780, -1.61140, -1.53933, -0.07702
0.560, -0.00560, 2.04254, -1.60652, -1.53814, -0.08560
0.580, -0.00618, 2.03705, -1.60142, -1.53687, -0.09473
0.600, -0.00679, 2.03135, -1.59610, -1.53550, -0.10438
0.620, -0.00744, 2.02545, -1.59059, -1.53405, -0.11458
0.640, -0.00812, 2.01938, -1.58489, -1.53250, -0.12529
0.660, -0.00883, 2.01314, -1.57902, -1.53085, -0.13650
0.680, -0.00958, 2.00675, -1.57300, -1.52910, -0.14818
0.700, -0.01035, 2.00024, -1.56684, -1.52725, -0.16031
0.720, -0.01116, 1.99360, -1.56055, -1.52529, -0.17287
0.740, -0.01200, 1.98686, -1.55415, -1.52323, -0.18583
0.760, -0.01287, 1.98005, -1.54766, -1.52104, -0.19918
0.780, -0.01378, 1.97316, -1.54108, -1.51875, -0.21288
0.800, -0.01472, 1.96622, -1.53444, -1.51633, -0.22692
0.820, -0.01569, 1.95925, -1.52774, -1.51380, -0.24128
0.840, -0.01669, 1.95225, -1.52100, -1.51114, -0.25593
0.860, -0.01773, 1.94525, -1.51424, -1.50835, -0.27085
0.880, -0.01880, 1.93825, -1.50747, -1.50543, -0.28601
0.900, -0.01990, 1.93125, -1.50069, -1.50238, -0.30140
0.920, -0.02103, 1.92425, -1.49392, -1.49919, -0.31699
0.940, -0.02219, 1.91725, -1.48715, -1.49587, -0.33276
0.960, -0.02339, 1.91025, -1.48038, -1.49240, -0.34869
0.980, -0.02462, 1.90325, -1.47361, -1.48879, -0.36475
1.000, -0.02588, 1.89625, -1.46684, -1.48505, -0.38092
1.020, -0.02718, 1.88925, -1.46006, -1.48116, -0.39718
1.040, -0.02851, 1.88225, -1.45329, -1.47714, -0.41351
1.060, -0.02987, 1.87525, -1.44652, -1.47297, -0.42988
1.080, -0.03126, 1.86825, -1.43975, -1.46867, -0.44627
1.100, -0.03268, 1.86125, -1.43298, -1.46423, -0.46267
1.120, -0.03414, 1.85425, -1.42620, -1.45964, -0.47906
1.140, -0.03563, 1.84725, -1.41943, -1.45492, -0.49546
1.160, -0.03715, 1.84025, -1.41266, -1.45006, -0.51185
1.180, -0.03871, 1.83325, -1.40589, -1.44506, -0.52825
1.200, -0.04029, 1.82625, -1.39912, -1.43992, -0.54464
1.220, -0.04191, 1.81925, -1.39234, -1.43464, -0.56104
1.240, -0.04356, 1.81225, -1.38557, -1.42923, -0.57743
1.260, -0.04525, 1.80525, -1.37880, -1.42369, -0.59383
1.280, -0.04696, 1.79825, -1.37203, -1.41802, -0.61022
1.300, -0.04871, 1.79125, -1.36526, -1.41223, -0.62662
1.320, -0.05049, 1.78425, -1.35848, -1.40631, -0.64301
1.340, -0.05231, 1.77725, -1.35171, -1.40028, -0.65941
1.360, -0.05415, 1.77025, -1.34494, -1.39412, -0.67581
1.380, -0.05603, 1.76325, -1.33817, -1.38786, -0.69220
1.400, -0.05794, 1.75625, -1.33140, -1.38148, -0.70860
1.420, -0.05988, 1.74925, -1.32463, -1.37500, -0.72499
1.440, -0.06186, 1.74225, -1.31785, -1.36842, -0.74139
1.460, -0.06387, 1.73525, -1.31108, -1.36173, -0.75778
1.480, -0.06591, 1.72825, -1.30431, -1.35495, -0.77418
1.500, -0.06798, 1.72125, -1.29754, -1.34807, -0.79057
1.520, -0.07009, 1.71425, -1.29077, -1.34109, -0.80697
1.540, -0.07222, 1.70725, -1.28399, -1.33403, -0.82336
1.560, -0.07439, 1.70025, -1.27722, -1.32689, -0.83976
1.580, -0.07660, 1.69325, -1.27045, -1.31965, -0.85615
1.600, -0.07883, 1.68625, -1.26368, -1.31234, -0.87255
1.620, -0.08110, 1.67925, -1.25691, -1.30496, -0.88894
1.640, -0.08340, 1.67225, -1.25013, -1.29749, -0.90534
1.660, -0.08573, 1.66525, -1.24336, -1.28996, -0.92173
1.680, -0.08809, 1.65825, -1.23659, -1.28236, -0.93813
1.700, -0.09049, 1.65125, -1.22982, -1.27469, -0.95452
1.720, -0.09291, 1.64425, -1.22305, -1.26696, -0.97092
1.740, -0.09536, 1.63725, -1.21628, -1.25917, -0.98731
1.760, -0.09784, 1.63025, -1.20950, -1.25133, -1.00371
1.780, -0.10034, 1.62325, -1.20273, -1.24343, -1.02010
1.800, -0.10287, 1.61625, -1.19596, -1.23548, -1.03650
1.820, -0.10542, 1.60925, -1.18919, -1.22748, -1.05289
1.840, -0.10799, 1.60225, -1.18242, -1.21944, -1.06929
1.860, -0.11057, 1.59525, -1.17564, -1.21136, -1.08568
1.880, -0.11318, 1.58825, -1.16887, -1.20324, -1.10208
1.900, -0.11580, 1.58125, -1.16210, -1.19508, -1.11847
1.920, -0.11843, 1.57425, -1.15533, -1.18689, -1.13487
1.940, -0.12108, 1.56725, -1.14856, -1.17867, -1.15126
1.960, -0.12374, 1.56025, -1.14178, -1.17043, -1.16766
1.980, -0.12641, 1.55325, -1.13501, -1.16216, -1.18405
2.000, -0.12909, 1.54625, -1.12824, -1.15387, -1.20045
2.020, -0.13178, 1.53925, -1.12147, -1.14556, -1.21684
2.040, -0.13447, 1.53225, -1.11470, -1.13724, -1.23324
2.060, -0.13716, 1.52525, -1.10792, -1.12891, -1.24963
2.080, -0.13986, 1.51825, -1.10115, -1.12057, -1.26603
2.100, -0.14256, 1.51125, -1.09438, -1.11222, -1.28242
2.120, -0.14526, 1.50425, -1.08761, -1.10387, -1.29882
2.140, -0.14797, 1.49725, -1.08084, -1.09552, -1.31521
2.160, -0.15067, 1.49025, -1.07407, -1.08717, -1.33161
2.180, -0.15337, 1.48325, -1.06729, -1.07882, -1.34800
2.200, -0.15607, 1.47625, -1.06052, -1.07047, -1.36440
2.220, -0.15877, 1.46925, -1.05375, -1.06212, -1.38079
2.240, -0.16147, 1.46225, -1.04698, -1.05377, -1.39719
2.260, -0.16417, 1.45525, -1.04021, -1.04542, -1.41359
2.280, -0.16687, 1.44825, -1.03343, -1.03707, -1.42998
2.300, -0.16957, 1.44125, -1.02666, -1.02872, -1.44638
2.320, -0.17227, 1.43425, -1.01989, -1.02037, -1.46277
2.340, -0.17497, 1.42725, -1.01312, -1.01202, -1.47917
2.360, -0.17767, 1.42025, -1.00635, -1.00367, -1.49556
2.380, -0.18037, 1.41325, -0.99957, -0.99532, -1.51196
2.400, -0.18307, 1.40625, -0.99280, -0.98697, -1.52835
2.420, -0.18577, 1.39925, -0.98603, -0.97862, -1.54475
2.440, -0.18847, 1.39225, -0.97926, -0.97027, -1.56114
2.460, -0.19118, 1.38525, -0.97249, -0.96191, -1.57754
2.480, -0.19388, 1.37825, -0.96572, -0.95356, -1.59393
2.500, -0.19658, 1.37125, -0.95894, -0.94521, -1.61033
2.520, -0.19928, 1.36425, -0.95217, -0.93686, -1.62672
2.540, -0.20198, 1.35725, -0.94540, -0.92851, -1.64312
2.560, -0.20468, 1.35025, -0.93863, -0.92016, -1.65951
2.580, -0.20738, 1.34325, -0.93186, -0.91181, -1.67591
2.600, -0.21008, 1.33625, -0.92508, -0.90346, -1.69230
2.620, -0.21278, 1.32925, -0.91831, -0.89511, -1.70870
2.640, -0.21548, 1.32225, -0.91154, -0.88676, -1.72509
2.660, -0.21818, 1.31525, -0.90477, -0.87841, -1.74149
2.680, -0.22088, 1.30825, -0.89800, -0.87006, -1.75788
2.700, -0.22358, 1.30125, -0.89122, -0.86171, -1.77428
2.720, -0.22628, 1.29425, -0.88445, -0.85336, -1.79067
2.740, -0.22898, 1.28725, -0.87768, -0.84501, -1.80707
2.760, -0.23168, 1.28025, -0.87091, -0.83666, -1.82346
2.780, -0.23438, 1.27325, -0.86414, -0.82831, -1.83986
2.800, -0.23709, 1.26625, -0.85736, -0.81996, -1.85625
2.820, -0.23979, 1.25925, -0.85059, -0.81161, -1.87265
2.840, -0.24249, 1.25225, -0.84382, -0.80327, -1.88904
2.860, -0.24518, 1.24525, -0.83705, -0.79494, -1.90544
2.880, -0.24788, 1.23825, -0.83028, -0.78663, -1.92183
2.900, -0.25056, 1.23125, -0.82351, -0.77832, -1.93823
2.920, -0.25325, 1.22425, -0.81673, -0.77004, -1.95462
2.940, -0.25592, 1.21725, -0.80996, -0.76178, -1.97102
2.960, -0.25858, 1.21025, -0.80319, -0.75354, -1.98741
2.980, -0.26123, 1.20325, -0.79642, -0.74533, -2.00381
3.000, -0.26387, 1.19625, -0.78965, -0.73715, -2.02020
3.020, -0.26650, 1.18925, -0.78287, -0.72900, -2.03660
3.040, -0.26911, 1.18225, -0.77610, -0.72089, -2.05299
3.060, -0.27170, 1.17525, -0.76933, -0.71282, -2.06939
3.080, -0.27428, 1.16825, -0.76256, -0.70479, -2.08578
3.100, -0.27683, 1.16125, -0.75579, -0.69680, -2.10218
3.120, -0.27936, 1.15425, -0.74901, -0.68886, -2.11857
3.140, -0.28187, 1.14725, -0.74224, -0.68098, -2.13497
3.160, -0.28436, 1.14025, -0.73547, -0.67315, -2.15137
3.180, -0.28682, 1.13325, -0.72870, -0.66537, -2.16776
3.200, -0.28925, 1.12625, -0.72193, -0.65766, -2.18416
3.220, -0.29166, 1.11925, -0.71516, -0.65001, -2.20055
3.240, -0.29403, 1.11225, -0.70838, -0.64243, -2.21695
3.260, -0.29637, 1.10525, -0.70161, -0.63491, -2.23334
3.280, -0.29868, 1.09825, -0.69484, -0.62747, -2.24974
3.300, -0.30096, 1.09125, -0.68807, -0.62010, -2.26613
3.320, -0.30321, 1.08425, -0.68130, -0.61281, -2.28253
3.340, -0.30542, 1.07725, -0.67452, -0.60560, -2.29892
3.360, -0.30760, 1.07025, -0.66775, -0.59847, -2.31532
3.380, -0.30975, 1.06325, -0.66098, -0.59144, -2.33171
3.400, -0.31186, 1.05625, -0.65421, -0.58449, -2.34811
3.420, -0.31395, 1.04925, -0.64744, -0.57763, -2.36450
3.440, -0.31600, 1.04225, -0.64066, -0.57087, -2.38090
3.460, -0.31801, 1.03525, -0.63389, -0.56421, -2.39729
3.480, -0.32000, 1.02825, -0.62712, -0.55765, -2.41369
3.500, -0.32195, 1.02125, -0.62035, -0.55120, -2.43008
3.520, -0.32388, 1.01425, -0.61358, -0.54485, -2.44648
3.540, -0.32576, 1.00725, -0.60680, -0.53862, -2.46287
3.560, -0.32762, 1.00025, -0.60003, -0.53250, -2.47927
3.580, -0.32944, 0.99325, -0.59326, -0.52649, -2.49566
3.600, -0.33124, 0.98625, -0.58649, -0.52061, -2.51206
3.620, -0.33299, 0.97925, -0.57972, -0.51484, -2.52845
3.640, -0.33472, 0.97225, -0.57295, -0.50921, -2.54485
3.660, -0.33641, 0.96525, -0.56617, -0.50370, -2.56124
3.680, -0.33808, 0.95825, -0.55940, -0.49832, -2.57764
3.700, -0.33971, 0.95125, -0.55263, -0.49308, -2.59403
3.720, -0.34130, 0.94425, -0.54586, -0.48798, -2.61043
3.740, -0.34287, 0.93725, -0.53909, -0.48301, -2.62682
3.760, -0.34440, 0.93025, -0.53231, -0.47819, -2.64322
3.780, -0.34590, 0.92325, -0.52554, -0.47350, -2.65961
3.800, -0.34737, 0.91625, -0.51877, -0.46896, -2.67601
3.820, -0.34880, 0.90925, -0.51200, -0.46455, -2.69240
3.840, -0.35020, 0.90225, -0.50523, -0.46028, -2.70880
3.860, -0.35157, 0.89525, -0.49845, -0.45615, -2.72517
3.880, -0.35291, 0.88825, -0.49168, -0.45217, -2.74151
3.900, -0.35422, 0.88125, -0.48491, -0.44832, -2.75779
3.920, -0.35549, 0.87425, -0.47814, -0.44461, -2.77398
3.940, -0.35673, 0.86725, -0.47137, -0.44104, -2.79006
3.960, -0.35794, 0.86025, -0.46459, -0.43761, -2.80601
3.980, -0.35911, 0.85325, -0.45782, -0.43432, -2.82181
4.000, -0.36026, 0.84625, -0.45105, -0.43116, -2.83743
4.020, -0.36137, 0.83925, -0.44428, -0.42815, -2.85286
4.040, -0.36245, 0.83225, -0.43751, -0.42526, -2.86807
4.060, -0.36349, 0.82525, -0.43074, -0.42251, -2.88303
4.080, -0.36450, 0.81825, -0.42399, -0.41988, -2.89773
4.100, -0.36549, 0.81127, -0.41728, -0.41738, -2.91214
4.120, -0.36643, 0.80431, -0.41061, -0.41499, -2.92624
4.140, -0.36735, 0.79740, -0.40400, -0.41273, -2.94000
4.160, -0.36823, 0.79054, -0.39748, -0.41058, -2.95341
4.180, -0.36909, 0.78377, -0.39104, -0.40854, -2.96645
4.200, -0.36990, 0.77709, -0.38471, -0.40661, -2.97908
4.220, -0.37069, 0.77052, -0.37849, -0.40478, -2.99129
4.240, -0.37145, 0.76407, -0.37242, -0.40306, -3.00305
4.260, -0.37217, 0.75776, -0.36649, -0.40144, -3.01434
4.280, -0.37286, 0.75161, -0.36072, -0.39991, -3.02514
4.300, -0.37351, 0.74563, -0.35514, -0.39848, -3.03543
4.320, -0.37414, 0.73984, -0.34974, -0.39714, -3.04519
4.340, -0.37473, 0.73426, -0.34455, -0.39589, -3.05441
4.360, -0.37529, 0.72890, -0.33959, -0.39472, -3.06309
4.380, -0.37582, 0.72377, -0.33486, -0.39364, -3.07123
4.400, -0.37631, 0.71890, -0.33038, -0.39263, -3.07883
4.420, -0.37677, 0.71429, -0.32616, -0.39170, -3.08590
4.440, -0.37720, 0.70997, -0.32220, -0.39084, -3.09243
4.460, -0.37760, 0.70592, -0.31851, -0.39005, -3.09843
4.480, -0.37797, 0.70216, -0.31508, -0.38933, -3.10392
4.500, -0.37830, 0.69867, -0.31191, -0.38868, -3.10892
4.520, -0.37860, 0.69547, -0.30900, -0.38808, -3.11346
4.540, -0.37888, 0.69254, -0.30635, -0.38754, -3.11756
4.560, -0.37912, 0.68990, -0.30397, -0.38706, -3.12124
4.580, -0.37934, 0.68753, -0.30184, -0.38663, -3.12452
4.600, -0.37954, 0.68543, -0.29995, -0.38625, -3.12743
4.620, -0.37971, 0.68358, -0.29829, -0.38592, -3.12999
4.640, -0.37986, 0.68197, -0.29684, -0.38563, -3.13222
4.660, -0.37999, 0.68058, -0.29559, -0.38537, -3.13415
4.680, -0.38010, 0.67939, -0.29452, -0.38516, -3.13579
4.700, -0.38020, 0.67838, -0.29362, -0.38498, -3.13717
4.720, -0.38028, 0.67755, -0.29287, -0.38483, -3.13831
4.740, -0.38034, 0.67687, -0.29227, -0.38471, -3.13924
4.760, -0.38039, 0.67633, -0.29179, -0.38462, -3.13997
4.780, -0.38043, 0.67592, -0.29142, -0.38454, -3.14053
4.800, -0.38046, 0.67561, -0.29114, -0.38449, -3.14095
4.820, -0.38048, 0.67540, -0.29095, -0.38445, -3.14124
4.840, -0.38050, 0.67525, -0.29083, -0.38443, -3.14142
4.860, -0.38050, 0.67517, -0.29075, -0.38442, -3.14153
4.880, -0.38051, 0.67513, -0.29072, -0.38441, -3.14158
4.900, -0.38051, 0.67512, -0.29071, -0.38441, -3.14159
4.920, -0.38051, 0.67512, -0.29071, -0.38441, -3.14159
4.940, -0.38051, 0.67512, -0.29071, -0.38441, -3.14159
4.960, -0.38051, 0.67512, -0.29071, -0.38441, -3.14159
4.980, -0.38051, 0.67512, -0.29071, -0.38441, -3.14159
5.000, -0.38051, 0.67512, -0.29071, -0.38441, -3.14159
5.020, -0.38051, 0.67512, -0.29071, -0.38441, -3.14159
5.040, -0.38051, 0.67512, -0.29071, -0.38441, -3.14159
5.060, -0.38051, 0.67512, -0.29071, -0.38441, -3.14159
5.080, -0.38051, 0.67512, -0.29071, -0.38441, -3.14159
5.100, -0.38051, 0.67512, -0.29071, -0.38441, -3.14159
5.120, -0.38051, 0.67512, -0.29071, -0.38441, -3.14159
5.140, -0.38051, 0.67512, -0.29071, -0.38441, -3.14159
5.160, -0.38051, 0.67512, -0.29071, -0.38441, -3.14159
5.180, -0.38051, 0.67512, -0.29071, -0.38441, -3.14159
5.200, -0.38051, 0.67512, -0.29071, -0.38441, -3.14159
5.220, -0.38051, 0.67512, -0.29071, -0.38441, -3.14159
5.240, -0.38051, 0.67512, -0.29071, -0.38441, -3.14159
5.260, -0.38051, 0.67512, -0.29071, -0.38441, -3.14159
5.280, -0.38051, 0.67512, -0.29071, -0.38441, -3.14159
5.300, -0.38051, 0.67512, -0.29071, -0.38441, -3.14159
5.320, -0.38051, 0.67512, -0.29071, -0.38441, -3.14159
5.340, -0.38051, 0.67512, -0.29071, -0.38441, -3.14159
5.360, -0.38051, 0.67512, -0.29071, -0.38441, -3.14159
5.380, -0.38051, 0.67512, -0.29071, -0.38441, -3.14159
5.400, -0.38051, 0.67512, -0.29071, -0.38441, -3.14159
5.420, -0.38051, 0.67512, -0.29071, -0.38441, -3.14159
5.440, -0.38051, 0.67512, -0.29071, -0.38441, -3.14159
5.460, -0.38051, 0.67512, -0.29071, -0.38441, -3.14159
5.480, -0.38051, 0.67512, -0.29071, -0.38441, -3.14159
5.500, -0.38051, 0.67512, -0.29071, -0.38441, -3.14159
5.520, -0.38051, 0.67512, -0.29071, -0.38441, -3.14159
5.540, -0.38051, 0.67512, -0.29071, -0.38441, -3.14159
5.560, -0.38051, 0.67512, -0.29071, -0.38441, -3.14159
5.580, -0.38051, 0.67512, -0.29071, -0.38441, -3.14160
5.600, -0.38051, 0.67512, -0.29071, -0.38441, -3.14160
5.620, -0.38051, 0.67512, -0.29071, -0.38441, -3.14160
5.640, -0.38051, 0.67512, -0.29071, -0.38441, -3.14160
5.660, -0.38051, 0.67512, -0.29071, -0.38441, -3.14160
5.680, -0.38051, 0.67512, -0.29071, -0.38441, -3.14160
5.700, -0.38051, 0.67512, -0.29071, -0.38441, -3.14160
5.720, -0.38051, 0.67512, -0.29071, -0.38441, -3.14160
5.740, -0.38051, 0.67512, -0.29071, -0.38441, -3.14159
5.760, -0.38051, 0.67512, -0.29071, -0.38441, -3.14159
5.780, -0.38051, 0.67512, -0.29071, -0.38441, -3.14159
5.800, -0.38051, 0.67512, -0.29071, -0.38441, -3.14159
5.820, -0.38051, 0.67512, -0.29071, -0.38441, -3.14159
5.840, -0.38051, 0.67512, -0.29071, -0.38441, -3.14159
5.860, -0.38051, 0.67512, -0.29071, -0.38441, -3.14159
5.880, -0.38051, 0.67512, -0.29071, -0.38441, -3.14159
5.900, -0.38051, 0.67512, -0.29071, -0.38441, -3.14159
5.920, -0.38051, 0.67512, -0.29071, -0.38441, -3.14159
5.940, -0.38050, 0.67512, -0.29071, -0.38441, -3.14157
5.960, -0.38045, 0.67512, -0.29071, -0.38441, -3.14153
5.980, -0.38037, 0.67512, -0.29071, -0.38441, -3.14145
6.000, -0.38023, 0.67512, -0.29071, -0.38441, -3.14130
6.020, -0.38000, 0.67512, -0.29071, -0.38441, -3.14109
6.040, -0.37969, 0.67512, -0.29071, -0.38441, -3.14080
6.060, -0.37927, 0.67512, -0.29071, -0.38441, -3.14040
6.080, -0.37873, 0.67512, -0.29071, -0.38441, -3.13989
6.100, -0.37804, 0.67512, -0.29071, -0.38441, -3.13925
6.120, -0.37720, 0.67512, -0.29071, -0.38441, -3.13847
6.140, -0.37620, 0.67512, -0.29071, -0.38441, -3.13754
6.160, -0.37504, 0.67512, -0.29071, -0.38441, -3.13643
6.180, -0.37372, 0.67512, -0.29071, -0.38441, -3.13514
6.200, -0.37224, 0.67512, -0.29071, -0.38441, -3.13365
6.220, -0.37060, 0.67512, -0.29071, -0.38441, -3.13194
6.240, -0.36880, 0.67512, -0.29071, -0.38441, -3.13001
6.260, -0.36684, 0.67512, -0.29071, -0.38441, -3.12784
6.280, -0.36472, 0.67512, -0.29071, -0.38441, -3.12540
6.300, -0.36244, 0.67512, -0.29071, -0.38441, -3.12270
6.320, -0.36000, 0.67512, -0.29071, -0.38441, -3.11972
6.340, -0.35740, 0.67512, -0.29071, -0.38441, -3.11643
6.360, -0.35464, 0.67512, -0.29071, -0.38441, -3.11283
6.380, -0.35172, 0.67512, -0.29071, -0.38441, -3.10890
6.400, -0.34864, 0.67512, -0.29071, -0.38441, -3.10463
6.420, -0.34540, 0.67512, -0.29071, -0.38441, -3.10000
6.440, -0.34200, 0.67512, -0.29071, -0.38441, -3.09501
6.460, -0.33844, 0.67512, -0.29071, -0.38441, -3.08962
6.480, -0.33472, 0.67512, -0.29071, -0.38441, -3.08385
6.500, -0.33084, 0.67512, -0.29071, -0.38441, -3.07767
6.520, -0.32680, 0.67512, -0.29071, -0.38441, -3.07110
6.540, -0.32260, 0.67512, -0.29071, -0.38441, -3.06413
6.560, -0.31824, 0.67512, -0.29071, -0.38441, -3.05677
6.580, -0.31372, 0.67512, -0.29071, -0.38441, -3.04901
6.600, -0.30904, 0.67512, -0.29071, -0.38441, -3.04085
6.620, -0.30420, 0.67512, -0.29071, -0.38441, -3.03229
6.640, -0.29920, 0.67512, -0.29071, -0.38441, -3.02335
6.660, -0.29404, 0.67512, -0.29071, -0.38441, -3.01403
6.680, -0.28872, 0.67512, -0.29071, -0.38441, -3.00435
6.700, -0.28327, 0.67512, -0.29071, -0.38441, -2.99432
6.720, -0.27769, 0.67512, -0.29071, -0.38441, -2.98396
6.740, -0.27200, 0.67512, -0.29071, -0.38441, -2.97328
6.760, -0.26623, 0.67512, -0.29071, -0.38441, -2.96229
6.780, -0.26037, 0.67512, -0.29071, -0.38441, -2.95101
6.800, -0.25445, 0.67512, -0.29071, -0.38441, -2.93946
6.820, -0.24850, 0.67512, -0.29071, -0.38441, -2.92765
6.840, -0.24251, 0.67512, -0.29071, -0.38441, -2.91559
6.860, -0.23651, 0.67512, -0.29071, -0.38441, -2.90329
6.880, -0.23051, 0.67512, -0.29071, -0.38441, -2.89078
6.900, -0.22451, 0.67512, -0.29071, -0.38441, -2.87806
6.920, -0.21851, 0.67512, -0.29071, -0.38441, -2.86515
6.940, -0.21251, 0.67512, -0.29071, -0.38441, -2.85207
6.960, -0.20651, 0.67512, -0.29071, -0.38441, -2.83882
6.980, -0.20051, 0.67512, -0.29071, -0.38441, -2.82543
7.000, -0.19451, 0.67512, -0.29071, -0.38441, -2.81191
7.020, -0.18851, 0.67512, -0.29071, -0.38441, -2.79826
7.040, -0.18251, 0.67512, -0.29071, -0.38441, -2.78451
7.060, -0.17651, 0.67512, -0.29071, -0.38441, -2.77067
7.080, -0.17051, 0.67512, -0.29071, -0.38441, -2.75676
7.100, -0.16451, 0.67512, -0.29071, -0.38441, -2.74278
7.120, -0.15851, 0.67512, -0.29071, -0.38441, -2.72876
7.140, -0.15251, 0.67512, -0.29071, -0.38441, -2.71470
7.160, -0.14651, 0.67512, -0.29071, -0.38441, -2.70062
7.180, -0.14051, 0.67512, -0.29071, -0.38441, -2.68654
7.200, -0.13451, 0.67512, -0.29071, -0.38441, -2.67246
7.220, -0.12851, 0.67512, -0.29071, -0.38441, -2.65838
7.240, -0.12251, 0.67512, -0.29071, -0.38441, -2.64430
7.260, -0.11651, 0.67512, -0.29071, -0.38441, -2.63022
7.280, -0.11051, 0.67512, -0.29071, -0.38441, -2.61614
7.300, -0.10451, 0.67512, -0.29071, -0.38441, -2.60206
7.320, -0.09851, 0.67512, -0.29071, -0.38441, -2.58798
7.340, -0.09251, 0.67512, -0.29071, -0.38441, -2.57390
7.360, -0.08651, 0.67512, -0.29071, -0.38441, -2.55982
7.380, -0.08051, 0.67512, -0.29071, -0.38441, -2.54574
7.400, -0.07451, 0.67512, -0.29071, -0.38441, -2.53166
7.420, -0.06851, 0.67512, -0.29071, -0.38441, -2.51758
7.440, -0.06251, 0.67512, -0.29071, -0.38441, -2.50350
7.460, -0.05651, 0.67512, -0.29071, -0.38441, -2.48942
7.480, -0.05051, 0.67512, -0.29071, -0.38441, -2.47534
7.500, -0.04451, 0.67512, -0.29071, -0.38441, -2.46126
7.520, -0.03851, 0.67512, -0.29071, -0.38441, -2.44718
7.540, -0.03251, 0.67512, -0.29071, -0.38441, -2.43310
7.560, -0.02651, 0.67512, -0.29071, -0.38441, -2.41901
7.580, -0.02051, 0.67512, -0.29071, -0.38441, -2.40493
7.600, -0.01451, 0.67512, -0.29071, -0.38441, -2.39085
7.620, -0.00851, 0.67512, -0.29071, -0.38441, -2.37677
7.640, -0.00251, 0.67512, -0.29071, -0.38441, -2.36269
7.660, 0.00349, 0.67512, -0.29071, -0.38441, -2.34861
7.680, 0.00949, 0.67512, -0.29071, -0.38441, -2.33453
7.700, 0.01549, 0.67512, -0.29071, -0.38441, -2.32045
7.720, 0.02149, 0.67512, -0.29071, -0.38441, -2.30637
7.740, 0.02749, 0.67512, -0.29071, -0.38441, -2.29229
7.760, 0.03349, 0.67512, -0.29071, -0.38441, -2.27821
7.780, 0.03949, 0.67512, -0.29071, -0.38441, -2.26413
7.800, 0.04549, 0.67512, -0.29071, -0.38441, -2.25005
7.820, 0.05149, 0.67512, -0.29071, -0.38441, -2.23597
7.840, 0.05749, 0.67512, -0.29071, -0.38441, -2.22189
7.860, 0.06349, 0.67512, -0.29071, -0.38441, -2.20781
7.880, 0.06949, 0.67512, -0.29071, -0.38441, -2.19373
7.900, 0.07549, 0.67512, -0.29071, -0.38441, -2.17965
7.920, 0.08149, 0.67512, -0.29071, -0.38441, -2.16557
7.940, 0.08749, 0.67512, -0.29071, -0.38441, -2.15149
7.960, 0.09349, 0.67512, -0.29071, -0.38441, -2.13741
7.980, 0.09949, 0.67512, -0.29071, -0.38441, -2.12332
8.000, 0.10549, 0.67512, -0.29071, -0.38441, -2.10924
8.020, 0.11149, 0.67512, -0.29071, -0.38441, -2.09516
8.040, 0.11749, 0.67512, -0.29071, -0.38441, -2.08108
8.060, 0.12349, 0.67512, -0.29071, -0.38441, -2.06700
8.080, 0.12949, 0.67512, -0.29071, -0.38441, -2.05292
8.100, 0.13549, 0.67512, -0.29071, -0.38441, -2.03884
8.120, 0.14149, 0.67512, -0.29071, -0.38441, -2.02476
8.140, 0.14749, 0.67512, -0.29071, -0.38441, -2.01068
8.160, 0.15349, 0.67512, -0.29071, -0.38441, -1.99661
8.180, 0.15949, 0.67512, -0.29071, -0.38441, -1.98255
8.200, 0.16549, 0.67512, -0.29071, -0.38441, -1.96853
8.220, 0.17149, 0.67512, -0.29071, -0.38441, -1.95456
8.240, 0.17749, 0.67512, -0.29071, -0.38441, -1.94065
8.260, 0.18349, 0.67512, -0.29071, -0.38441, -1.92682
8.280, 0.18949, 0.67512, -0.29071, -0.38441, -1.91307
8.300, 0.19549, 0.67512, -0.29071, -0.38441, -1.89944
8.320, 0.20149, 0.67512, -0.29071, -0.38441, -1.88592
8.340, 0.20749, 0.67512, -0.29071, -0.38441, -1.87254
8.360, 0.21349, 0.67512, -0.29071, -0.38441, -1.85931
8.380, 0.21949, 0.67512, -0.29071, -0.38441, -1.84624
8.400, 0.22549, 0.67512, -0.29071, -0.38441, -1.83334
8.420, 0.23149, 0.67512, -0.29071, -0.38441, -1.82064
8.440, 0.23749, 0.67512, -0.29071, -0.38441, -1.80814
8.460, 0.24349, 0.67512, -0.29071, -0.38441, -1.79587
8.480, 0.24947, 0.67512, -0.29071, -0.38441, -1.78382
8.500, 0.25542, 0.67512, -0.29071, -0.38441, -1.77203
8.520, 0.26133, 0.67512, -0.29071, -0.38441, -1.76050
8.540, 0.26717, 0.67512, -0.29071, -0.38441, -1.74924
8.560, 0.27294, 0.67512, -0.29071, -0.38441, -1.73828
8.580, 0.27861, 0.67512, -0.29071, -0.38441, -1.72762
8.600, 0.28417, 0.67512, -0.29071, -0.38441, -1.71729
8.620, 0.28960, 0.67512, -0.29071, -0.38441, -1.70728
8.640, 0.29489, 0.67512, -0.29071, -0.38441, -1.69763
8.660, 0.30003, 0.67512, -0.29071, -0.38441, -1.68834
8.680, 0.30500, 0.67512, -0.29071, -0.38441, -1.67942
8.700, 0.30982, 0.67512, -0.29071, -0.38441, -1.67090
8.720, 0.31447, 0.67512, -0.29071, -0.38441, -1.66277
8.740, 0.31896, 0.67512, -0.29071, -0.38441, -1.65504
8.760, 0.32330, 0.67512, -0.29071, -0.38441, -1.64771
8.780, 0.32747, 0.67512, -0.29071, -0.38441, -1.64077
8.800, 0.33148, 0.67512, -0.29071, -0.38441, -1.63423
8.820, 0.33534, 0.67512, -0.29071, -0.38441, -1.62809
8.840, 0.33903, 0.67512, -0.29071, -0.38441, -1.62234
8.860, 0.34257, 0.67512, -0.29071, -0.38441, -1.61698
8.880, 0.34594, 0.67512, -0.29071, -0.38441, -1.61202
8.900, 0.34915, 0.67512, -0.29071, -0.38441, -1.60742
8.920, 0.35221, 0.67512, -0.29071, -0.38441, -1.60317
8.940, 0.35510, 0.67512, -0.29071, -0.38441, -1.59927
8.960, 0.35784, 0.67512, -0.29071, -0.38441, -1.59570
8.980, 0.36041, 0.67512, -0.29071, -0.38441, -1.59243
9.000, 0.36282, 0.67512, -0.29071, -0.38441, -1.58947
9.020, 0.36508, 0.67512, -0.29071, -0.38441, -1.58679
9.040, 0.36717, 0.67512, -0.29071, -0.38441, -1.58438
9.060, 0.36910, 0.67512, -0.29071, -0.38441, -1.58222
9.080, 0.37088, 0.67512, -0.29071, -0.38441, -1.58031
9.100, 0.37249, 0.67512, -0.29071, -0.38441, -1.57862
9.120, 0.37395, 0.67512, -0.29071, -0.38441, -1.57715
9.140, 0.37524, 0.67512, -0.29071, -0.38441, -1.57587
9.160, 0.37637, 0.67512, -0.29071, -0.38441, -1.57478
9.180, 0.37735, 0.67512, -0.29071, -0.38441, -1.57385
9.200, 0.37816, 0.67512, -0.29071, -0.38441, -1.57308
9.220, 0.37882, 0.67512, -0.29071, -0.38441, -1.57246
9.240, 0.37935, 0.67512, -0.29071, -0.38441, -1.57196
9.260, 0.37975, 0.67512, -0.29071, -0.38441, -1.57157
9.280, 0.38005, 0.67512, -0.29071, -0.38441, -1.57128
9.300, 0.38025, 0.67512, -0.29071, -0.38441, -1.57107
9.320, 0.38039, 0.67512, -0.29071, -0.38441, -1.57094
9.340, 0.38046, 0.67512, -0.29071, -0.38441, -1.57085
9.360, 0.38050, 0.67512, -0.29071, -0.38441, -1.57081
9.380, 0.38051, 0.67512, -0.29071, -0.38441, -1.57080
9.400, 0.38051, 0.67512, -0.29071, -0.38441, -1.57080
9.420, 0.38051, 0.67512, -0.29071, -0.38441, -1.57080
9.440, 0.38051, 0.67512, -0.29071, -0.38441, -1.57080
9.460, 0.38051, 0.67512, -0.29071, -0.38441, -1.57080
9.480, 0.38051, 0.67512, -0.29071, -0.38441, -1.57080
9.500, 0.38051, 0.67512, -0.29071, -0.38441, -1.57080
9.520, 0.38051, 0.67512, -0.29071, -0.38441, -1.57080
9.540, 0.38051, 0.67512, -0.29071, -0.38441, -1.57080
9.560, 0.38051, 0.67512, -0.29071, -0.38441, -1.57080
9.580, 0.38051, 0.67512, -0.29071, -0.38441, -1.57080
9.600, 0.38051, 0.67512, -0.29071, -0.38441, -1.57080
9.620, 0.38051, 0.67512, -0.29071, -0.38441, -1.57080
9.640, 0.38051, 0.67512, -0.29071, -0.38441, -1.57080
9.660, 0.38051, 0.67512, -0.29071, -0.38441, -1.57080
9.680, 0.38051, 0.67512, -0.29071, -0.38441, -1.57080
9.700, 0.38051, 0.67512, -0.29071, -0.38441, -1.57080
9.720, 0.38051, 0.67512, -0.29071, -0.38441, -1.57080
9.740, 0.38051, 0.67512, -0.29071, -0.38441, -1.57080
9.760, 0.38051, 0.67512, -0.29071, -0.38441, -1.57080
9.780, 0.38051, 0.67512, -0.29071, -0.38441, -1.57080
9.800, 0.38051, 0.67512, -0.29071, -0.38441, -1.57080
9.820, 0.38051, 0.67512, -0.29071, -0.38441, -1.57080
9.840, 0.38051, 0.67512, -0.29071, -0.38442, -1.57080
9.860, 0.38051, 0.67512, -0.29071, -0.38442, -1.57080
9.880, 0.38051, 0.67512, -0.29071, -0.38442, -1.57080
9.900, 0.38051, 0.67512, -0.29071, -0.38442, -1.57080
9.920, 0.38051, 0.67512, -0.29071, -0.38442, -1.57080
9.940, 0.38051, 0.67512, -0.29071, -0.38442, -1.57080
9.960, 0.38051, 0.67512, -0.29071, -0.38442, -1.57081
9.980, 0.38051, 0.67512, -0.29071, -0.38442, -1.57081
10.000, 0.38051, 0.67512, -0.29071, -0.38442, -1.57081
10.020, 0.38051, 0.67512, -0.29071, -0.38442, -1.57081
10.040, 0.38051, 0.67512, -0.29071, -0.38442, -1.57081
10.060, 0.38051, 0.67512, -0.29071, -0.38442, -1.57081
10.080, 0.38051, 0.67512, -0.29071, -0.38442, -1.57081
10.100, 0.38051, 0.67512, -0.29071, -0.38442, -1.57081
10.120, 0.38051, 0.67512, -0.29071, -0.38442, -1.57081
10.140, 0.38051, 0.67512, -0.29071, -0.38442, -1.57081
10.160, 0.38051, 0.67512, -0.29071, -0.38442, -1.57081
10.180, 0.38051, 0.67512, -0.29071, -0.38442, -1.57081
10.200, 0.38051, 0.67512, -0.29071, -0.38442, -1.57081
10.220, 0.38051, 0.67512, -0.29071, -0.38442, -1.57081
10.240, 0.38051, 0.67512, -0.29071, -0.38441, -1.57081
10.260, 0.38051, 0.67512, -0.29071, -0.38441, -1.57081
10.280, 0.38051, 0.67512, -0.29071, -0.38441, -1.57080
10.300, 0.38051, 0.67512, -0.29071, -0.38441, -1.57080
10.320, 0.38051, 0.67512, -0.29071, -0.38441, -1.57080
10.340, 0.38051, 0.67512, -0.29071, -0.38441, -1.57080
10.360, 0.38051, 0.67512, -0.29071, -0.38441, -1.57080
10.380, 0.38051, 0.67512, -0.29071, -0.38441, -1.57080
10.400, 0.38051, 0.67512, -0.29071, -0.38441, -1.57080
10.420, 0.38051, 0.67512, -0.29072, -0.38439, -1.57077
10.440, 0.38051, 0.67510, -0.29077, -0.38436, -1.57071
10.460, 0.38051, 0.67508, -0.29085, -0.38428, -1.57057
10.480, 0.38051, 0.67504, -0.29100, -0.38415, -1.57034
10.500, 0.38051, 0.67497, -0.29122, -0.38396, -1.56999
10.520, 0.38051, 0.67488, -0.29153, -0.38369, -1.56951
10.540, 0.38051, 0.67476, -0.29195, -0.38334, -1.56886
10.560, 0.38051, 0.67461, -0.29250, -0.38288, -1.56802
10.580, 0.38051, 0.67442, -0.29318, -0.38231, -1.56696
10.600, 0.38051, 0.67418, -0.29402, -0.38161, -1.56567
10.620, 0.38051, 0.67390, -0.29503, -0.38077, -1.56413
10.640, 0.38051, 0.67357, -0.29623, -0.37978, -1.56229
10.660, 0.38051, 0.67317, -0.29764, -0.37862, -1.56015
10.680, 0.38051, 0.67272, -0.29927, -0.37728, -1.55768
10.700, 0.38051, 0.67221, -0.30113, -0.37575, -1.55484
10.720, 0.38051, 0.67162, -0.30324, -0.37402, -1.55163
10.740, 0.38051, 0.67096, -0.30562, -0.37207, -1.54802
10.760, 0.38051, 0.67022, -0.30828, -0.36989, -1.54398
10.780, 0.38051, 0.66940, -0.31122, -0.36747, -1.53948
10.800, 0.38051, 0.66850, -0.31444, -0.36480, -1.53451
10.820, 0.38051, 0.66750, -0.31794, -0.36185, -1.52904
10.840, 0.38051, 0.66641, -0.32172, -0.35863, -1.52305
10.860, 0.38051, 0.66521, -0.32578, -0.35511, -1.51651
10.880, 0.38051, 0.66392, -0.33012, -0.35129, -1.50940
10.900, 0.38051, 0.66251, -0.33474, -0.34714, -1.50174
10.920, 0.38051, 0.66099, -0.33963, -0.34267, -1.49352
10.940, 0.38051, 0.65936, -0.34476, -0.33785, -1.48475
10.960, 0.38051, 0.65760, -0.35014, -0.33267, -1.47541
10.980, 0.38051, 0.65573, -0.35574, -0.32712, -1.46551
11.000, 0.38051, 0.65374, -0.36153, -0.32121, -1.45506
11.020, 0.38051, 0.65164, -0.36752, -0.31493, -1.44407
11.040, 0.38051, 0.64941, -0.37368, -0.30828, -1.43256
11.060, 0.38051, 0.64707, -0.37999, -0.30126, -1.42057
11.080, 0.38051, 0.64461, -0.38645, -0.29388, -1.40812
11.100, 0.38051, 0.64203, -0.39303, -0.28612, -1.39523
11.120, 0.38051, 0.63934, -0.39972, -0.27800, -1.38192
11.140, 0.38051, 0.63652, -0.40649, -0.26951, -1.36821
11.160, 0.38051, 0.63359, -0.41335, -0.26067, -1.35414
11.180, 0.38051, 0.63055, -0.42026, -0.25149, -1.33973
11.200, 0.38051, 0.62739, -0.42722, -0.24198, -1.32499
11.220, 0.38051, 0.62412, -0.43421, -0.23215, -1.30996
11.240, 0.38051, 0.62075, -0.44121, -0.22202, -1.29465
11.260, 0.38051, 0.61728, -0.44821, -0.21160, -1.27910
11.280, 0.38051, 0.61372, -0.45521, -0.20090, -1.26332
11.300, 0.38051, 0.61007, -0.46221, -0.18994, -1.24734
11.320, 0.38051, 0.60633, -0.46921, -0.17873, -1.23118
11.340, 0.38051, 0.60251, -0.47621, -0.16728, -1.21487
11.360, 0.38051, 0.59861, -0.48321, -0.15560, -1.19844
11.380, 0.38051, 0.59464, -0.49021, -0.14371, -1.18189
11.400, 0.38051, 0.59060, -0.49721, -0.13162, -1.16527
11.420, 0.38051, 0.58650, -0.50421, -0.11934, -1.14859
11.440, 0.38051, 0.58234, -0.51121, -0.10688, -1.13188
11.460, 0.38051, 0.57812, -0.51821, -0.09427, -1.11515
11.480, 0.38051, 0.57385, -0.52521, -0.08150, -1.09843
11.500, 0.38051, 0.56954, -0.53221, -0.06860, -1.08171
11.520, 0.38051, 0.56518, -0.53921, -0.05557, -1.06498
11.540, 0.38051, 0.56079, -0.54621, -0.04243, -1.04826
11.560, 0.38051, 0.55636, -0.55321, -0.02919, -1.03153
11.580, 0.38051, 0.55190, -0.56021, -0.01587, -1.01481
11.600, 0.38051, 0.54742, -0.56721, -0.00248, -0.99809
11.620, 0.38051, 0.54292, -0.57421, 0.01098, -0.98136
11.640, 0.38051, 0.53840, -0.58121, 0.02448, -0.96464
11.660, 0.38051, 0.53387, -0.58821, 0.03801, -0.94792
11.680, 0.38051, 0.52934, -0.59521, 0.05157, -0.93119
11.700, 0.38051, 0.52480, -0.60221, 0.06514, -0.91447
11.720, 0.38051, 0.52026, -0.60921, 0.07870, -0.89775
11.740, 0.38051, 0.51572, -0.61621, 0.09227, -0.88102
11.760, 0.38051, 0.51118, -0.62321, 0.10584, -0.86430
11.780, 0.38051, 0.50664, -0.63021, 0.11940, -0.84758
11.800, 0.38051, 0.50210, -0.63721, 0.13297, -0.83085
11.820, 0.38051, 0.49756, -0.64421, 0.14654, -0.81413
11.840, 0.38051, 0.49302, -0.65121, 0.16010, -0.79741
11.860, 0.38051, 0.48849, -0.65821, 0.17367, -0.78068
11.880, 0.38051, 0.48395, -0.66521, 0.18724, -0.76396
11.900, 0.38051, 0.47941, -0.67221, 0.20080, -0.74723
11.920, 0.38051, 0.47487, -0.67921, 0.21437, -0.73051
11.940, 0.38051, 0.47033, -0.68621, 0.22794, -0.71379
11.960, 0.38051, 0.46579, -0.69321, 0.24150, -0.69706
11.980, 0.38051, 0.46125, -0.70021, 0.25507, -0.68034
12.000, 0.38051, 0.45671, -0.70721, 0.26864, -0.66362
12.020, 0.38051, 0.45217, -0.71421, 0.28220, -0.64689
12.040, 0.38051, 0.44763, -0.72121, 0.29576, -0.63017
12.060, 0.38051, 0.44310, -0.72821, 0.30929, -0.61345
12.080, 0.38051, 0.43858, -0.73521, 0.32279, -0.59672
12.100, 0.38051, 0.43407, -0.74221, 0.33624, -0.58000
12.120, 0.38051, 0.42958, -0.74921, 0.34963, -0.56328
12.140, 0.38051, 0.42511, -0.75621, 0.36295, -0.54655
12.160, 0.38051, 0.42067, -0.76321, 0.37617, -0.52983
12.180, 0.38051, 0.41626, -0.77021, 0.38931, -0.51310
12.200, 0.38051, 0.41189, -0.77721, 0.40232, -0.49638
12.220, 0.38051, 0.40756, -0.78421, 0.41522, -0.47966
12.240, 0.38051, 0.40327, -0.79121, 0.42797, -0.46293
12.260, 0.38051, 0.39903, -0.79821, 0.44058, -0.44621
12.280, 0.38051, 0.39485, -0.80521, 0.45302, -0.42949
12.300, 0.38051, 0.39072, -0.81221, 0.46529, -0.41279
12.320, 0.38051, 0.38665, -0.81921, 0.47736, -0.39614
12.340, 0.38051, 0.38265, -0.82621, 0.48924, -0.37956
12.360, 0.38051, 0.37873, -0.83321, 0.50090, -0.36307
12.380, 0.38051, 0.37487, -0.84021, 0.51234, -0.34671
12.400, 0.38051, 0.37110, -0.84721, 0.52353, -0.33048
12.420, 0.38051, 0.36741, -0.85421, 0.53448, -0.31442
12.440, 0.38051, 0.36381, -0.86121, 0.54515, -0.29855
12.460, 0.38051, 0.36030, -0.86821, 0.55555, -0.28290
12.480, 0.38051, 0.35689, -0.87521, 0.56566, -0.26748
12.500, 0.38051, 0.35358, -0.88220, 0.57546, -0.25233
12.520, 0.38051, 0.35037, -0.88918, 0.58495, -0.23746
12.540, 0.38051, 0.34728, -0.89611, 0.59411, -0.22290
12.560, 0.38051, 0.34430, -0.90299, 0.60292, -0.20868
12.580, 0.38051, 0.34144, -0.90981, 0.61139, -0.19481
12.600, 0.38051, 0.33869, -0.91654, 0.61948, -0.18132
12.620, 0.38051, 0.33606, -0.92316, 0.62721, -0.16825
12.640, 0.38051, 0.33356, -0.92967, 0.63457, -0.15560
12.660, 0.38051, 0.33116, -0.93605, 0.64156, -0.14340
12.680, 0.38051, 0.32889, -0.94228, 0.64818, -0.13168
12.700, 0.38051, 0.32673, -0.94834, 0.65443, -0.12047
12.720, 0.38051, 0.32470, -0.95422, 0.66032, -0.10978
12.740, 0.38051, 0.32278, -0.95990, 0.66584, -0.09964
12.760, 0.38051, 0.32097, -0.96537, 0.67099, -0.09005
12.780, 0.38051, 0.31929, -0.97061, 0.67578, -0.08103
12.800, 0.38051, 0.31772, -0.97561, 0.68024, -0.07257
12.820, 0.38051, 0.31627, -0.98034, 0.68436, -0.06466
12.840, 0.38051, 0.31493, -0.98480, 0.68816, -0.05732
12.860, 0.38051, 0.31369, -0.98898, 0.69165, -0.05053
12.880, 0.38051, 0.31256, -0.99288, 0.69486, -0.04430
12.900, 0.38051, 0.31152, -0.99650, 0.69778, -0.03861
12.920, 0.38051, 0.31057, -0.99984, 0.70044, -0.03342
12.940, 0.38051, 0.30972, -1.00290, 0.70284, -0.02872
12.960, 0.38051, 0.30895, -1.00568, 0.70500, -0.02449
12.980, 0.38051, 0.30826, -1.00817, 0.70694, -0.02069
13.000, 0.38051, 0.30764, -1.01040, 0.70865, -0.01731
13.020, 0.38051, 0.30709, -1.01237, 0.71017, -0.01431
13.040, 0.38051, 0.30662, -1.01409, 0.71149, -0.01169
13.060, 0.38051, 0.30620, -1.01558, 0.71264, -0.00940
13.080, 0.38051, 0.30584, -1.01687, 0.71362, -0.00744
13.100, 0.38051, 0.30554, -1.01796, 0.71445, -0.00577
13.120, 0.38051, 0.30528, -1.01887, 0.71513, -0.00437
13.140, 0.38051, 0.30507, -1.01962, 0.71570, -0.00322
13.160, 0.38051, 0.30491, -1.02022, 0.71615, -0.00229
13.180, 0.38051, 0.30477, -1.02070, 0.71650, -0.00155
13.200, 0.38051, 0.30467, -1.02105, 0.71676, -0.00100
13.220, 0.38051, 0.30460, -1.02131, 0.71694, -0.00059
13.240, 0.38051, 0.30455, -1.02149, 0.71707, -0.00032
13.260, 0.38051, 0.30452, -1.02160, 0.71714, -0.00014
13.280, 0.38051, 0.30450, -1.02165, 0.71718, -0.00005
13.300, 0.38051, 0.30449, -1.02168, 0.71719, -0.00001
13.320, 0.38051, 0.30449, -1.02168, 0.71719, 0.00000
13.340, 0.38051, 0.30449, -1.02168, 0.71719, 0.00000
13.360, 0.38051, 0.30449, -1.02168, 0.71719, 0.00000
13.380, 0.38051, 0.30449, -1.02168, 0.71719, 0.00000
13.400, 0.38051, 0.30449, -1.02168, 0.71719, 0.00000
13.420, 0.38051, 0.30449, -1.02168, 0.71719, 0.00000
13.440, 0.38051, 0.30449, -1.02168, 0.71719, 0.00000
13.460, 0.38051, 0.30449, -1.02168, 0.71719, 0.00000
13.480, 0.38051, 0.30449, -1.02168, 0.71719, 0.00000
13.500, 0.38051, 0.30449, -1.02168, 0.71719, 0.00000
13.520, 0.38051, 0.30449, -1.02168, 0.71719, 0.00000
13.540, 0.38051, 0.30449, -1.02168, 0.71719, 0.00000
13.560, 0.38051, 0.30449, -1.02168, 0.71719, 0.00000
13.580, 0.38051, 0.30449, -1.02168, 0.71719, 0.00000
13.600, 0.38051, 0.30449, -1.02168, 0.71719, 0.00000
13.620, 0.38051, 0.30449, -1.02168, 0.71719, 0.00000
13.640, 0.38051, 0.30449, -1.02168, 0.71719, 0.00000
13.660, 0.38051, 0.30449, -1.02168, 0.71719, 0.00000
13.680, 0.38051, 0.30449, -1.02168, 0.71719, 0.00000
13.700, 0.38051, 0.30449, -1.02168, 0.71719, 0.00000
13.720, 0.38051, 0.30449, -1.02168, 0.71719, -0.00000
13.740, 0.38051, 0.30449, -1.02168, 0.71719, -0.00000
13.760, 0.38051, 0.30449, -1.02168, 0.71719, -0.00000
13.780, 0.38051, 0.30449, -1.02168, 0.71719, -0.00000
13.800, 0.38051, 0.30449, -1.02168, 0.71719, -0.00000
13.820, 0.38051, 0.30449, -1.02168, 0.71719, -0.00000
13.840, 0.38051, 0.30449, -1.02168, 0.71719, -0.00000
13.860, 0.38051, 0.30449, -1.02168, 0.71719, -0.00000
13.880, 0.38051, 0.30449, -1.02168, 0.71719, -0.00000
13.900, 0.38051, 0.30449, -1.02168, 0.71719, -0.00000
13.920, 0.38051, 0.30449, -1.02168, 0.71719, -0.00000
13.940, 0.38051, 0.30449, -1.02168, 0.71719, -0.00000
13.960, 0.38051, 0.30449, -1.02168, 0.71719, -0.00000
13.980, 0.38051, 0.30449, -1.02168, 0.71719, -0.00000
14.000, 0.38051, 0.30449, -1.02168, 0.71719, -0.00000
14.020, 0.38051, 0.30449, -1.02168, 0.71719, -0.00001
14.040, 0.38051, 0.30449, -1.02168, 0.71719, -0.00001
14.060, 0.38051, 0.30449, -1.02168, 0.71719, -0.00001
14.080, 0.38051, 0.30449, -1.02168, 0.71719, -0.00001
14.100, 0.38051, 0.30449, -1.02168, 0.71719, -0.00001
14.120, 0.38051, 0.30449, -1.02168, 0.71719, -0.00001
14.140, 0.38051, 0.30449, -1.02168, 0.71719, -0.00000
14.160, 0.38051, 0.30449, -1.02168, 0.71719, -0.00000
14.180, 0.38051, 0.30449, -1.02168, 0.71719, -0.00000
14.200, 0.38051, 0.30449, -1.02168, 0.71719, -0.00000
14.220, 0.38051, 0.30449, -1.02168, 0.71719, -0.00000
14.240, 0.38051, 0.30449, -1.02168, 0.71719, -0.00000
14.260, 0.38051, 0.30449, -1.02168, 0.71719, -0.00000
14.280, 0.38051, 0.30449, -1.02168, 0.71719, -0.00000
14.300, 0.38051, 0.30449, -1.02168, 0.71719, -0.00000
14.320, 0.38051, 0.30449, -1.02168, 0.71719, 0.00000
14.340, 0.38051, 0.30449, -1.02168, 0.71719, 0.00001
14.360, 0.38048, 0.30449, -1.02168, 0.71719, 0.00003
14.380, 0.38042, 0.30449, -1.02168, 0.71719, 0.00010
14.400, 0.38031, 0.30449, -1.02168, 0.71719, 0.00021
14.420, 0.38013, 0.30449, -1.02168, 0.71719, 0.00038
14.440, 0.37986, 0.30449, -1.02168, 0.71719, 0.00063
14.460, 0.37950, 0.30449, -1.02168, 0.71719, 0.00098
14.480, 0.37901, 0.30449, -1.02168, 0.71719, 0.00143
14.500, 0.37840, 0.30449, -1.02168, 0.71719, 0.00200
14.520, 0.37764, 0.30449, -1.02168, 0.71719, 0.00271
14.540, 0.37672, 0.30449, -1.02168, 0.71719, 0.00356
14.560, 0.37564, 0.30449, -1.02168, 0.71719, 0.00458
14.580, 0.37440, 0.30449, -1.02168, 0.71719, 0.00578
14.600, 0.37300, 0.30449, -1.02168, 0.71719, 0.00717
14.620, 0.37144, 0.30449, -1.02168, 0.71719, 0.00877
14.640, 0.36972, 0.30449, -1.02168, 0.71719, 0.01058
14.660, 0.36784, 0.30449, -1.02168, 0.71719, 0.01264
14.680, 0.36580, 0.30449, -1.02168, 0.71719, 0.01494
14.700, 0.36360, 0.30449, -1.02168, 0.71719, 0.01750
14.720, 0.36124, 0.30449, -1.02168, 0.71719, 0.02034
14.740, 0.35872, 0.30449, -1.02168, 0.71719, 0.02348
14.760, 0.35604, 0.30449, -1.02168, 0.71719, 0.02692
14.780, 0.35320, 0.30449, -1.02168, 0.71719, 0.03068
14.800, 0.35020, 0.30449, -1.02168, 0.71719, 0.03478
14.820, 0.34704, 0.30449, -1.02168, 0.71719, 0.03923
14.840, 0.34372, 0.30449, -1.02168, 0.71719, 0.04404
14.860, 0.34024, 0.30449, -1.02168, 0.71719, 0.04923
14.880, 0.33660, 0.30449, -1.02168, 0.71719, 0.05481
14.900, 0.33280, 0.30449, -1.02168, 0.71719, 0.06078
14.920, 0.32884, 0.30449, -1.02168, 0.71719, 0.06716
14.940, 0.32472, 0.30449, -1.02168, 0.71719, 0.07393
14.960, 0.32044, 0.30449, -1.02168, 0.71719, 0.08109
14.980, 0.31600, 0.30449, -1.02168, 0.71719, 0.08865
15.000, 0.31140, 0.30449, -1.02168, 0.71719, 0.09661
15.020, 0.30664, 0.30449, -1.02168, 0.71719, 0.10497
15.040, 0.30172, 0.30449, -1.02168, 0.71719, 0.11372
15.060, 0.29664, 0.30449, -1.02168, 0.71719, 0.12285
15.080, 0.29140, 0.30449, -1.02168, 0.71719, 0.13236
15.100, 0.28601, 0.30449, -1.02168, 0.71719, 0.14221
15.120, 0.28049, 0.30449, -1.02168, 0.71719, 0.15241
15.140, 0.27486, 0.30449, -1.02168, 0.71719, 0.16294
15.160, 0.26913, 0.30449, -1.02168, 0.71719, 0.17377
15.180, 0.26331, 0.30449, -1.02168, 0.71719, 0.18490
15.200, 0.25742, 0.30449, -1.02168, 0.71719, 0.19632
15.220, 0.25148, 0.30449, -1.02168, 0.71719, 0.20800
15.240, 0.24551, 0.30449, -1.02168, 0.71719, 0.21994
15.260, 0.23951, 0.30449, -1.02168, 0.71719, 0.23212
15.280, 0.23351, 0.30449, -1.02168, 0.71719, 0.24453
15.300, 0.22751, 0.30449, -1.02168, 0.71719, 0.25715
15.320, 0.22151, 0.30449, -1.02168, 0.71719, 0.26996
15.340, 0.21551, 0.30449, -1.02168, 0.71719, 0.28296
15.360, 0.20951, 0.30449, -1.02168, 0.71719, 0.29612
15.380, 0.20351, 0.30449, -1.02168, 0.71719, 0.30945
15.400, 0.19751, 0.30449, -1.02168, 0.71719, 0.32291
15.420, 0.19151, 0.30449, -1.02168, 0.71719, 0.33649
15.440, 0.18551, 0.30449, -1.02168, 0.71719, 0.35019
15.460, 0.17951, 0.30449, -1.02168, 0.71719, 0.36399
15.480, 0.17351, 0.30449, -1.02168, 0.71719, 0.37787
15.500, 0.16751, 0.30449, -1.02168, 0.71719, 0.39181
15.520, 0.16151, 0.30449, -1.02168, 0.71719, 0.40582
15.540, 0.15551, 0.30449, -1.02168, 0.71719, 0.41986
15.560, 0.14951, 0.30449, -1.02168, 0.71719, 0.43393
15.580, 0.14351, 0.30449, -1.02168, 0.71719, 0.44801
15.600, 0.13751, 0.30449, -1.02168, 0.71719, 0.46209
15.620, 0.13151, 0.30449, -1.02168, 0.71719, 0.47617
15.640, 0.12551, 0.30449, -1.02168, 0.71719, 0.49025
15.660, 0.11951, 0.30449, -1.02168, 0.71719, 0.50433
15.680, 0.11351, 0.30449, -1.02168, 0.71719, 0.51841
15.700, 0.10751, 0.30449, -1.02168, 0.71719, 0.53249
15.720, 0.10151, 0.30449, -1.02168, 0.71719, 0.54657
15.740, 0.09551, 0.30449, -1.02168, 0.71719, 0.56065
15.760, 0.08951, 0.30449, -1.02168, 0.71719, 0.57473
15.780, 0.08351, 0.30449, -1.02168, 0.71719, 0.58881
15.800, 0.07751, 0.30449, -1.02168, 0.71719, 0.60289
15.820, 0.07151, 0.30449, -1.02168, 0.71719, 0.61697
15.840, 0.06551, 0.30449, -1.02168, 0.71719, 0.63105
15.860, 0.05951, 0.30449, -1.02168, 0.71719, 0.64513
15.880, 0.05351, 0.30449, -1.02168, 0.71719, 0.65921
15.900, 0.04751, 0.30449, -1.02168, 0.71719, 0.67329
15.920, 0.04151, 0.30449, -1.02168, 0.71719, 0.68737
15.940, 0.03551, 0.30449, -1.02168, 0.71719, 0.70145
15.960, 0.02951, 0.30449, -1.02168, 0.71719, 0.71554
15.980, 0.02351, 0.30449, -1.02168, 0.71719, 0.72962
16.000, 0.01751, 0.30449, -1.02168, 0.71719, 0.74370
16.020, 0.01151, 0.30449, -1.02168, 0.71719, 0.75778
16.040, 0.00551, 0.30449, -1.02168, 0.71719, 0.77186
16.060, -0.00049, 0.30449, -1.02168, 0.71719, 0.78594
16.080, -0.00649, 0.30449, -1.02168, 0.71719, 0.80002
16.100, -0.01249, 0.30449, -1.02168, 0.71719, 0.81410
16.120, -0.01849, 0.30449, -1.02168, 0.71719, 0.82818
16.140, -0.02449, 0.30449, -1.02168, 0.71719, 0.84226
16.160, -0.03049, 0.30449, -1.02168, 0.71719, 0.85634
16.180, -0.03649, 0.30449, -1.02168, 0.71719, 0.87042
16.200, -0.04249, 0.30449, -1.02168, 0.71719, 0.88450
16.220, -0.04849, 0.30449, -1.02168, 0.71719, 0.89858
16.240, -0.05449, 0.30449, -1.02168, 0.71719, 0.91266
16.260, -0.06049, 0.30449, -1.02168, 0.71719, 0.92674
16.280, -0.06649, 0.30449, -1.02168, 0.71719, 0.94082
16.300, -0.07249, 0.30449, -1.02168, 0.71719, 0.95490
16.320, -0.07849, 0.30449, -1.02168, 0.71719, 0.96898
16.340, -0.08449, 0.30449, -1.02168, 0.71719, 0.98306
16.360, -0.09049, 0.30449, -1.02168, 0.71719, 0.99714
16.380, -0.09649, 0.30449, -1.02168, 0.71719, 1.01122
16.400, -0.10249, 0.30449, -1.02168, 0.71719, 1.02531
16.420, -0.10849, 0.30449, -1.02168, 0.71719, 1.03939
16.440, -0.11449, 0.30449, -1.02168, 0.71719, 1.05347
16.460, -0.12049, 0.30449, -1.02168, 0.71719, 1.06755
16.480, -0.12649, 0.30449, -1.02168, 0.71719, 1.08163
16.500, -0.13249, 0.30449, -1.02168, 0.71719, 1.09571
16.520, -0.13849, 0.30449, -1.02168, 0.71719, 1.10979
16.540, -0.14449, 0.30449, -1.02168, 0.71719, 1.12387
16.560, -0.15049, 0.30449, -1.02168, 0.71719, 1.13795
16.580, -0.15649, 0.30449, -1.02168, 0.71719, 1.15201
16.600, -0.16249, 0.30449, -1.02168, 0.71719, 1.16605
16.620, -0.16849, 0.30449, -1.02168, 0.71719, 1.18005
16.640, -0.17449, 0.30449, -1.02168, 0.71719, 1.19400
16.660, -0.18049, 0.30449, -1.02168, 0.71719, 1.20787
16.680, -0.18649, 0.30449, -1.02168, 0.71719, 1.22166
16.700, -0.19249, 0.30449, -1.02168, 0.71719, 1.23535
16.720, -0.19849, 0.30449, -1.02168, 0.71719, 1.24893
16.740, -0.20449, 0.30449, -1.02168, 0.71719, 1.26238
16.760, -0.21049, 0.30449, -1.02168, 0.71719, 1.27569
16.780, -0.21649, 0.30449, -1.02168, 0.71719, 1.28884
16.800, -0.22249, 0.30449, -1.02168, 0.71719, 1.30182
16.820, -0.22849, 0.30449, -1.02168, 0.71719, 1.31462
16.840, -0.23449, 0.30449, -1.02168, 0.71719, 1.32723
16.860, -0.24049, 0.30449, -1.02168, 0.71719, 1.33961
16.880, -0.24648, 0.30449, -1.02168, 0.71719, 1.35178
16.900, -0.25245, 0.30449, -1.02168, 0.71719, 1.36370
16.920, -0.25838, 0.30449, -1.02168, 0.71719, 1.37536
16.940, -0.26426, 0.30449, -1.02168, 0.71719, 1.38676
16.960, -0.27007, 0.30449, -1.02168, 0.71719, 1.39787
16.980, -0.27579, 0.30449, -1.02168, 0.71719, 1.40868
17.000, -0.28140, 0.30449, -1.02168, 0.71719, 1.41918
17.020, -0.28690, 0.30449, -1.02168, 0.71719, 1.42935
17.040, -0.29227, 0.30449, -1.02168, 0.71719, 1.43918
17.060, -0.29748, 0.30449, -1.02168, 0.71719, 1.44866
17.080, -0.30253, 0.30449, -1.02168, 0.71719, 1.45776
17.100, -0.30743, 0.30449, -1.02168, 0.71719, 1.46648
17.120, -0.31216, 0.30449, -1.02168, 0.71719, 1.47481
17.140, -0.31674, 0.30449, -1.02168, 0.71719, 1.48274
17.160, -0.32115, 0.30449, -1.02168, 0.71719, 1.49027
17.180, -0.32540, 0.30449, -1.02168, 0.71719, 1.49741
17.200, -0.32950, 0.30449, -1.02168, 0.71719, 1.50415
17.220, -0.33343, 0.30449, -1.02168, 0.71719, 1.51049
17.240, -0.33721, 0.30449, -1.02168, 0.71719, 1.51643
17.260, -0.34082, 0.30449, -1.02168, 0.71719, 1.52198
17.280, -0.34427, 0.30449, -1.02168, 0.71719, 1.52714
17.300, -0.34757, 0.30449, -1.02168, 0.71719, 1.53192
17.320, -0.35070, 0.30449, -1.02168, 0.71719, 1.53634
17.340, -0.35367, 0.30449, -1.02168, 0.71719, 1.54042
17.360, -0.35649, 0.30449, -1.02168, 0.71719, 1.54415
17.380, -0.35914, 0.30449, -1.02168, 0.71719, 1.54757
17.400, -0.36164, 0.30449, -1.02168, 0.71719, 1.55068
17.420, -0.36397, 0.30449, -1.02168, 0.71719, 1.55350
17.440, -0.36614, 0.30449, -1.02168, 0.71719, 1.55605
17.460, -0.36816, 0.30449, -1.02168, 0.71719, 1.55833
17.480, -0.37001, 0.30449, -1.02168, 0.71719, 1.56036
17.500, -0.37171, 0.30449, -1.02168, 0.71719, 1.56216
17.520, -0.37324, 0.30449, -1.02168, 0.71719, 1.56374
17.540, -0.37461, 0.30449, -1.02168, 0.71719, 1.56512
17.560, -0.37583, 0.30449, -1.02168, 0.71719, 1.56630
17.580, -0.37688, 0.30449, -1.02168, 0.71719, 1.56731
17.600, -0.37777, 0.30449, -1.02168, 0.71719, 1.56815
17.620, -0.37851, 0.30449, -1.02168, 0.71719, 1.56885
17.640, -0.37910, 0.30449, -1.02168, 0.71719, 1.56941
17.660, -0.37956, 0.30449, -1.02168, 0.71719, 1.56985
17.680, -0.37991, 0.30449, -1.02168, 0.71719, 1.57019
17.700, -0.38016, 0.30449, -1.02168, 0.71719, 1.57043
17.720, -0.38033, 0.30449, -1.02168, 0.71719, 1.57060
17.740, -0.38043, 0.30449, -1.02168, 0.71719, 1.57071
17.760, -0.38049, 0.30449, -1.02168, 0.71719, 1.57077
17.780, -0.38051, 0.30449, -1.02168, 0.71719, 1.57079
17.800, -0.38051, 0.30449, -1.02168, 0.71719, 1.57080
17.820, -0.38051, 0.30449, -1.02168, 0.71719, 1.57080
17.840, -0.38051, 0.30449, -1.02168, 0.71719, 1.57080
17.860, -0.38051, 0.30449, -1.02168, 0.71719, 1.57080
17.880, -0.38051, 0.30449, -1.02168, 0.71719, 1.57080
17.900, -0.38051, 0.30449, -1.02168, 0.71719, 1.57080
17.920, -0.38051, 0.30449, -1.02168, 0.71719, 1.57080
17.940, -0.38051, 0.30449, -1.02168, 0.71719, 1.57080
17.960, -0.38051, 0.30449, -1.02168, 0.71719, 1.57080
17.980, -0.38051, 0.30449, -1.02168, 0.71719, 1.57080
18.000, -0.38051, 0.30449, -1.02168, 0.71719, 1.57080
18.020, -0.38051, 0.30449, -1.02168, 0.71719, 1.57080
18.040, -0.38051, 0.30449, -1.02168, 0.71719, 1.57080
18.060, -0.38051, 0.30449, -1.02168, 0.71719, 1.57080
18.080, -0.38051, 0.30449, -1.02168, 0.71719, 1.57080
18.100, -0.38051, 0.30449, -1.02168, 0.71719, 1.57080
18.120, -0.38051, 0.30449, -1.02168, 0.71719, 1.57080
18.140, -0.38051, 0.30449, -1.02168, 0.71719, 1.57080
18.160, -0.38051, 0.30449, -1.02168, 0.71719, 1.57080
18.180, -0.38051, 0.30449, -1.02168, 0.71719, 1.57080
18.200, -0.38051, 0.30449, -1.02168, 0.71719, 1.57080
18.220, -0.38051, 0.30449, -1.02168, 0.71719, 1.57080
18.240, -0.38051, 0.30449, -1.02168, 0.71719, 1.57080
18.260, -0.38051, 0.30449, -1.02168, 0.71720, 1.57080
18.280, -0.38051, 0.30449, -1.02168, 0.71720, 1.57080
18.300, -0.38051, 0.30449, -1.02168, 0.71720, 1.57080
18.320, -0.38051, 0.30449, -1.02168, 0.71720, 1.57080
18.340, -0.38051, 0.30449, -1.02168, 0.71720, 1.57080
18.360, -0.38051, 0.30449, -1.02168, 0.71720, 1.57079
18.380, -0.38051, 0.30449, -1.02168, 0.71720, 1.57079
18.400, -0.38051, 0.30449, -1.02168, 0.71720, 1.57079
18.420, -0.38051, 0.30449, -1.02168, 0.71720, 1.57079
18.440, -0.38051, 0.30449, -1.02168, 0.71720, 1.57079
18.460, -0.38051, 0.30449, -1.02168, 0.71720, 1.57079
18.480, -0.38051, 0.30449, -1.02168, 0.71720, 1.57079
18.500, -0.38051, 0.30449, -1.02168, 0.71720, 1.57079
18.520, -0.38051, 0.30449, -1.02168, 0.71720, 1.57079
18.540, -0.38051, 0.30449, -1.02168, 0.71720, 1.57079
18.560, -0.38051, 0.30449, -1.02168, 0.71720, 1.57079
18.580, -0.38051, 0.30449, -1.02168, 0.71720, 1.57079
18.600, -0.38051, 0.30449, -1.02168, 0.71720, 1.57079
18.620, -0.38051, 0.30449, -1.02168, 0.71720, 1.57079
18.640, -0.38051, 0.30449, -1.02168, 0.71720, 1.57079
18.660, -0.38051, 0.30449, -1.02168, 0.71719, 1.57079
18.680, -0.38051, 0.30449, -1.02168, 0.71719, 1.57080
18.700, -0.38051, 0.30449, -1.02168, 0.71719, 1.57080
18.720, -0.38051, 0.30449, -1.02168, 0.71719, 1.57080
18.740, -0.38051, 0.30449, -1.02168, 0.71719, 1.57080
18.760, -0.38051, 0.30449, -1.02168, 0.71719, 1.57080
18.780, -0.38051, 0.30449, -1.02168, 0.71719, 1.57080
18.800, -0.38051, 0.30449, -1.02168, 0.71719, 1.57080
18.820, -0.38051, 0.30449, -1.02167, 0.71718, 1.57081
18.840, -0.38051, 0.30450, -1.02165, 0.71716, 1.57085
18.860, -0.38051, 0.30452, -1.02159, 0.71710, 1.57095
18.880, -0.38051, 0.30455, -1.02148, 0.71700, 1.57113
18.900, -0.38051, 0.30460, -1.02130, 0.71685, 1.57142
18.920, -0.38051, 0.30468, -1.02103, 0.71662, 1.57183
18.940, -0.38051, 0.30478, -1.02066, 0.71631, 1.57240
18.960, -0.38051, 0.30492, -1.02018, 0.71590, 1.57314
18.980, -0.38051, 0.30509, -1.01957, 0.71539, 1.57408
19.000, -0.38051, 0.30530, -1.01881, 0.71476, 1.57525
19.020, -0.38051, 0.30556, -1.01789, 0.71399, 1.57667
19.040, -0.38051, 0.30587, -1.01678, 0.71307, 1.57835
19.060, -0.38051, 0.30623, -1.01548, 0.71200, 1.58034
19.080, -0.38051, 0.30665, -1.01397, 0.71075, 1.58264
19.100, -0.38051, 0.30714, -1.01223, 0.70932, 1.58529
19.120, -0.38051, 0.30769, -1.01024, 0.70769, 1.58831
19.140, -0.38051, 0.30831, -1.00799, 0.70586, 1.59172
19.160, -0.38051, 0.30901, -1.00548, 0.70379, 1.59555
19.180, -0.38051, 0.30979, -1.00267, 0.70150, 1.59981
19.200, -0.38051, 0.31065, -0.99960, 0.69895, 1.60454
19.220, -0.38051, 0.31160, -0.99624, 0.69614, 1.60976
19.240, -0.38051, 0.31264, -0.99259, 0.69306, 1.61549
19.260, -0.38051, 0.31379, -0.98868, 0.68969, 1.62175
19.280, -0.38051, 0.31503, -0.98448, 0.68602, 1.62857
19.300, -0.38051, 0.31638, -0.97999, 0.68203, 1.63596
19.320, -0.38051, 0.31784, -0.97524, 0.67773, 1.64390
19.340, -0.38051, 0.31942, -0.97023, 0.67308, 1.65239
19.360, -0.38051, 0.32112, -0.96497, 0.66808, 1.66145
19.380, -0.38051, 0.32293, -0.95948, 0.66272, 1.67107
19.400, -0.38051, 0.32486, -0.95378, 0.65699, 1.68125
19.420, -0.38051, 0.32691, -0.94788, 0.65089, 1.69197
19.440, -0.38051, 0.32907, -0.94181, 0.64443, 1.70322
19.460, -0.38051, 0.33135, -0.93557, 0.63760, 1.71497
19.480, -0.38051, 0.33376, -0.92918, 0.63039, 1.72720
19.500, -0.38051, 0.33627, -0.92267, 0.62282, 1.73987
19.520, -0.38051, 0.33891, -0.91603, 0.61489, 1.75298
19.540, -0.38051, 0.34167, -0.90929, 0.60658, 1.76649
19.560, -0.38051, 0.34454, -0.90248, 0.59792, 1.78038
19.580, -0.38051, 0.34753, -0.89559, 0.58890, 1.79463
19.600, -0.38051, 0.35063, -0.88865, 0.57955, 1.80920
19.620, -0.38051, 0.35384, -0.88168, 0.56988, 1.82409
19.640, -0.38051, 0.35716, -0.87468, 0.55990, 1.83926
19.660, -0.38051, 0.36058, -0.86768, 0.54963, 1.85470
19.680, -0.38051, 0.36410, -0.86068, 0.53907, 1.87037
19.700, -0.38051, 0.36771, -0.85368, 0.52824, 1.88625
19.720, -0.38051, 0.37140, -0.84668, 0.51715, 1.90232
19.740, -0.38051, 0.37518, -0.83968, 0.50581, 1.91855
19.760, -0.38051, 0.37904, -0.83268, 0.49425, 1.93493
19.780, -0.38051, 0.38298, -0.82568, 0.48246, 1.95142
19.800, -0.38051, 0.38698, -0.81868, 0.47047, 1.96801
19.820, -0.38051, 0.39105, -0.81168, 0.45828, 1.98466
19.840, -0.38051, 0.39518, -0.80468, 0.44591, 2.00136
19.860, -0.38051, 0.39937, -0.79768, 0.43337, 2.01809
19.880, -0.38051, 0.40362, -0.79068, 0.42068, 2.03481
19.900, -0.38051, 0.40791, -0.78368, 0.40784, 2.05153
19.920, -0.38051, 0.41224, -0.77668, 0.39488, 2.06826
19.940, -0.38051, 0.41662, -0.76968, 0.38179, 2.08498
19.960, -0.38051, 0.42103, -0.76268, 0.36860, 2.10170
19.980, -0.38051, 0.42547, -0.75568, 0.35532, 2.11843
20.000, -0.38051, 0.42994, -0.74868, 0.34196, 2.13515
20.020, -0.38051, 0.43444, -0.74168, 0.32854, 2.15187
20.040, -0.38051, 0.43895, -0.73468, 0.31506, 2.16860
20.060, -0.38051, 0.44347, -0.72768, 0.30154, 2.18532
20.080, -0.38051, 0.44800, -0.72068, 0.28799, 2.20204
20.100, -0.38051, 0.45254, -0.71368, 0.27443, 2.21877
20.120, -0.38051, 0.45708, -0.70668, 0.26086, 2.23549
20.140, -0.38051, 0.46162, -0.69968, 0.24729, 2.25222
20.160, -0.38051, 0.46616, -0.69268, 0.23373, 2.26894
20.180, -0.38051, 0.47070, -0.68568, 0.22016, 2.28566
20.200, -0.38051, 0.47524, -0.67868, 0.20659, 2.30239
20.220, -0.38051, 0.47978, -0.67168, 0.19303, 2.31911
20.240, -0.38051, 0.48432, -0.66468, 0.17946, 2.33583
20.260, -0.38051, 0.48886, -0.65768, 0.16589, 2.35256
20.280, -0.38051, 0.49339, -0.65068, 0.15233, 2.36928
20.300, -0.38051, 0.49793, -0.64368, 0.13876, 2.38600
20.320, -0.38051, 0.50247, -0.63668, 0.12519, 2.40273
20.340, -0.38051, 0.50701, -0.62968, 0.11163, 2.41945
20.360, -0.38051, 0.51155, -0.62268, 0.09806, 2.43617
20.380, -0.38051, 0.51609, -0.61568, 0.08449, 2.45290
20.400, -0.38051, 0.52063, -0.60868, 0.07093, 2.46962
20.420, -0.38051, 0.52517, -0.60168, 0.05736, 2.48635
20.440, -0.38051, 0.52971, -0.59468, 0.04380, 2.50307
20.460, -0.38051, 0.53424, -0.58768, 0.03025, 2.51979
20.480, -0.38051, 0.53877, -0.58068, 0.01673, 2.53652
20.500, -0.38051, 0.54329, -0.57368, 0.00326, 2.55324
20.520, -0.38051, 0.54779, -0.56668, -0.01016, 2.56996
20.540, -0.38051, 0.55227, -0.55968, -0.02352, 2.58669
20.560, -0.38051, 0.55672, -0.55268, -0.03679, 2.60341
20.580, -0.38051, 0.56115, -0.54568, -0.04997, 2.62013
20.600, -0.38051, 0.56554, -0.53868, -0.06305, 2.63686
20.620, -0.38051, 0.56989, -0.53168, -0.07601, 2.65358
20.640, -0.38051, 0.57420, -0.52468, -0.08883, 2.67030
20.660, -0.38051, 0.57847, -0.51768, -0.10152, 2.68703
20.680, -0.38051, 0.58268, -0.51068, -0.11404, 2.70375
20.700, -0.38051, 0.58684, -0.50368, -0.12640, 2.72046
20.720, -0.38051, 0.59093, -0.49668, -0.13857, 2.73714
20.740, -0.38051, 0.59497, -0.48968, -0.15055, 2.75376
20.760, -0.38051, 0.59893, -0.48268, -0.16232, 2.77030
20.780, -0.38051, 0.60282, -0.47568, -0.17387, 2.78673
20.800, -0.38051, 0.60663, -0.46868, -0.18519, 2.80303
20.820, -0.38051, 0.61037, -0.46168, -0.19626, 2.81917
20.840, -0.38051, 0.61401, -0.45468, -0.20707, 2.83514
20.860, -0.38051, 0.61757, -0.44768, -0.21761, 2.85090
20.880, -0.38051, 0.62103, -0.44068, -0.22786, 2.86644
20.900, -0.38051, 0.62439, -0.43368, -0.23782, 2.88173
20.920, -0.38051, 0.62765, -0.42670, -0.24747, 2.89674
20.940, -0.38051, 0.63080, -0.41974, -0.25679, 2.91146
20.960, -0.38051, 0.63384, -0.41283, -0.26578, 2.92585
20.980, -0.38051, 0.63676, -0.40598, -0.27442, 2.93990
21.000, -0.38051, 0.63956, -0.39921, -0.28270, 2.95358
21.020, -0.38051, 0.64225, -0.39253, -0.29061, 2.96687
21.040, -0.38051, 0.64481, -0.38596, -0.29815, 2.97973
21.060, -0.38051, 0.64726, -0.37951, -0.30533, 2.99216
21.080, -0.38051, 0.64960, -0.37321, -0.31213, 3.00412
21.100, -0.38051, 0.65181, -0.36706, -0.31857, 3.01558
21.120, -0.38051, 0.65391, -0.36109, -0.32464, 3.02654
21.140, -0.38051, 0.65589, -0.35530, -0.33035, 3.03696
21.160, -0.38051, 0.65775, -0.34973, -0.33568, 3.04682
21.180, -0.38051, 0.65949, -0.34437, -0.34065, 3.05612
21.200, -0.38051, 0.66112, -0.33925, -0.34527, 3.06486
21.220, -0.38051, 0.66263, -0.33438, -0.34956, 3.07305
21.240, -0.38051, 0.66403, -0.32978, -0.35352, 3.08067
21.260, -0.38051, 0.66531, -0.32546, -0.35716, 3.08774
21.280, -0.38051, 0.66650, -0.32142, -0.36051, 3.09424
21.300, -0.38051, 0.66758, -0.31767, -0.36357, 3.10020
21.320, -0.38051, 0.66857, -0.31419, -0.36636, 3.10564
21.340, -0.38051, 0.66947, -0.31099, -0.36889, 3.11058
21.360, -0.38051, 0.67029, -0.30807, -0.37117, 3.11504
21.380, -0.38051, 0.67102, -0.30543, -0.37322, 3.11906
21.400, -0.38051, 0.67167, -0.30307, -0.37504, 3.12264
21.420, -0.38051, 0.67225, -0.30098, -0.37665, 3.12583
21.440, -0.38051, 0.67276, -0.29913, -0.37807, 3.12864
21.460, -0.38051, 0.67321, -0.29753, -0.37930, 3.13109
21.480, -0.38051, 0.67359, -0.29614, -0.38037, 3.13321
21.500, -0.38051, 0.67393, -0.29495, -0.38127, 3.13502
21.520, -0.38051, 0.67420, -0.29395, -0.38203, 3.13656
21.540, -0.38051, 0.67444, -0.29312, -0.38265, 3.13783
21.560, -0.38051, 0.67462, -0.29245, -0.38316, 3.13887
21.580, -0.38051, 0.67478, -0.29191, -0.38355, 3.13969
21.600, -0.38051, 0.67489, -0.29150, -0.38386, 3.14033
21.620, -0.38051, 0.67498, -0.29120, -0.38408, 3.14081
21.640, -0.38051, 0.67504, -0.29098, -0.38423, 3.14115
21.660, -0.38051, 0.67508, -0.29084, -0.38433, 3.14137
21.680, -0.38051, 0.67510, -0.29076, -0.38438, 3.14150
21.700, -0.38051, 0.67512, -0.29072, -0.38440, 3.14157
21.720, -0.38051, 0.67512, -0.29071, -0.38441, 3.14159
21.740, -0.38051, 0.67512, -0.29071, -0.38441, 3.14159
21.760, -0.38051, 0.67512, -0.29071, -0.38441, 3.14159
21.780, -0.38051, 0.67512, -0.29071, -0.38441, 3.14159
21.800, -0.38051, 0.67512, -0.29071, -0.38441, 3.14159
21.820, -0.38051, 0.67512, -0.29071, -0.38441, 3.14159
21.840, -0.38051, 0.67512, -0.29071, -0.38441, 3.14159
21.860, -0.38051, 0.67512, -0.29071, -0.38441, 3.14159
21.880, -0.38051, 0.67512, -0.29071, -0.38441, 3.14159
21.900, -0.38051, 0.67512, -0.29071, -0.38441, 3.14159
21.920, -0.38051, 0.67512, -0.29071, -0.38441, 3.14160
21.940, -0.38051, 0.67512, -0.29071, -0.38441, 3.14160
21.960, -0.38051, 0.67512, -0.29071, -0.38441, 3.14160
21.980, -0.38051, 0.67512, -0.29071, -0.38441, 3.14160
22.000, -0.38051, 0.67512, -0.29071, -0.38441, 3.14160
22.020, -0.38051, 0.67512, -0.29071, -0.38441, 3.14160
22.040, -0.38051, 0.67512, -0.29071, -0.38441, 3.14160
22.060, -0.38051, 0.67512, -0.29071, -0.38441, 3.14160
22.080, -0.38051, 0.67512, -0.29071, -0.38441, 3.14160
22.100, -0.38051, 0.67512, -0.29071, -0.38440, 3.14160
22.120, -0.38051, 0.67512, -0.29071, -0.38440, 3.14160
22.140, -0.38051, 0.67512, -0.29071, -0.38440, 3.14160
22.160, -0.38051, 0.67512, -0.29071, -0.38440, 3.14160
22.180, -0.38051, 0.67512, -0.29071, -0.38440, 3.14160
22.200, -0.38051, 0.67512, -0.29071, -0.38440, 3.14160
22.220, -0.38051, 0.67512, -0.29071, -0.38440, 3.14160
22.240, -0.38051, 0.67512, -0.29071, -0.38440, 3.14160
22.260, -0.38051, 0.67512, -0.29071, -0.38440, 3.14160
22.280, -0.38051, 0.67512, -0.29071, -0.38440, 3.14160
22.300, -0.38051, 0.67512, -0.29071, -0.38440, 3.14160
22.320, -0.38051, 0.67512, -0.29071, -0.38440, 3.14160
22.340, -0.38051, 0.67512, -0.29071, -0.38440, 3.14160
22.360, -0.38051, 0.67512, -0.29071, -0.38440, 3.14160
22.380, -0.38051, 0.67512, -0.29071, -0.38440, 3.14160
22.400, -0.38051, 0.67512, -0.29071, -0.38440, 3.14160
22.420, -0.38051, 0.67512, -0.29071, -0.38440, 3.14160
22.440, -0.38051, 0.67512, -0.29071, -0.38440, 3.14160
22.460, -0.38051, 0.67512, -0.29071, -0.38441, 3.14160
22.480, -0.38051, 0.67512, -0.29071, -0.38441, 3.14160
22.500, -0.38051, 0.67512, -0.29071, -0.38441, 3.14160
22.520, -0.38051, 0.67512, -0.29071, -0.38441, 3.14160
22.540, -0.38051, 0.67512, -0.29071, -0.38441, 3.14160
22.560, -0.38051, 0.67512, -0.29071, -0.38441, 3.14160
22.580, -0.38051, 0.67512, -0.29071, -0.38441, 3.14160
22.600, -0.38051, 0.67512, -0.29071, -0.38441, 3.14160
22.620, -0.38051, 0.67512, -0.29071, -0.38441, 3.14160
22.640, -0.38051, 0.67512, -0.29071, -0.38441, 3.14159
22.660, -0.38051, 0.67512, -0.29071, -0.38441, 3.14159
22.680, -0.38051, 0.67512, -0.29071, -0.38441, 3.14159
22.700, -0.38051, 0.67512, -0.29071, -0.38441, 3.14159
22.720, -0.38051, 0.67512, -0.29071, -0.38441, 3.14159
22.740, -0.38051, 0.67512, -0.29071, -0.38441, 3.14159
22.760, -0.38051, 0.67513, -0.29072, -0.38442, 3.14157
22.780, -0.38050, 0.67518, -0.29076, -0.38443, 3.14150
22.800, -0.38049, 0.67526, -0.29084, -0.38445, 3.14137
22.820, -0.38048, 0.67541, -0.29097, -0.38448, 3.14116
22.840, -0.38046, 0.67563, -0.29117, -0.38453, 3.14083
22.860, -0.38043, 0.67594, -0.29145, -0.38460, 3.14037
22.880, -0.38038, 0.67636, -0.29184, -0.38469, 3.13975
22.900, -0.38033, 0.67690, -0.29233, -0.38480, 3.13896
22.920, -0.38026, 0.67759, -0.29295, -0.38494, 3.13797
22.940, -0.38018, 0.67843, -0.29371, -0.38511, 3.13675
22.960, -0.38008, 0.67944, -0.29463, -0.38532, 3.13529
22.980, -0.37997, 0.68065, -0.29572, -0.38556, 3.13356
23.000, -0.37984, 0.68205, -0.29700, -0.38584, 3.13154
23.020, -0.37968, 0.68367, -0.29847, -0.38617, 3.12921
23.040, -0.37950, 0.68554, -0.30016, -0.38654, 3.12654
23.060, -0.37930, 0.68765, -0.30207, -0.38695, 3.12351
23.080, -0.37908, 0.69003, -0.30423, -0.38742, 3.12010
23.100, -0.37883, 0.69269, -0.30664, -0.38795, 3.11629
23.120, -0.37855, 0.69563, -0.30932, -0.38853, 3.11205
23.140, -0.37824, 0.69885, -0.31226, -0.38917, 3.10736
23.160, -0.37790, 0.70235, -0.31546, -0.38988, 3.10220
23.180, -0.37753, 0.70613, -0.31892, -0.39065, 3.09655
23.200, -0.37713, 0.71019, -0.32265, -0.39149, 3.09038
23.220, -0.37669, 0.71453, -0.32663, -0.39240, 3.08368
23.240, -0.37622, 0.71915, -0.33088, -0.39339, 3.07644
23.260, -0.37572, 0.72404, -0.33539, -0.39445, 3.06866
23.280, -0.37519, 0.72918, -0.34015, -0.39560, 3.06035
23.300, -0.37462, 0.73455, -0.34514, -0.39683, 3.05149
23.320, -0.37403, 0.74015, -0.35035, -0.39815, 3.04210
23.340, -0.37340, 0.74594, -0.35577, -0.39956, 3.03217
23.360, -0.37273, 0.75193, -0.36138, -0.40106, 3.02172
23.380, -0.37204, 0.75809, -0.36716, -0.40266, 3.01075
23.400, -0.37131, 0.76440, -0.37311, -0.40436, 2.99931
23.420, -0.37055, 0.77086, -0.37920, -0.40616, 2.98740
23.440, -0.36976, 0.77744, -0.38543, -0.40806, 2.97505
23.460, -0.36893, 0.78413, -0.39177, -0.41008, 2.96229
23.480, -0.36808, 0.79090, -0.39822, -0.41220, 2.94913
23.500, -0.36719, 0.79776, -0.40476, -0.41444, 2.93560
23.520, -0.36626, 0.80467, -0.41137, -0.41679, 2.92173
23.540, -0.36531, 0.81163, -0.41805, -0.41927, 2.90753
23.560, -0.36432, 0.81862, -0.42477, -0.42187, 2.89302
23.580, -0.36330, 0.82562, -0.43152, -0.42459, 2.87823
23.600, -0.36225, 0.83262, -0.43829, -0.42744, 2.86319
23.620, -0.36117, 0.83962, -0.44506, -0.43043, 2.84791
23.640, -0.36005, 0.84662, -0.45183, -0.43355, 2.83242
23.660, -0.35890, 0.85362, -0.45860, -0.43680, 2.81673
23.680, -0.35772, 0.86062, -0.46537, -0.44020, 2.80088
23.700, -0.35651, 0.86762, -0.47215, -0.44374, 2.78489
23.720, -0.35526, 0.87462, -0.47892, -0.44741, 2.76877
23.740, -0.35398, 0.88162, -0.48569, -0.45123, 2.75255
23.760, -0.35267, 0.88862, -0.49246, -0.45518, 2.73625
23.780, -0.35133, 0.89562, -0.49923, -0.45928, 2.71990
23.800, -0.34995, 0.90262, -0.50601, -0.46351, 2.70351
23.820, -0.34854, 0.90962, -0.51278, -0.46788, 2.68712
23.840, -0.34710, 0.91662, -0.51955, -0.47240, 2.67072
23.860, -0.34563, 0.92362, -0.52632, -0.47705, 2.65433
23.880, -0.34412, 0.93062, -0.53309, -0.48184, 2.63793
23.900, -0.34259, 0.93762, -0.53987, -0.48677, 2.62154
23.920, -0.34102, 0.94462, -0.54664, -0.49184, 2.60514
23.940, -0.33941, 0.95162, -0.55341, -0.49705, 2.58875
23.960, -0.33778, 0.95862, -0.56018, -0.50239, 2.57235
23.980, -0.33611, 0.96562, -0.56695, -0.50787, 2.55596
24.000, -0.33441, 0.97262, -0.57373, -0.51348, 2.53956
24.020, -0.33268, 0.97962, -0.58050, -0.51921, 2.52317
24.040, -0.33091, 0.98662, -0.58727, -0.52507, 2.50677
24.060, -0.32912, 0.99362, -0.59404, -0.53104, 2.49038
24.080, -0.32729, 1.00062, -0.60081, -0.53714, 2.47398
24.100, -0.32542, 1.00762, -0.60758, -0.54334, 2.45759
24.120, -0.32353, 1.01462, -0.61436, -0.54966, 2.44119
24.140, -0.32160, 1.02162, -0.62113, -0.55609, 2.42480
24.160, -0.31964, 1.02862, -0.62790, -0.56263, 2.40840
24.180, -0.31765, 1.03562, -0.63467, -0.56926, 2.39201
24.200, -0.31563, 1.04262, -0.64144, -0.57600, 2.37561
24.220, -0.31357, 1.04962, -0.64822, -0.58283, 2.35922
24.240, -0.31148, 1.05662, -0.65499, -0.58976, 2.34282
24.260, -0.30936, 1.06362, -0.66176, -0.59678, 2.32643
24.280, -0.30721, 1.07062, -0.66853, -0.60388, 2.31003
24.300, -0.30502, 1.07762, -0.67530, -0.61107, 2.29364
24.320, -0.30280, 1.08462, -0.68208, -0.61834, 2.27724
24.340, -0.30055, 1.09162, -0.68885, -0.62569, 2.26085
24.360, -0.29827, 1.09862, -0.69562, -0.63312, 2.24445
24.380, -0.29595, 1.10562, -0.70239, -0.64061, 2.22806
24.400, -0.29360, 1.11262, -0.70916, -0.64818, 2.21166
24.420, -0.29122, 1.11962, -0.71594, -0.65582, 2.19527
24.440, -0.28881, 1.12662, -0.72271, -0.66352, 2.17887
24.460, -0.28637, 1.13362, -0.72948, -0.67128, 2.16248
24.480, -0.28391, 1.14062, -0.73625, -0.67909, 2.14608
24.500, -0.28142, 1.14762, -0.74302, -0.68697, 2.12969
24.520, -0.27891, 1.15462, -0.74979, -0.69489, 2.11329
24.540, -0.27637, 1.16162, -0.75657, -0.70286, 2.09689
24.560, -0.27381, 1.16862, -0.76334, -0.71088, 2.08050
24.580, -0.27123, 1.17562, -0.77011, -0.71894, 2.06410
24.600, -0.26864, 1.18262, -0.77688, -0.72705, 2.04771
24.620, -0.26602, 1.18962, -0.78365, -0.73519, 2.03131
24.640, -0.26340, 1.19662, -0.79043, -0.74336, 2.01492
24.660, -0.26075, 1.20362, -0.79720, -0.75156, 1.99852
24.680, -0.25810, 1.21062, -0.80397, -0.75980, 1.98213
24.700, -0.25543, 1.21762, -0.81074, -0.76805, 1.96573
24.720, -0.25276, 1.22462, -0.81751, -0.77633, 1.94934
24.740, -0.25008, 1.23162, -0.82429, -0.78463, 1.93294
24.760, -0.24739, 1.23862, -0.83106, -0.79294, 1.91655
24.780, -0.24469, 1.24562, -0.83783, -0.80127, 1.90015
24.800, -0.24200, 1.25262, -0.84460, -0.80961, 1.88376
24.820, -0.23930, 1.25962, -0.85137, -0.81796, 1.86736
24.840, -0.23660, 1.26662, -0.85814, -0.82630, 1.85097
24.860, -0.23389, 1.27362, -0.86492, -0.83466, 1.83457
24.880, -0.23119, 1.28062, -0.87169, -0.84301, 1.81818
24.900, -0.22849, 1.28762, -0.87846, -0.85136, 1.80178
24.920, -0.22579, 1.29462, -0.88523, -0.85971, 1.78539
24.940, -0.22309, 1.30162, -0.89200, -0.86806, 1.76899
24.960, -0.22039, 1.30862, -0.89878, -0.87641, 1.75260
24.980, -0.21769, 1.31562, -0.90555, -0.88476, 1.73620
25.000, -0.21499, 1.32262, -0.91232, -0.89311, 1.71981
25.020, -0.21229, 1.32962, -0.91909, -0.90146, 1.70341
25.040, -0.20959, 1.33662, -0.92586, -0.90981, 1.68702
25.060, -0.20689, 1.34362, -0.93264, -0.91816, 1.67062
25.080, -0.20419, 1.35062, -0.93941, -0.92651, 1.65423
25.100, -0.20149, 1.35762, -0.94618, -0.93486, 1.63783
25.120, -0.19879, 1.36462, -0.95295, -0.94321, 1.62144
25.140, -0.19609, 1.37162, -0.95972, -0.95156, 1.60504
25.160, -0.19339, 1.37862, -0.96650, -0.95991, 1.58865
25.180, -0.19069, 1.38562, -0.97327, -0.96826, 1.57225
25.200, -0.18798, 1.39262, -0.98004, -0.97661, 1.55586
25.220, -0.18528, 1.39962, -0.98681, -0.98496, 1.53946
25.240, -0.18258, 1.40662, -0.99358, -0.99331, 1.52307
25.260, -0.17988, 1.41362, -1.00035, -1.00166, 1.50667
25.280, -0.17718, 1.42062, -1.00713, -1.01001, 1.49028
25.300, -0.17448, 1.42762, -1.01390, -1.01836, 1.47388
25.320, -0.17178, 1.43462, -1.02067, -1.02671, 1.45749
25.340, -0.16908, 1.44162, -1.02744, -1.03506, 1.44109
25.360, -0.16638, 1.44862, -1.03421, -1.04341, 1.42470
25.380, -0.16368, 1.45562, -1.04099, -1.05176, 1.40830
25.400, -0.16098, 1.46262, -1.04776, -1.06011, 1.39191
25.420, -0.15828, 1.46962, -1.05453, -1.06846, 1.37551
25.440, -0.15558, 1.47662, -1.06130, -1.07681, 1.35911
25.460, -0.15288, 1.48362, -1.06807, -1.08516, 1.34272
25.480, -0.15018, 1.49062, -1.07485, -1.09351, 1.32632
25.500, -0.14748, 1.49762, -1.08162, -1.10186, 1.30993
25.520, -0.14477, 1.50462, -1.08839, -1.11022, 1.29353
25.540, -0.14207, 1.51162, -1.09516, -1.11856, 1.27714
25.560, -0.13937, 1.51862, -1.10193, -1.12691, 1.26074
25.580, -0.13668, 1.52562, -1.10870, -1.13524, 1.24435
25.600, -0.13398, 1.53262, -1.11548, -1.14357, 1.22795
25.620, -0.13129, 1.53962, -1.12225, -1.15188, 1.21156
25.640, -0.12860, 1.54662, -1.12902, -1.16017, 1.19516
25.660, -0.12593, 1.55362, -1.13579, -1.16845, 1.17877
25.680, -0.12326, 1.56062, -1.14256, -1.17670, 1.16237
25.700, -0.12060, 1.56762, -1.14934, -1.18492, 1.14598
25.720, -0.11795, 1.57462, -1.15611, -1.19312, 1.12958
25.740, -0.11532, 1.58162, -1.16288, -1.20128, 1.11319
25.760, -0.11270, 1.58862, -1.16965, -1.20941, 1.09679
25.780, -0.11010, 1.59562, -1.17642, -1.21750, 1.08040
25.800, -0.10752, 1.60262, -1.18320, -1.22556, 1.06400
25.820, -0.10495, 1.60962, -1.18997, -1.23356, 1.04761
25.840, -0.10241, 1.61662, -1.19674, -1.24152, 1.03121
25.860, -0.09989, 1.62362, -1.20351, -1.24943, 1.01482
25.880, -0.09739, 1.63062, -1.21028, -1.25729, 0.99842
25.900, -0.09492, 1.63762, -1.21706, -1.26510, 0.98203
25.920, -0.09247, 1.64462, -1.22383, -1.27284, 0.96563
25.940, -0.09005, 1.65162, -1.23060, -1.28052, 0.94924
25.960, -0.08766, 1.65862, -1.23737, -1.28814, 0.93284
25.980, -0.08530, 1.66562, -1.24414, -1.29569, 0.91645
26.000, -0.08298, 1.67262, -1.25091, -1.30317, 0.90005
26.020, -0.08068, 1.67962, -1.25769, -1.31058, 0.88366
26.040, -0.07842, 1.68662, -1.26446, -1.31791, 0.86726
26.060, -0.07619, 1.69362, -1.27123, -1.32516, 0.85087
26.080, -0.07400, 1.70062, -1.27800, -1.33232, 0.83447
26.100, -0.07183, 1.70762, -1.28477, -1.33941, 0.81808
26.120, -0.06970, 1.71462, -1.29155, -1.34640, 0.80168
26.140, -0.06760, 1.72162, -1.29832, -1.35330, 0.78529
26.160, -0.06554, 1.72862, -1.30509, -1.36011, 0.76889
26.180, -0.06350, 1.73562, -1.31186, -1.36682, 0.75250
26.200, -0.06150, 1.74262, -1.31863, -1.37343, 0.73610
26.220, -0.05953, 1.74962, -1.32541, -1.37994, 0.71971
26.240, -0.05759, 1.75662, -1.33218, -1.38634, 0.70331
26.260, -0.05569, 1.76362, -1.33895, -1.39263, 0.68692
26.280, -0.05381, 1.77062, -1.34572, -1.39881, 0.67052
26.300, -0.05197, 1.77762, -1.35249, -1.40487, 0.65413
26.320, -0.05017, 1.78462, -1.35926, -1.41082, 0.63773
26.340, -0.04839, 1.79162, -1.36604, -1.41664, 0.62133
26.360, -0.04665, 1.79862, -1.37281, -1.42234, 0.60494
26.380, -0.04494, 1.80562, -1.37958, -1.42791, 0.58854
26.400, -0.04326, 1.81262, -1.38635, -1.43336, 0.57215
26.420, -0.04161, 1.81962, -1.39312, -1.43867, 0.55575
26.440, -0.04000, 1.82662, -1.39990, -1.44384, 0.53936
26.460, -0.03842, 1.83362, -1.40667, -1.44887, 0.52296
26.480, -0.03687, 1.84062, -1.41344, -1.45377, 0.50657
26.500, -0.03536, 1.84762, -1.42021, -1.45852, 0.49017
26.520, -0.03387, 1.85462, -1.42698, -1.46314, 0.47378
26.540, -0.03242, 1.86162, -1.43376, -1.46762, 0.45738
26.560, -0.03100, 1.86862, -1.44053, -1.47195, 0.44099
26.580, -0.02962, 1.87562, -1.44730, -1.47615, 0.42460
26.600, -0.02826, 1.88262, -1.45407, -1.48021, 0.40824
26.620, -0.02694, 1.88962, -1.46084, -1.48413, 0.39193
26.640, -0.02565, 1.89662, -1.46762, -1.48791, 0.37570
26.660, -0.02440, 1.90362, -1.47439, -1.49155, 0.35956
26.680, -0.02317, 1.91062, -1.48116, -1.49505, 0.34354
26.700, -0.02198, 1.91762, -1.48793, -1.49841, 0.32766
26.720, -0.02082, 1.92462, -1.49470, -1.50163, 0.31195
26.740, -0.01969, 1.93162, -1.50147, -1.50471, 0.29642
26.760, -0.01860, 1.93862, -1.50825, -1.50766, 0.28110
26.780, -0.01754, 1.94562, -1.51502, -1.51048, 0.26601
26.800, -0.01651, 1.95262, -1.52178, -1.51317, 0.25118
26.820, -0.01551, 1.95961, -1.52851, -1.51574, 0.23662
26.840, -0.01455, 1.96659, -1.53520, -1.51818, 0.22236
26.860, -0.01361, 1.97352, -1.54184, -1.52050, 0.20843
26.880, -0.01271, 1.98041, -1.54841, -1.52271, 0.19484
26.900, -0.01185, 1.98722, -1.55490, -1.52481, 0.18161
26.920, -0.01101, 1.99395, -1.56128, -1.52679, 0.16878
26.940, -0.01021, 2.00058, -1.56756, -1.52867, 0.15635
26.960, -0.00944, 2.00710, -1.57370, -1.53044, 0.14437
26.980, -0.00870, 2.01347, -1.57971, -1.53211, 0.13284
27.000, -0.00799, 2.01971, -1.58556, -1.53369, 0.12178
27.020, -0.00732, 2.02577, -1.59123, -1.53516, 0.11124
27.040, -0.00668, 2.03166, -1.59673, -1.53655, 0.10121
27.060, -0.00607, 2.03734, -1.60202, -1.53784, 0.09173
27.080, -0.00550, 2.04282, -1.60710, -1.53905, 0.08278
27.100, -0.00495, 2.04807, -1.61195, -1.54018, 0.07437
27.120, -0.00444, 2.05307, -1.61655, -1.54123, 0.06649
27.140, -0.00396, 2.05781, -1.62090, -1.54219, 0.05916
27.160, -0.00352, 2.06227, -1.62499, -1.54309, 0.05236
27.180, -0.00310, 2.06646, -1.62882, -1.54391, 0.04610
27.200, -0.00272, 2.07036, -1.63238, -1.54466, 0.04035
27.220, -0.00237, 2.07399, -1.63568, -1.54535, 0.03511
27.240, -0.00205, 2.07733, -1.63872, -1.54598, 0.03034
27.260, -0.00177, 2.08040, -1.64150, -1.54654, 0.02602
27.280, -0.00151, 2.08319, -1.64401, -1.54705, 0.02214
27.300, -0.00127, 2.08569, -1.64627, -1.54751, 0.01866
27.320, -0.00107, 2.08792, -1.64828, -1.54791, 0.01557
27.340, -0.00088, 2.08989, -1.65005, -1.54827, 0.01283
27.360, -0.00072, 2.09162, -1.65160, -1.54858, 0.01044
27.380, -0.00058, 2.09312, -1.65295, -1.54885, 0.00837
27.400, -0.00046, 2.09441, -1.65411, -1.54909, 0.00659
27.420, -0.00036, 2.09551, -1.65509, -1.54928, 0.00508
27.440, -0.00027, 2.09642, -1.65591, -1.54945, 0.00382
27.460, -0.00020, 2.09718, -1.65659, -1.54958, 0.00279
27.480, -0.00014, 2.09778, -1.65713, -1.54969, 0.00196
27.500, -0.00010, 2.09826, -1.65755, -1.54977, 0.00132
27.520, -0.00006, 2.09862, -1.65787, -1.54983, 0.00083
27.540, -0.00004, 2.09888, -1.65810, -1.54988, 0.00048
27.560, -0.00002, 2.09905, -1.65826, -1.54991, 0.00025
27.580, -0.00001, 2.09916, -1.65836, -1.54993, 0.00011
27.600, -0.00000, 2.09922, -1.65841, -1.54994, 0.00003
27.620, -0.00000, 2.09925, -1.65843, -1.54994, 0.00000
27.640, -0.00000, 2.09925, -1.65843, -1.54994, 0.00000
