kutzer/Scor6AxisToolbox/Scor6AxisToolbox Test Functions/ScorBotBoxData_sCurve/BSEPR_Position_100Hz.csv
Time_(s), Base_Joint_Position_(rad), Shoulder_Joint_Position_(rad), Elbow_Joint_Position_(rad), Wrist_Pitch_Joint_Position_(rad), Wrist_Roll_Joint_Position_(rad)
0.000, 0.00000, 2.09925, -1.65843, -1.54994, 0.00000
0.010, -0.00000, 2.09925, -1.65843, -1.54994, -0.00000
0.020, -0.00000, 2.09924, -1.65843, -1.54994, -0.00001
0.030, -0.00000, 2.09924, -1.65842, -1.54993, -0.00002
0.040, -0.00000, 2.09922, -1.65840, -1.54993, -0.00005
0.050, -0.00001, 2.09919, -1.65838, -1.54992, -0.00009
0.060, -0.00001, 2.09916, -1.65835, -1.54991, -0.00014
0.070, -0.00002, 2.09911, -1.65830, -1.54990, -0.00022
0.080, -0.00002, 2.09905, -1.65824, -1.54989, -0.00031
0.090, -0.00003, 2.09897, -1.65817, -1.54987, -0.00043
0.100, -0.00004, 2.09886, -1.65808, -1.54985, -0.00058
0.110, -0.00005, 2.09874, -1.65797, -1.54982, -0.00076
0.120, -0.00007, 2.09860, -1.65784, -1.54979, -0.00097
0.130, -0.00008, 2.09843, -1.65769, -1.54975, -0.00122
0.140, -0.00010, 2.09824, -1.65751, -1.54971, -0.00151
0.150, -0.00013, 2.09801, -1.65730, -1.54966, -0.00184
0.160, -0.00015, 2.09775, -1.65707, -1.54961, -0.00221
0.170, -0.00018, 2.09747, -1.65681, -1.54955, -0.00263
0.180, -0.00021, 2.09714, -1.65652, -1.54948, -0.00310
0.190, -0.00025, 2.09678, -1.65619, -1.54941, -0.00362
0.200, -0.00029, 2.09638, -1.65583, -1.54933, -0.00420
0.210, -0.00033, 2.09594, -1.65543, -1.54924, -0.00484
0.220, -0.00037, 2.09545, -1.65499, -1.54914, -0.00554
0.230, -0.00043, 2.09493, -1.65451, -1.54903, -0.00630
0.240, -0.00048, 2.09435, -1.65398, -1.54891, -0.00713
0.250, -0.00054, 2.09372, -1.65342, -1.54879, -0.00803
0.260, -0.00060, 2.09305, -1.65281, -1.54865, -0.00900
0.270, -0.00067, 2.09232, -1.65214, -1.54851, -0.01005
0.280, -0.00075, 2.09154, -1.65143, -1.54835, -0.01118
0.290, -0.00083, 2.09070, -1.65067, -1.54818, -0.01238
0.300, -0.00091, 2.08980, -1.64986, -1.54800, -0.01368
0.310, -0.00101, 2.08883, -1.64898, -1.54781, -0.01505
0.320, -0.00110, 2.08781, -1.64806, -1.54761, -0.01652
0.330, -0.00121, 2.08672, -1.64707, -1.54740, -0.01808
0.340, -0.00131, 2.08556, -1.64602, -1.54717, -0.01974
0.350, -0.00143, 2.08434, -1.64491, -1.54693, -0.02149
0.360, -0.00155, 2.08305, -1.64374, -1.54667, -0.02335
0.370, -0.00168, 2.08168, -1.64250, -1.54640, -0.02530
0.380, -0.00182, 2.08024, -1.64119, -1.54612, -0.02737
0.390, -0.00196, 2.07874, -1.63982, -1.54582, -0.02954
0.400, -0.00211, 2.07716, -1.63838, -1.54551, -0.03183
0.410, -0.00227, 2.07552, -1.63688, -1.54518, -0.03423
0.420, -0.00243, 2.07381, -1.63531, -1.54483, -0.03675
0.430, -0.00261, 2.07202, -1.63368, -1.54447, -0.03939
0.440, -0.00279, 2.07016, -1.63198, -1.54410, -0.04215
0.450, -0.00298, 2.06824, -1.63022, -1.54370, -0.04504
0.460, -0.00318, 2.06624, -1.62839, -1.54329, -0.04806
0.470, -0.00338, 2.06418, -1.62649, -1.54286, -0.05121
0.480, -0.00360, 2.06205, -1.62453, -1.54242, -0.05449
0.490, -0.00382, 2.05984, -1.62251, -1.54195, -0.05791
0.500, -0.00405, 2.05756, -1.62042, -1.54147, -0.06146
0.510, -0.00429, 2.05522, -1.61826, -1.54096, -0.06515
0.520, -0.00453, 2.05281, -1.61604, -1.54044, -0.06897
0.530, -0.00479, 2.05033, -1.61375, -1.53990, -0.07293
0.540, -0.00505, 2.04780, -1.61140, -1.53933, -0.07702
0.550, -0.00532, 2.04519, -1.60899, -1.53875, -0.08124
0.560, -0.00560, 2.04254, -1.60652, -1.53814, -0.08560
0.570, -0.00589, 2.03982, -1.60400, -1.53752, -0.09010
0.580, -0.00618, 2.03705, -1.60142, -1.53687, -0.09473
0.590, -0.00648, 2.03422, -1.59879, -1.53620, -0.09949
0.600, -0.00679, 2.03135, -1.59610, -1.53550, -0.10438
0.610, -0.00711, 2.02843, -1.59337, -1.53479, -0.10942
0.620, -0.00744, 2.02545, -1.59059, -1.53405, -0.11458
0.630, -0.00778, 2.02244, -1.58776, -1.53329, -0.11987
0.640, -0.00812, 2.01938, -1.58489, -1.53250, -0.12529
0.650, -0.00847, 2.01628, -1.58198, -1.53169, -0.13084
0.660, -0.00883, 2.01314, -1.57902, -1.53085, -0.13650
0.670, -0.00920, 2.00997, -1.57603, -1.52999, -0.14228
0.680, -0.00958, 2.00675, -1.57300, -1.52910, -0.14818
0.690, -0.00996, 2.00351, -1.56994, -1.52819, -0.15419
0.700, -0.01035, 2.00024, -1.56684, -1.52725, -0.16031
0.710, -0.01075, 1.99693, -1.56371, -1.52629, -0.16654
0.720, -0.01116, 1.99360, -1.56055, -1.52529, -0.17287
0.730, -0.01158, 1.99024, -1.55737, -1.52427, -0.17930
0.740, -0.01200, 1.98686, -1.55415, -1.52323, -0.18583
0.750, -0.01243, 1.98347, -1.55092, -1.52215, -0.19246
0.760, -0.01287, 1.98005, -1.54766, -1.52104, -0.19918
0.770, -0.01332, 1.97661, -1.54438, -1.51991, -0.20599
0.780, -0.01378, 1.97316, -1.54108, -1.51875, -0.21288
0.790, -0.01425, 1.96970, -1.53777, -1.51756, -0.21986
0.800, -0.01472, 1.96622, -1.53444, -1.51633, -0.22692
0.810, -0.01520, 1.96274, -1.53109, -1.51508, -0.23406
0.820, -0.01569, 1.95925, -1.52774, -1.51380, -0.24128
0.830, -0.01619, 1.95575, -1.52437, -1.51248, -0.24857
0.840, -0.01669, 1.95225, -1.52100, -1.51114, -0.25593
0.850, -0.01721, 1.94875, -1.51762, -1.50976, -0.26336
0.860, -0.01773, 1.94525, -1.51424, -1.50835, -0.27085
0.870, -0.01826, 1.94175, -1.51085, -1.50691, -0.27840
0.880, -0.01880, 1.93825, -1.50747, -1.50543, -0.28601
0.890, -0.01934, 1.93475, -1.50408, -1.50392, -0.29368
0.900, -0.01990, 1.93125, -1.50069, -1.50238, -0.30140
0.910, -0.02046, 1.92775, -1.49731, -1.50080, -0.30917
0.920, -0.02103, 1.92425, -1.49392, -1.49919, -0.31699
0.930, -0.02161, 1.92075, -1.49054, -1.49755, -0.32486
0.940, -0.02219, 1.91725, -1.48715, -1.49587, -0.33276
0.950, -0.02279, 1.91375, -1.48377, -1.49415, -0.34071
0.960, -0.02339, 1.91025, -1.48038, -1.49240, -0.34869
0.970, -0.02400, 1.90675, -1.47699, -1.49061, -0.35670
0.980, -0.02462, 1.90325, -1.47361, -1.48879, -0.36475
0.990, -0.02525, 1.89975, -1.47022, -1.48694, -0.37282
1.000, -0.02588, 1.89625, -1.46684, -1.48505, -0.38092
1.010, -0.02653, 1.89275, -1.46345, -1.48312, -0.38904
1.020, -0.02718, 1.88925, -1.46006, -1.48116, -0.39718
1.030, -0.02784, 1.88575, -1.45668, -1.47917, -0.40534
1.040, -0.02851, 1.88225, -1.45329, -1.47714, -0.41351
1.050, -0.02918, 1.87875, -1.44991, -1.47507, -0.42169
1.060, -0.02987, 1.87525, -1.44652, -1.47297, -0.42988
1.070, -0.03056, 1.87175, -1.44313, -1.47084, -0.43808
1.080, -0.03126, 1.86825, -1.43975, -1.46867, -0.44627
1.090, -0.03197, 1.86475, -1.43636, -1.46647, -0.45447
1.100, -0.03268, 1.86125, -1.43298, -1.46423, -0.46267
1.110, -0.03341, 1.85775, -1.42959, -1.46195, -0.47087
1.120, -0.03414, 1.85425, -1.42620, -1.45964, -0.47906
1.130, -0.03488, 1.85075, -1.42282, -1.45730, -0.48726
1.140, -0.03563, 1.84725, -1.41943, -1.45492, -0.49546
1.150, -0.03639, 1.84375, -1.41605, -1.45251, -0.50366
1.160, -0.03715, 1.84025, -1.41266, -1.45006, -0.51185
1.170, -0.03792, 1.83675, -1.40927, -1.44758, -0.52005
1.180, -0.03871, 1.83325, -1.40589, -1.44506, -0.52825
1.190, -0.03949, 1.82975, -1.40250, -1.44251, -0.53645
1.200, -0.04029, 1.82625, -1.39912, -1.43992, -0.54464
1.210, -0.04110, 1.82275, -1.39573, -1.43730, -0.55284
1.220, -0.04191, 1.81925, -1.39234, -1.43464, -0.56104
1.230, -0.04273, 1.81575, -1.38896, -1.43196, -0.56924
1.240, -0.04356, 1.81225, -1.38557, -1.42923, -0.57743
1.250, -0.04440, 1.80875, -1.38219, -1.42648, -0.58563
1.260, -0.04525, 1.80525, -1.37880, -1.42369, -0.59383
1.270, -0.04610, 1.80175, -1.37541, -1.42087, -0.60203
1.280, -0.04696, 1.79825, -1.37203, -1.41802, -0.61022
1.290, -0.04783, 1.79475, -1.36864, -1.41514, -0.61842
1.300, -0.04871, 1.79125, -1.36526, -1.41223, -0.62662
1.310, -0.04960, 1.78775, -1.36187, -1.40928, -0.63482
1.320, -0.05049, 1.78425, -1.35848, -1.40631, -0.64301
1.330, -0.05139, 1.78075, -1.35510, -1.40331, -0.65121
1.340, -0.05231, 1.77725, -1.35171, -1.40028, -0.65941
1.350, -0.05322, 1.77375, -1.34833, -1.39721, -0.66761
1.360, -0.05415, 1.77025, -1.34494, -1.39412, -0.67581
1.370, -0.05509, 1.76675, -1.34156, -1.39101, -0.68400
1.380, -0.05603, 1.76325, -1.33817, -1.38786, -0.69220
1.390, -0.05698, 1.75975, -1.33478, -1.38469, -0.70040
1.400, -0.05794, 1.75625, -1.33140, -1.38148, -0.70860
1.410, -0.05891, 1.75275, -1.32801, -1.37826, -0.71679
1.420, -0.05988, 1.74925, -1.32463, -1.37500, -0.72499
1.430, -0.06087, 1.74575, -1.32124, -1.37172, -0.73319
1.440, -0.06186, 1.74225, -1.31785, -1.36842, -0.74139
1.450, -0.06286, 1.73875, -1.31447, -1.36509, -0.74958
1.460, -0.06387, 1.73525, -1.31108, -1.36173, -0.75778
1.470, -0.06488, 1.73175, -1.30770, -1.35835, -0.76598
1.480, -0.06591, 1.72825, -1.30431, -1.35495, -0.77418
1.490, -0.06694, 1.72475, -1.30092, -1.35152, -0.78237
1.500, -0.06798, 1.72125, -1.29754, -1.34807, -0.79057
1.510, -0.06903, 1.71775, -1.29415, -1.34459, -0.79877
1.520, -0.07009, 1.71425, -1.29077, -1.34109, -0.80697
1.530, -0.07115, 1.71075, -1.28738, -1.33757, -0.81516
1.540, -0.07222, 1.70725, -1.28399, -1.33403, -0.82336
1.550, -0.07330, 1.70375, -1.28061, -1.33047, -0.83156
1.560, -0.07439, 1.70025, -1.27722, -1.32689, -0.83976
1.570, -0.07549, 1.69675, -1.27384, -1.32328, -0.84795
1.580, -0.07660, 1.69325, -1.27045, -1.31965, -0.85615
1.590, -0.07771, 1.68975, -1.26706, -1.31601, -0.86435
1.600, -0.07883, 1.68625, -1.26368, -1.31234, -0.87255
1.610, -0.07996, 1.68275, -1.26029, -1.30866, -0.88074
1.620, -0.08110, 1.67925, -1.25691, -1.30496, -0.88894
1.630, -0.08224, 1.67575, -1.25352, -1.30123, -0.89714
1.640, -0.08340, 1.67225, -1.25013, -1.29749, -0.90534
1.650, -0.08456, 1.66875, -1.24675, -1.29374, -0.91353
1.660, -0.08573, 1.66525, -1.24336, -1.28996, -0.92173
1.670, -0.08691, 1.66175, -1.23998, -1.28617, -0.92993
1.680, -0.08809, 1.65825, -1.23659, -1.28236, -0.93813
1.690, -0.08929, 1.65475, -1.23320, -1.27853, -0.94632
1.700, -0.09049, 1.65125, -1.22982, -1.27469, -0.95452
1.710, -0.09170, 1.64775, -1.22643, -1.27083, -0.96272
1.720, -0.09291, 1.64425, -1.22305, -1.26696, -0.97092
1.730, -0.09414, 1.64075, -1.21966, -1.26307, -0.97911
1.740, -0.09536, 1.63725, -1.21628, -1.25917, -0.98731
1.750, -0.09660, 1.63375, -1.21289, -1.25526, -0.99551
1.760, -0.09784, 1.63025, -1.20950, -1.25133, -1.00371
1.770, -0.09909, 1.62675, -1.20612, -1.24738, -1.01190
1.780, -0.10034, 1.62325, -1.20273, -1.24343, -1.02010
1.790, -0.10160, 1.61975, -1.19935, -1.23946, -1.02830
1.800, -0.10287, 1.61625, -1.19596, -1.23548, -1.03650
1.810, -0.10414, 1.61275, -1.19257, -1.23149, -1.04470
1.820, -0.10542, 1.60925, -1.18919, -1.22748, -1.05289
1.830, -0.10670, 1.60575, -1.18580, -1.22347, -1.06109
1.840, -0.10799, 1.60225, -1.18242, -1.21944, -1.06929
1.850, -0.10928, 1.59875, -1.17903, -1.21541, -1.07749
1.860, -0.11057, 1.59525, -1.17564, -1.21136, -1.08568
1.870, -0.11187, 1.59175, -1.17226, -1.20730, -1.09388
1.880, -0.11318, 1.58825, -1.16887, -1.20324, -1.10208
1.890, -0.11449, 1.58475, -1.16549, -1.19916, -1.11028
1.900, -0.11580, 1.58125, -1.16210, -1.19508, -1.11847
1.910, -0.11711, 1.57775, -1.15871, -1.19099, -1.12667
1.920, -0.11843, 1.57425, -1.15533, -1.18689, -1.13487
1.930, -0.11976, 1.57075, -1.15194, -1.18279, -1.14307
1.940, -0.12108, 1.56725, -1.14856, -1.17867, -1.15126
1.950, -0.12241, 1.56375, -1.14517, -1.17455, -1.15946
1.960, -0.12374, 1.56025, -1.14178, -1.17043, -1.16766
1.970, -0.12508, 1.55675, -1.13840, -1.16630, -1.17586
1.980, -0.12641, 1.55325, -1.13501, -1.16216, -1.18405
1.990, -0.12775, 1.54975, -1.13163, -1.15802, -1.19225
2.000, -0.12909, 1.54625, -1.12824, -1.15387, -1.20045
2.010, -0.13043, 1.54275, -1.12485, -1.14972, -1.20865
2.020, -0.13178, 1.53925, -1.12147, -1.14556, -1.21684
2.030, -0.13312, 1.53575, -1.11808, -1.14141, -1.22504
2.040, -0.13447, 1.53225, -1.11470, -1.13724, -1.23324
2.050, -0.13582, 1.52875, -1.11131, -1.13308, -1.24144
2.060, -0.13716, 1.52525, -1.10792, -1.12891, -1.24963
2.070, -0.13851, 1.52175, -1.10454, -1.12474, -1.25783
2.080, -0.13986, 1.51825, -1.10115, -1.12057, -1.26603
2.090, -0.14121, 1.51475, -1.09777, -1.11639, -1.27423
2.100, -0.14256, 1.51125, -1.09438, -1.11222, -1.28242
2.110, -0.14391, 1.50775, -1.09100, -1.10805, -1.29062
2.120, -0.14526, 1.50425, -1.08761, -1.10387, -1.29882
2.130, -0.14662, 1.50075, -1.08422, -1.09969, -1.30702
2.140, -0.14797, 1.49725, -1.08084, -1.09552, -1.31521
2.150, -0.14932, 1.49375, -1.07745, -1.09134, -1.32341
2.160, -0.15067, 1.49025, -1.07407, -1.08717, -1.33161
2.170, -0.15202, 1.48675, -1.07068, -1.08299, -1.33981
2.180, -0.15337, 1.48325, -1.06729, -1.07882, -1.34800
2.190, -0.15472, 1.47975, -1.06391, -1.07464, -1.35620
2.200, -0.15607, 1.47625, -1.06052, -1.07047, -1.36440
2.210, -0.15742, 1.47275, -1.05714, -1.06629, -1.37260
2.220, -0.15877, 1.46925, -1.05375, -1.06212, -1.38079
2.230, -0.16012, 1.46575, -1.05036, -1.05794, -1.38899
2.240, -0.16147, 1.46225, -1.04698, -1.05377, -1.39719
2.250, -0.16282, 1.45875, -1.04359, -1.04959, -1.40539
2.260, -0.16417, 1.45525, -1.04021, -1.04542, -1.41359
2.270, -0.16552, 1.45175, -1.03682, -1.04124, -1.42178
2.280, -0.16687, 1.44825, -1.03343, -1.03707, -1.42998
2.290, -0.16822, 1.44475, -1.03005, -1.03289, -1.43818
2.300, -0.16957, 1.44125, -1.02666, -1.02872, -1.44638
2.310, -0.17092, 1.43775, -1.02328, -1.02454, -1.45457
2.320, -0.17227, 1.43425, -1.01989, -1.02037, -1.46277
2.330, -0.17362, 1.43075, -1.01650, -1.01619, -1.47097
2.340, -0.17497, 1.42725, -1.01312, -1.01202, -1.47917
2.350, -0.17632, 1.42375, -1.00973, -1.00784, -1.48736
2.360, -0.17767, 1.42025, -1.00635, -1.00367, -1.49556
2.370, -0.17902, 1.41675, -1.00296, -0.99949, -1.50376
2.380, -0.18037, 1.41325, -0.99957, -0.99532, -1.51196
2.390, -0.18172, 1.40975, -0.99619, -0.99114, -1.52015
2.400, -0.18307, 1.40625, -0.99280, -0.98697, -1.52835
2.410, -0.18442, 1.40275, -0.98942, -0.98279, -1.53655
2.420, -0.18577, 1.39925, -0.98603, -0.97862, -1.54475
2.430, -0.18712, 1.39575, -0.98264, -0.97444, -1.55294
2.440, -0.18847, 1.39225, -0.97926, -0.97027, -1.56114
2.450, -0.18982, 1.38875, -0.97587, -0.96609, -1.56934
2.460, -0.19118, 1.38525, -0.97249, -0.96191, -1.57754
2.470, -0.19253, 1.38175, -0.96910, -0.95774, -1.58573
2.480, -0.19388, 1.37825, -0.96572, -0.95356, -1.59393
2.490, -0.19523, 1.37475, -0.96233, -0.94939, -1.60213
2.500, -0.19658, 1.37125, -0.95894, -0.94521, -1.61033
2.510, -0.19793, 1.36775, -0.95556, -0.94104, -1.61852
2.520, -0.19928, 1.36425, -0.95217, -0.93686, -1.62672
2.530, -0.20063, 1.36075, -0.94879, -0.93269, -1.63492
2.540, -0.20198, 1.35725, -0.94540, -0.92851, -1.64312
2.550, -0.20333, 1.35375, -0.94201, -0.92434, -1.65131
2.560, -0.20468, 1.35025, -0.93863, -0.92016, -1.65951
2.570, -0.20603, 1.34675, -0.93524, -0.91599, -1.66771
2.580, -0.20738, 1.34325, -0.93186, -0.91181, -1.67591
2.590, -0.20873, 1.33975, -0.92847, -0.90764, -1.68410
2.600, -0.21008, 1.33625, -0.92508, -0.90346, -1.69230
2.610, -0.21143, 1.33275, -0.92170, -0.89929, -1.70050
2.620, -0.21278, 1.32925, -0.91831, -0.89511, -1.70870
2.630, -0.21413, 1.32575, -0.91493, -0.89094, -1.71689
2.640, -0.21548, 1.32225, -0.91154, -0.88676, -1.72509
2.650, -0.21683, 1.31875, -0.90815, -0.88259, -1.73329
2.660, -0.21818, 1.31525, -0.90477, -0.87841, -1.74149
2.670, -0.21953, 1.31175, -0.90138, -0.87424, -1.74968
2.680, -0.22088, 1.30825, -0.89800, -0.87006, -1.75788
2.690, -0.22223, 1.30475, -0.89461, -0.86589, -1.76608
2.700, -0.22358, 1.30125, -0.89122, -0.86171, -1.77428
2.710, -0.22493, 1.29775, -0.88784, -0.85754, -1.78248
2.720, -0.22628, 1.29425, -0.88445, -0.85336, -1.79067
2.730, -0.22763, 1.29075, -0.88107, -0.84919, -1.79887
2.740, -0.22898, 1.28725, -0.87768, -0.84501, -1.80707
2.750, -0.23033, 1.28375, -0.87429, -0.84084, -1.81527
2.760, -0.23168, 1.28025, -0.87091, -0.83666, -1.82346
2.770, -0.23303, 1.27675, -0.86752, -0.83249, -1.83166
2.780, -0.23438, 1.27325, -0.86414, -0.82831, -1.83986
2.790, -0.23574, 1.26975, -0.86075, -0.82413, -1.84806
2.800, -0.23709, 1.26625, -0.85736, -0.81996, -1.85625
2.810, -0.23844, 1.26275, -0.85398, -0.81579, -1.86445
2.820, -0.23979, 1.25925, -0.85059, -0.81161, -1.87265
2.830, -0.24114, 1.25575, -0.84721, -0.80744, -1.88085
2.840, -0.24249, 1.25225, -0.84382, -0.80327, -1.88904
2.850, -0.24383, 1.24875, -0.84044, -0.79911, -1.89724
2.860, -0.24518, 1.24525, -0.83705, -0.79494, -1.90544
2.870, -0.24653, 1.24175, -0.83366, -0.79078, -1.91364
2.880, -0.24788, 1.23825, -0.83028, -0.78663, -1.92183
2.890, -0.24922, 1.23475, -0.82689, -0.78247, -1.93003
2.900, -0.25056, 1.23125, -0.82351, -0.77832, -1.93823
2.910, -0.25191, 1.22775, -0.82012, -0.77418, -1.94643
2.920, -0.25325, 1.22425, -0.81673, -0.77004, -1.95462
2.930, -0.25458, 1.22075, -0.81335, -0.76590, -1.96282
2.940, -0.25592, 1.21725, -0.80996, -0.76178, -1.97102
2.950, -0.25725, 1.21375, -0.80658, -0.75765, -1.97922
2.960, -0.25858, 1.21025, -0.80319, -0.75354, -1.98741
2.970, -0.25991, 1.20675, -0.79980, -0.74943, -1.99561
2.980, -0.26123, 1.20325, -0.79642, -0.74533, -2.00381
2.990, -0.26256, 1.19975, -0.79303, -0.74123, -2.01201
3.000, -0.26387, 1.19625, -0.78965, -0.73715, -2.02020
3.010, -0.26519, 1.19275, -0.78626, -0.73307, -2.02840
3.020, -0.26650, 1.18925, -0.78287, -0.72900, -2.03660
3.030, -0.26781, 1.18575, -0.77949, -0.72494, -2.04480
3.040, -0.26911, 1.18225, -0.77610, -0.72089, -2.05299
3.050, -0.27041, 1.17875, -0.77272, -0.71685, -2.06119
3.060, -0.27170, 1.17525, -0.76933, -0.71282, -2.06939
3.070, -0.27299, 1.17175, -0.76594, -0.70879, -2.07759
3.080, -0.27428, 1.16825, -0.76256, -0.70479, -2.08578
3.090, -0.27556, 1.16475, -0.75917, -0.70079, -2.09398
3.100, -0.27683, 1.16125, -0.75579, -0.69680, -2.10218
3.110, -0.27810, 1.15775, -0.75240, -0.69283, -2.11038
3.120, -0.27936, 1.15425, -0.74901, -0.68886, -2.11857
3.130, -0.28062, 1.15075, -0.74563, -0.68492, -2.12677
3.140, -0.28187, 1.14725, -0.74224, -0.68098, -2.13497
3.150, -0.28312, 1.14375, -0.73886, -0.67706, -2.14317
3.160, -0.28436, 1.14025, -0.73547, -0.67315, -2.15137
3.170, -0.28559, 1.13675, -0.73208, -0.66925, -2.15956
3.180, -0.28682, 1.13325, -0.72870, -0.66537, -2.16776
3.190, -0.28804, 1.12975, -0.72531, -0.66151, -2.17596
3.200, -0.28925, 1.12625, -0.72193, -0.65766, -2.18416
3.210, -0.29046, 1.12275, -0.71854, -0.65383, -2.19235
3.220, -0.29166, 1.11925, -0.71516, -0.65001, -2.20055
3.230, -0.29285, 1.11575, -0.71177, -0.64621, -2.20875
3.240, -0.29403, 1.11225, -0.70838, -0.64243, -2.21695
3.250, -0.29521, 1.10875, -0.70500, -0.63866, -2.22514
3.260, -0.29637, 1.10525, -0.70161, -0.63491, -2.23334
3.270, -0.29753, 1.10175, -0.69823, -0.63118, -2.24154
3.280, -0.29868, 1.09825, -0.69484, -0.62747, -2.24974
3.290, -0.29983, 1.09475, -0.69145, -0.62377, -2.25793
3.300, -0.30096, 1.09125, -0.68807, -0.62010, -2.26613
3.310, -0.30209, 1.08775, -0.68468, -0.61644, -2.27433
3.320, -0.30321, 1.08425, -0.68130, -0.61281, -2.28253
3.330, -0.30432, 1.08075, -0.67791, -0.60919, -2.29072
3.340, -0.30542, 1.07725, -0.67452, -0.60560, -2.29892
3.350, -0.30651, 1.07375, -0.67114, -0.60203, -2.30712
3.360, -0.30760, 1.07025, -0.66775, -0.59847, -2.31532
3.370, -0.30868, 1.06675, -0.66437, -0.59494, -2.32351
3.380, -0.30975, 1.06325, -0.66098, -0.59144, -2.33171
3.390, -0.31081, 1.05975, -0.65759, -0.58795, -2.33991
3.400, -0.31186, 1.05625, -0.65421, -0.58449, -2.34811
3.410, -0.31291, 1.05275, -0.65082, -0.58105, -2.35630
3.420, -0.31395, 1.04925, -0.64744, -0.57763, -2.36450
3.430, -0.31497, 1.04575, -0.64405, -0.57424, -2.37270
3.440, -0.31600, 1.04225, -0.64066, -0.57087, -2.38090
3.450, -0.31701, 1.03875, -0.63728, -0.56753, -2.38909
3.460, -0.31801, 1.03525, -0.63389, -0.56421, -2.39729
3.470, -0.31901, 1.03175, -0.63051, -0.56092, -2.40549
3.480, -0.32000, 1.02825, -0.62712, -0.55765, -2.41369
3.490, -0.32098, 1.02475, -0.62373, -0.55441, -2.42188
3.500, -0.32195, 1.02125, -0.62035, -0.55120, -2.43008
3.510, -0.32292, 1.01775, -0.61696, -0.54801, -2.43828
3.520, -0.32388, 1.01425, -0.61358, -0.54485, -2.44648
3.530, -0.32482, 1.01075, -0.61019, -0.54172, -2.45467
3.540, -0.32576, 1.00725, -0.60680, -0.53862, -2.46287
3.550, -0.32670, 1.00375, -0.60342, -0.53554, -2.47107
3.560, -0.32762, 1.00025, -0.60003, -0.53250, -2.47927
3.570, -0.32854, 0.99675, -0.59665, -0.52948, -2.48746
3.580, -0.32944, 0.99325, -0.59326, -0.52649, -2.49566
3.590, -0.33034, 0.98975, -0.58988, -0.52353, -2.50386
3.600, -0.33124, 0.98625, -0.58649, -0.52061, -2.51206
3.610, -0.33212, 0.98275, -0.58310, -0.51771, -2.52026
3.620, -0.33299, 0.97925, -0.57972, -0.51484, -2.52845
3.630, -0.33386, 0.97575, -0.57633, -0.51201, -2.53665
3.640, -0.33472, 0.97225, -0.57295, -0.50921, -2.54485
3.650, -0.33557, 0.96875, -0.56956, -0.50644, -2.55305
3.660, -0.33641, 0.96525, -0.56617, -0.50370, -2.56124
3.670, -0.33725, 0.96175, -0.56279, -0.50099, -2.56944
3.680, -0.33808, 0.95825, -0.55940, -0.49832, -2.57764
3.690, -0.33890, 0.95475, -0.55602, -0.49568, -2.58584
3.700, -0.33971, 0.95125, -0.55263, -0.49308, -2.59403
3.710, -0.34051, 0.94775, -0.54924, -0.49051, -2.60223
3.720, -0.34130, 0.94425, -0.54586, -0.48798, -2.61043
3.730, -0.34209, 0.94075, -0.54247, -0.48548, -2.61863
3.740, -0.34287, 0.93725, -0.53909, -0.48301, -2.62682
3.750, -0.34364, 0.93375, -0.53570, -0.48058, -2.63502
3.760, -0.34440, 0.93025, -0.53231, -0.47819, -2.64322
3.770, -0.34515, 0.92675, -0.52893, -0.47583, -2.65142
3.780, -0.34590, 0.92325, -0.52554, -0.47350, -2.65961
3.790, -0.34664, 0.91975, -0.52216, -0.47121, -2.66781
3.800, -0.34737, 0.91625, -0.51877, -0.46896, -2.67601
3.810, -0.34809, 0.91275, -0.51538, -0.46673, -2.68421
3.820, -0.34880, 0.90925, -0.51200, -0.46455, -2.69240
3.830, -0.34951, 0.90575, -0.50861, -0.46240, -2.70060
3.840, -0.35020, 0.90225, -0.50523, -0.46028, -2.70880
3.850, -0.35089, 0.89875, -0.50184, -0.45820, -2.71699
3.860, -0.35157, 0.89525, -0.49845, -0.45615, -2.72517
3.870, -0.35225, 0.89175, -0.49507, -0.45414, -2.73335
3.880, -0.35291, 0.88825, -0.49168, -0.45217, -2.74151
3.890, -0.35357, 0.88475, -0.48830, -0.45022, -2.74966
3.900, -0.35422, 0.88125, -0.48491, -0.44832, -2.75779
3.910, -0.35486, 0.87775, -0.48152, -0.44644, -2.76589
3.920, -0.35549, 0.87425, -0.47814, -0.44461, -2.77398
3.930, -0.35611, 0.87075, -0.47475, -0.44280, -2.78203
3.940, -0.35673, 0.86725, -0.47137, -0.44104, -2.79006
3.950, -0.35734, 0.86375, -0.46798, -0.43930, -2.79805
3.960, -0.35794, 0.86025, -0.46459, -0.43761, -2.80601
3.970, -0.35853, 0.85675, -0.46121, -0.43594, -2.81393
3.980, -0.35911, 0.85325, -0.45782, -0.43432, -2.82181
3.990, -0.35969, 0.84975, -0.45444, -0.43272, -2.82964
4.000, -0.36026, 0.84625, -0.45105, -0.43116, -2.83743
4.010, -0.36082, 0.84275, -0.44767, -0.42964, -2.84517
4.020, -0.36137, 0.83925, -0.44428, -0.42815, -2.85286
4.030, -0.36191, 0.83575, -0.44089, -0.42669, -2.86049
4.040, -0.36245, 0.83225, -0.43751, -0.42526, -2.86807
4.050, -0.36297, 0.82875, -0.43412, -0.42387, -2.87558
4.060, -0.36349, 0.82525, -0.43074, -0.42251, -2.88303
4.070, -0.36400, 0.82175, -0.42736, -0.42118, -2.89041
4.080, -0.36450, 0.81825, -0.42399, -0.41988, -2.89773
4.090, -0.36500, 0.81476, -0.42063, -0.41861, -2.90497
4.100, -0.36549, 0.81127, -0.41728, -0.41738, -2.91214
4.110, -0.36596, 0.80778, -0.41394, -0.41617, -2.91923
4.120, -0.36643, 0.80431, -0.41061, -0.41499, -2.92624
4.130, -0.36690, 0.80085, -0.40730, -0.41385, -2.93316
4.140, -0.36735, 0.79740, -0.40400, -0.41273, -2.94000
4.150, -0.36780, 0.79396, -0.40073, -0.41164, -2.94675
4.160, -0.36823, 0.79054, -0.39748, -0.41058, -2.95341
4.170, -0.36866, 0.78715, -0.39424, -0.40954, -2.95998
4.180, -0.36909, 0.78377, -0.39104, -0.40854, -2.96645
4.190, -0.36950, 0.78042, -0.38786, -0.40756, -2.97281
4.200, -0.36990, 0.77709, -0.38471, -0.40661, -2.97908
4.210, -0.37030, 0.77379, -0.38158, -0.40568, -2.98524
4.220, -0.37069, 0.77052, -0.37849, -0.40478, -2.99129
4.230, -0.37107, 0.76727, -0.37544, -0.40391, -2.99722
4.240, -0.37145, 0.76407, -0.37242, -0.40306, -3.00305
4.250, -0.37181, 0.76090, -0.36943, -0.40224, -3.00875
4.260, -0.37217, 0.75776, -0.36649, -0.40144, -3.01434
4.270, -0.37252, 0.75466, -0.36358, -0.40066, -3.01981
4.280, -0.37286, 0.75161, -0.36072, -0.39991, -3.02514
4.290, -0.37319, 0.74860, -0.35791, -0.39919, -3.03035
4.300, -0.37351, 0.74563, -0.35514, -0.39848, -3.03543
4.310, -0.37383, 0.74271, -0.35241, -0.39780, -3.04038
4.320, -0.37414, 0.73984, -0.34974, -0.39714, -3.04519
4.330, -0.37444, 0.73703, -0.34712, -0.39651, -3.04986
4.340, -0.37473, 0.73426, -0.34455, -0.39589, -3.05441
4.350, -0.37501, 0.73155, -0.34204, -0.39530, -3.05881
4.360, -0.37529, 0.72890, -0.33959, -0.39472, -3.06309
4.370, -0.37556, 0.72630, -0.33719, -0.39417, -3.06722
4.380, -0.37582, 0.72377, -0.33486, -0.39364, -3.07123
4.390, -0.37607, 0.72130, -0.33259, -0.39312, -3.07510
4.400, -0.37631, 0.71890, -0.33038, -0.39263, -3.07883
4.410, -0.37655, 0.71656, -0.32824, -0.39216, -3.08243
4.420, -0.37677, 0.71429, -0.32616, -0.39170, -3.08590
4.430, -0.37699, 0.71210, -0.32415, -0.39126, -3.08923
4.440, -0.37720, 0.70997, -0.32220, -0.39084, -3.09243
4.450, -0.37741, 0.70791, -0.32032, -0.39044, -3.09549
4.460, -0.37760, 0.70592, -0.31851, -0.39005, -3.09843
4.470, -0.37779, 0.70401, -0.31676, -0.38969, -3.10124
4.480, -0.37797, 0.70216, -0.31508, -0.38933, -3.10392
4.490, -0.37814, 0.70038, -0.31346, -0.38900, -3.10648
4.500, -0.37830, 0.69867, -0.31191, -0.38868, -3.10892
4.510, -0.37846, 0.69704, -0.31042, -0.38837, -3.11125
4.520, -0.37860, 0.69547, -0.30900, -0.38808, -3.11346
4.530, -0.37874, 0.69397, -0.30764, -0.38781, -3.11557
4.540, -0.37888, 0.69254, -0.30635, -0.38754, -3.11756
4.550, -0.37900, 0.69118, -0.30513, -0.38730, -3.11945
4.560, -0.37912, 0.68990, -0.30397, -0.38706, -3.12124
4.570, -0.37924, 0.68868, -0.30287, -0.38684, -3.12293
4.580, -0.37934, 0.68753, -0.30184, -0.38663, -3.12452
4.590, -0.37944, 0.68645, -0.30086, -0.38644, -3.12602
4.600, -0.37954, 0.68543, -0.29995, -0.38625, -3.12743
4.610, -0.37963, 0.68448, -0.29909, -0.38608, -3.12876
4.620, -0.37971, 0.68358, -0.29829, -0.38592, -3.12999
4.630, -0.37979, 0.68275, -0.29754, -0.38577, -3.13115
4.640, -0.37986, 0.68197, -0.29684, -0.38563, -3.13222
4.650, -0.37993, 0.68125, -0.29619, -0.38550, -3.13322
4.660, -0.37999, 0.68058, -0.29559, -0.38537, -3.13415
4.670, -0.38005, 0.67996, -0.29503, -0.38526, -3.13500
4.680, -0.38010, 0.67939, -0.29452, -0.38516, -3.13579
4.690, -0.38015, 0.67886, -0.29405, -0.38507, -3.13651
4.700, -0.38020, 0.67838, -0.29362, -0.38498, -3.13717
4.710, -0.38024, 0.67795, -0.29323, -0.38490, -3.13777
4.720, -0.38028, 0.67755, -0.29287, -0.38483, -3.13831
4.730, -0.38031, 0.67719, -0.29255, -0.38477, -3.13880
4.740, -0.38034, 0.67687, -0.29227, -0.38471, -3.13924
4.750, -0.38037, 0.67659, -0.29201, -0.38466, -3.13963
4.760, -0.38039, 0.67633, -0.29179, -0.38462, -3.13997
4.770, -0.38041, 0.67611, -0.29159, -0.38458, -3.14027
4.780, -0.38043, 0.67592, -0.29142, -0.38454, -3.14053
4.790, -0.38045, 0.67575, -0.29127, -0.38452, -3.14076
4.800, -0.38046, 0.67561, -0.29114, -0.38449, -3.14095
4.810, -0.38047, 0.67549, -0.29104, -0.38447, -3.14111
4.820, -0.38048, 0.67540, -0.29095, -0.38445, -3.14124
4.830, -0.38049, 0.67532, -0.29088, -0.38444, -3.14134
4.840, -0.38050, 0.67525, -0.29083, -0.38443, -3.14142
4.850, -0.38050, 0.67521, -0.29078, -0.38442, -3.14148
4.860, -0.38050, 0.67517, -0.29075, -0.38442, -3.14153
4.870, -0.38051, 0.67515, -0.29073, -0.38441, -3.14156
4.880, -0.38051, 0.67513, -0.29072, -0.38441, -3.14158
4.890, -0.38051, 0.67512, -0.29071, -0.38441, -3.14159
4.900, -0.38051, 0.67512, -0.29071, -0.38441, -3.14159
4.910, -0.38051, 0.67512, -0.29071, -0.38441, -3.14159
4.920, -0.38051, 0.67512, -0.29071, -0.38441, -3.14159
4.930, -0.38051, 0.67512, -0.29071, -0.38441, -3.14159
4.940, -0.38051, 0.67512, -0.29071, -0.38441, -3.14159
4.950, -0.38051, 0.67512, -0.29071, -0.38441, -3.14159
4.960, -0.38051, 0.67512, -0.29071, -0.38441, -3.14159
4.970, -0.38051, 0.67512, -0.29071, -0.38441, -3.14159
4.980, -0.38051, 0.67512, -0.29071, -0.38441, -3.14159
4.990, -0.38051, 0.67512, -0.29071, -0.38441, -3.14159
5.000, -0.38051, 0.67512, -0.29071, -0.38441, -3.14159
5.010, -0.38051, 0.67512, -0.29071, -0.38441, -3.14159
5.020, -0.38051, 0.67512, -0.29071, -0.38441, -3.14159
5.030, -0.38051, 0.67512, -0.29071, -0.38441, -3.14159
5.040, -0.38051, 0.67512, -0.29071, -0.38441, -3.14159
5.050, -0.38051, 0.67512, -0.29071, -0.38441, -3.14159
5.060, -0.38051, 0.67512, -0.29071, -0.38441, -3.14159
5.070, -0.38051, 0.67512, -0.29071, -0.38441, -3.14159
5.080, -0.38051, 0.67512, -0.29071, -0.38441, -3.14159
5.090, -0.38051, 0.67512, -0.29071, -0.38441, -3.14159
5.100, -0.38051, 0.67512, -0.29071, -0.38441, -3.14159
5.110, -0.38051, 0.67512, -0.29071, -0.38441, -3.14159
5.120, -0.38051, 0.67512, -0.29071, -0.38441, -3.14159
5.130, -0.38051, 0.67512, -0.29071, -0.38441, -3.14159
5.140, -0.38051, 0.67512, -0.29071, -0.38441, -3.14159
5.150, -0.38051, 0.67512, -0.29071, -0.38441, -3.14159
5.160, -0.38051, 0.67512, -0.29071, -0.38441, -3.14159
5.170, -0.38051, 0.67512, -0.29071, -0.38441, -3.14159
5.180, -0.38051, 0.67512, -0.29071, -0.38441, -3.14159
5.190, -0.38051, 0.67512, -0.29071, -0.38441, -3.14159
5.200, -0.38051, 0.67512, -0.29071, -0.38441, -3.14159
5.210, -0.38051, 0.67512, -0.29071, -0.38441, -3.14159
5.220, -0.38051, 0.67512, -0.29071, -0.38441, -3.14159
5.230, -0.38051, 0.67512, -0.29071, -0.38441, -3.14159
5.240, -0.38051, 0.67512, -0.29071, -0.38441, -3.14159
5.250, -0.38051, 0.67512, -0.29071, -0.38441, -3.14159
5.260, -0.38051, 0.67512, -0.29071, -0.38441, -3.14159
5.270, -0.38051, 0.67512, -0.29071, -0.38441, -3.14159
5.280, -0.38051, 0.67512, -0.29071, -0.38441, -3.14159
5.290, -0.38051, 0.67512, -0.29071, -0.38441, -3.14159
5.300, -0.38051, 0.67512, -0.29071, -0.38441, -3.14159
5.310, -0.38051, 0.67512, -0.29071, -0.38441, -3.14159
5.320, -0.38051, 0.67512, -0.29071, -0.38441, -3.14159
5.330, -0.38051, 0.67512, -0.29071, -0.38441, -3.14159
5.340, -0.38051, 0.67512, -0.29071, -0.38441, -3.14159
5.350, -0.38051, 0.67512, -0.29071, -0.38441, -3.14159
5.360, -0.38051, 0.67512, -0.29071, -0.38441, -3.14159
5.370, -0.38051, 0.67512, -0.29071, -0.38441, -3.14159
5.380, -0.38051, 0.67512, -0.29071, -0.38441, -3.14159
5.390, -0.38051, 0.67512, -0.29071, -0.38441, -3.14159
5.400, -0.38051, 0.67512, -0.29071, -0.38441, -3.14159
5.410, -0.38051, 0.67512, -0.29071, -0.38441, -3.14159
5.420, -0.38051, 0.67512, -0.29071, -0.38441, -3.14159
5.430, -0.38051, 0.67512, -0.29071, -0.38441, -3.14159
5.440, -0.38051, 0.67512, -0.29071, -0.38441, -3.14159
5.450, -0.38051, 0.67512, -0.29071, -0.38441, -3.14159
5.460, -0.38051, 0.67512, -0.29071, -0.38441, -3.14159
5.470, -0.38051, 0.67512, -0.29071, -0.38441, -3.14159
5.480, -0.38051, 0.67512, -0.29071, -0.38441, -3.14159
5.490, -0.38051, 0.67512, -0.29071, -0.38441, -3.14159
5.500, -0.38051, 0.67512, -0.29071, -0.38441, -3.14159
5.510, -0.38051, 0.67512, -0.29071, -0.38441, -3.14159
5.520, -0.38051, 0.67512, -0.29071, -0.38441, -3.14159
5.530, -0.38051, 0.67512, -0.29071, -0.38441, -3.14159
5.540, -0.38051, 0.67512, -0.29071, -0.38441, -3.14159
5.550, -0.38051, 0.67512, -0.29071, -0.38441, -3.14159
5.560, -0.38051, 0.67512, -0.29071, -0.38441, -3.14159
5.570, -0.38051, 0.67512, -0.29071, -0.38441, -3.14160
5.580, -0.38051, 0.67512, -0.29071, -0.38441, -3.14160
5.590, -0.38051, 0.67512, -0.29071, -0.38441, -3.14160
5.600, -0.38051, 0.67512, -0.29071, -0.38441, -3.14160
5.610, -0.38051, 0.67512, -0.29071, -0.38441, -3.14160
5.620, -0.38051, 0.67512, -0.29071, -0.38441, -3.14160
5.630, -0.38051, 0.67512, -0.29071, -0.38441, -3.14160
5.640, -0.38051, 0.67512, -0.29071, -0.38441, -3.14160
5.650, -0.38051, 0.67512, -0.29071, -0.38441, -3.14160
5.660, -0.38051, 0.67512, -0.29071, -0.38441, -3.14160
5.670, -0.38051, 0.67512, -0.29071, -0.38441, -3.14160
5.680, -0.38051, 0.67512, -0.29071, -0.38441, -3.14160
5.690, -0.38051, 0.67512, -0.29071, -0.38441, -3.14160
5.700, -0.38051, 0.67512, -0.29071, -0.38441, -3.14160
5.710, -0.38051, 0.67512, -0.29071, -0.38441, -3.14160
5.720, -0.38051, 0.67512, -0.29071, -0.38441, -3.14160
5.730, -0.38051, 0.67512, -0.29071, -0.38441, -3.14160
5.740, -0.38051, 0.67512, -0.29071, -0.38441, -3.14159
5.750, -0.38051, 0.67512, -0.29071, -0.38441, -3.14159
5.760, -0.38051, 0.67512, -0.29071, -0.38441, -3.14159
5.770, -0.38051, 0.67512, -0.29071, -0.38441, -3.14159
5.780, -0.38051, 0.67512, -0.29071, -0.38441, -3.14159
5.790, -0.38051, 0.67512, -0.29071, -0.38441, -3.14159
5.800, -0.38051, 0.67512, -0.29071, -0.38441, -3.14159
5.810, -0.38051, 0.67512, -0.29071, -0.38441, -3.14159
5.820, -0.38051, 0.67512, -0.29071, -0.38441, -3.14159
5.830, -0.38051, 0.67512, -0.29071, -0.38441, -3.14159
5.840, -0.38051, 0.67512, -0.29071, -0.38441, -3.14159
5.850, -0.38051, 0.67512, -0.29071, -0.38441, -3.14159
5.860, -0.38051, 0.67512, -0.29071, -0.38441, -3.14159
5.870, -0.38051, 0.67512, -0.29071, -0.38441, -3.14159
5.880, -0.38051, 0.67512, -0.29071, -0.38441, -3.14159
5.890, -0.38051, 0.67512, -0.29071, -0.38441, -3.14159
5.900, -0.38051, 0.67512, -0.29071, -0.38441, -3.14159
5.910, -0.38051, 0.67512, -0.29071, -0.38441, -3.14159
5.920, -0.38051, 0.67512, -0.29071, -0.38441, -3.14159
5.930, -0.38051, 0.67512, -0.29071, -0.38441, -3.14158
5.940, -0.38050, 0.67512, -0.29071, -0.38441, -3.14157
5.950, -0.38048, 0.67512, -0.29071, -0.38441, -3.14156
5.960, -0.38045, 0.67512, -0.29071, -0.38441, -3.14153
5.970, -0.38042, 0.67512, -0.29071, -0.38441, -3.14149
5.980, -0.38037, 0.67512, -0.29071, -0.38441, -3.14145
5.990, -0.38031, 0.67512, -0.29071, -0.38441, -3.14138
6.000, -0.38023, 0.67512, -0.29071, -0.38441, -3.14130
6.010, -0.38013, 0.67512, -0.29071, -0.38441, -3.14121
6.020, -0.38000, 0.67512, -0.29071, -0.38441, -3.14109
6.030, -0.37986, 0.67512, -0.29071, -0.38441, -3.14096
6.040, -0.37969, 0.67512, -0.29071, -0.38441, -3.14080
6.050, -0.37950, 0.67512, -0.29071, -0.38441, -3.14061
6.060, -0.37927, 0.67512, -0.29071, -0.38441, -3.14040
6.070, -0.37901, 0.67512, -0.29071, -0.38441, -3.14016
6.080, -0.37873, 0.67512, -0.29071, -0.38441, -3.13989
6.090, -0.37840, 0.67512, -0.29071, -0.38441, -3.13959
6.100, -0.37804, 0.67512, -0.29071, -0.38441, -3.13925
6.110, -0.37764, 0.67512, -0.29071, -0.38441, -3.13888
6.120, -0.37720, 0.67512, -0.29071, -0.38441, -3.13847
6.130, -0.37672, 0.67512, -0.29071, -0.38441, -3.13803
6.140, -0.37620, 0.67512, -0.29071, -0.38441, -3.13754
6.150, -0.37564, 0.67512, -0.29071, -0.38441, -3.13701
6.160, -0.37504, 0.67512, -0.29071, -0.38441, -3.13643
6.170, -0.37440, 0.67512, -0.29071, -0.38441, -3.13581
6.180, -0.37372, 0.67512, -0.29071, -0.38441, -3.13514
6.190, -0.37300, 0.67512, -0.29071, -0.38441, -3.13442
6.200, -0.37224, 0.67512, -0.29071, -0.38441, -3.13365
6.210, -0.37144, 0.67512, -0.29071, -0.38441, -3.13282
6.220, -0.37060, 0.67512, -0.29071, -0.38441, -3.13194
6.230, -0.36972, 0.67512, -0.29071, -0.38441, -3.13101
6.240, -0.36880, 0.67512, -0.29071, -0.38441, -3.13001
6.250, -0.36784, 0.67512, -0.29071, -0.38441, -3.12895
6.260, -0.36684, 0.67512, -0.29071, -0.38441, -3.12784
6.270, -0.36580, 0.67512, -0.29071, -0.38441, -3.12665
6.280, -0.36472, 0.67512, -0.29071, -0.38441, -3.12540
6.290, -0.36360, 0.67512, -0.29071, -0.38441, -3.12409
6.300, -0.36244, 0.67512, -0.29071, -0.38441, -3.12270
6.310, -0.36124, 0.67512, -0.29071, -0.38441, -3.12125
6.320, -0.36000, 0.67512, -0.29071, -0.38441, -3.11972
6.330, -0.35872, 0.67512, -0.29071, -0.38441, -3.11811
6.340, -0.35740, 0.67512, -0.29071, -0.38441, -3.11643
6.350, -0.35604, 0.67512, -0.29071, -0.38441, -3.11467
6.360, -0.35464, 0.67512, -0.29071, -0.38441, -3.11283
6.370, -0.35320, 0.67512, -0.29071, -0.38441, -3.11091
6.380, -0.35172, 0.67512, -0.29071, -0.38441, -3.10890
6.390, -0.35020, 0.67512, -0.29071, -0.38441, -3.10681
6.400, -0.34864, 0.67512, -0.29071, -0.38441, -3.10463
6.410, -0.34704, 0.67512, -0.29071, -0.38441, -3.10236
6.420, -0.34540, 0.67512, -0.29071, -0.38441, -3.10000
6.430, -0.34372, 0.67512, -0.29071, -0.38441, -3.09755
6.440, -0.34200, 0.67512, -0.29071, -0.38441, -3.09501
6.450, -0.34024, 0.67512, -0.29071, -0.38441, -3.09236
6.460, -0.33844, 0.67512, -0.29071, -0.38441, -3.08962
6.470, -0.33660, 0.67512, -0.29071, -0.38441, -3.08678
6.480, -0.33472, 0.67512, -0.29071, -0.38441, -3.08385
6.490, -0.33280, 0.67512, -0.29071, -0.38441, -3.08081
6.500, -0.33084, 0.67512, -0.29071, -0.38441, -3.07767
6.510, -0.32884, 0.67512, -0.29071, -0.38441, -3.07443
6.520, -0.32680, 0.67512, -0.29071, -0.38441, -3.07110
6.530, -0.32472, 0.67512, -0.29071, -0.38441, -3.06766
6.540, -0.32260, 0.67512, -0.29071, -0.38441, -3.06413
6.550, -0.32044, 0.67512, -0.29071, -0.38441, -3.06050
6.560, -0.31824, 0.67512, -0.29071, -0.38441, -3.05677
6.570, -0.31600, 0.67512, -0.29071, -0.38441, -3.05294
6.580, -0.31372, 0.67512, -0.29071, -0.38441, -3.04901
6.590, -0.31140, 0.67512, -0.29071, -0.38441, -3.04498
6.600, -0.30904, 0.67512, -0.29071, -0.38441, -3.04085
6.610, -0.30664, 0.67512, -0.29071, -0.38441, -3.03662
6.620, -0.30420, 0.67512, -0.29071, -0.38441, -3.03229
6.630, -0.30172, 0.67512, -0.29071, -0.38441, -3.02787
6.640, -0.29920, 0.67512, -0.29071, -0.38441, -3.02335
6.650, -0.29664, 0.67512, -0.29071, -0.38441, -3.01874
6.660, -0.29404, 0.67512, -0.29071, -0.38441, -3.01403
6.670, -0.29140, 0.67512, -0.29071, -0.38441, -3.00923
6.680, -0.28872, 0.67512, -0.29071, -0.38441, -3.00435
6.690, -0.28601, 0.67512, -0.29071, -0.38441, -2.99938
6.700, -0.28327, 0.67512, -0.29071, -0.38441, -2.99432
6.710, -0.28049, 0.67512, -0.29071, -0.38441, -2.98918
6.720, -0.27769, 0.67512, -0.29071, -0.38441, -2.98396
6.730, -0.27486, 0.67512, -0.29071, -0.38441, -2.97865
6.740, -0.27200, 0.67512, -0.29071, -0.38441, -2.97328
6.750, -0.26913, 0.67512, -0.29071, -0.38441, -2.96782
6.760, -0.26623, 0.67512, -0.29071, -0.38441, -2.96229
6.770, -0.26331, 0.67512, -0.29071, -0.38441, -2.95669
6.780, -0.26037, 0.67512, -0.29071, -0.38441, -2.95101
6.790, -0.25742, 0.67512, -0.29071, -0.38441, -2.94527
6.800, -0.25445, 0.67512, -0.29071, -0.38441, -2.93946
6.810, -0.25148, 0.67512, -0.29071, -0.38441, -2.93359
6.820, -0.24850, 0.67512, -0.29071, -0.38441, -2.92765
6.830, -0.24551, 0.67512, -0.29071, -0.38441, -2.92165
6.840, -0.24251, 0.67512, -0.29071, -0.38441, -2.91559
6.850, -0.23951, 0.67512, -0.29071, -0.38441, -2.90947
6.860, -0.23651, 0.67512, -0.29071, -0.38441, -2.90329
6.870, -0.23351, 0.67512, -0.29071, -0.38441, -2.89706
6.880, -0.23051, 0.67512, -0.29071, -0.38441, -2.89078
6.890, -0.22751, 0.67512, -0.29071, -0.38441, -2.88444
6.900, -0.22451, 0.67512, -0.29071, -0.38441, -2.87806
6.910, -0.22151, 0.67512, -0.29071, -0.38441, -2.87163
6.920, -0.21851, 0.67512, -0.29071, -0.38441, -2.86515
6.930, -0.21551, 0.67512, -0.29071, -0.38441, -2.85863
6.940, -0.21251, 0.67512, -0.29071, -0.38441, -2.85207
6.950, -0.20951, 0.67512, -0.29071, -0.38441, -2.84547
6.960, -0.20651, 0.67512, -0.29071, -0.38441, -2.83882
6.970, -0.20351, 0.67512, -0.29071, -0.38441, -2.83214
6.980, -0.20051, 0.67512, -0.29071, -0.38441, -2.82543
6.990, -0.19751, 0.67512, -0.29071, -0.38441, -2.81868
7.000, -0.19451, 0.67512, -0.29071, -0.38441, -2.81191
7.010, -0.19151, 0.67512, -0.29071, -0.38441, -2.80510
7.020, -0.18851, 0.67512, -0.29071, -0.38441, -2.79826
7.030, -0.18551, 0.67512, -0.29071, -0.38441, -2.79140
7.040, -0.18251, 0.67512, -0.29071, -0.38441, -2.78451
7.050, -0.17951, 0.67512, -0.29071, -0.38441, -2.77760
7.060, -0.17651, 0.67512, -0.29071, -0.38441, -2.77067
7.070, -0.17351, 0.67512, -0.29071, -0.38441, -2.76372
7.080, -0.17051, 0.67512, -0.29071, -0.38441, -2.75676
7.090, -0.16751, 0.67512, -0.29071, -0.38441, -2.74978
7.100, -0.16451, 0.67512, -0.29071, -0.38441, -2.74278
7.110, -0.16151, 0.67512, -0.29071, -0.38441, -2.73577
7.120, -0.15851, 0.67512, -0.29071, -0.38441, -2.72876
7.130, -0.15551, 0.67512, -0.29071, -0.38441, -2.72173
7.140, -0.15251, 0.67512, -0.29071, -0.38441, -2.71470
7.150, -0.14951, 0.67512, -0.29071, -0.38441, -2.70766
7.160, -0.14651, 0.67512, -0.29071, -0.38441, -2.70062
7.170, -0.14351, 0.67512, -0.29071, -0.38441, -2.69358
7.180, -0.14051, 0.67512, -0.29071, -0.38441, -2.68654
7.190, -0.13751, 0.67512, -0.29071, -0.38441, -2.67950
7.200, -0.13451, 0.67512, -0.29071, -0.38441, -2.67246
7.210, -0.13151, 0.67512, -0.29071, -0.38441, -2.66542
7.220, -0.12851, 0.67512, -0.29071, -0.38441, -2.65838
7.230, -0.12551, 0.67512, -0.29071, -0.38441, -2.65134
7.240, -0.12251, 0.67512, -0.29071, -0.38441, -2.64430
7.250, -0.11951, 0.67512, -0.29071, -0.38441, -2.63726
7.260, -0.11651, 0.67512, -0.29071, -0.38441, -2.63022
7.270, -0.11351, 0.67512, -0.29071, -0.38441, -2.62318
7.280, -0.11051, 0.67512, -0.29071, -0.38441, -2.61614
7.290, -0.10751, 0.67512, -0.29071, -0.38441, -2.60910
7.300, -0.10451, 0.67512, -0.29071, -0.38441, -2.60206
7.310, -0.10151, 0.67512, -0.29071, -0.38441, -2.59502
7.320, -0.09851, 0.67512, -0.29071, -0.38441, -2.58798
7.330, -0.09551, 0.67512, -0.29071, -0.38441, -2.58094
7.340, -0.09251, 0.67512, -0.29071, -0.38441, -2.57390
7.350, -0.08951, 0.67512, -0.29071, -0.38441, -2.56686
7.360, -0.08651, 0.67512, -0.29071, -0.38441, -2.55982
7.370, -0.08351, 0.67512, -0.29071, -0.38441, -2.55278
7.380, -0.08051, 0.67512, -0.29071, -0.38441, -2.54574
7.390, -0.07751, 0.67512, -0.29071, -0.38441, -2.53870
7.400, -0.07451, 0.67512, -0.29071, -0.38441, -2.53166
7.410, -0.07151, 0.67512, -0.29071, -0.38441, -2.52462
7.420, -0.06851, 0.67512, -0.29071, -0.38441, -2.51758
7.430, -0.06551, 0.67512, -0.29071, -0.38441, -2.51054
7.440, -0.06251, 0.67512, -0.29071, -0.38441, -2.50350
7.450, -0.05951, 0.67512, -0.29071, -0.38441, -2.49646
7.460, -0.05651, 0.67512, -0.29071, -0.38441, -2.48942
7.470, -0.05351, 0.67512, -0.29071, -0.38441, -2.48238
7.480, -0.05051, 0.67512, -0.29071, -0.38441, -2.47534
7.490, -0.04751, 0.67512, -0.29071, -0.38441, -2.46830
7.500, -0.04451, 0.67512, -0.29071, -0.38441, -2.46126
7.510, -0.04151, 0.67512, -0.29071, -0.38441, -2.45422
7.520, -0.03851, 0.67512, -0.29071, -0.38441, -2.44718
7.530, -0.03551, 0.67512, -0.29071, -0.38441, -2.44014
7.540, -0.03251, 0.67512, -0.29071, -0.38441, -2.43310
7.550, -0.02951, 0.67512, -0.29071, -0.38441, -2.42605
7.560, -0.02651, 0.67512, -0.29071, -0.38441, -2.41901
7.570, -0.02351, 0.67512, -0.29071, -0.38441, -2.41197
7.580, -0.02051, 0.67512, -0.29071, -0.38441, -2.40493
7.590, -0.01751, 0.67512, -0.29071, -0.38441, -2.39789
7.600, -0.01451, 0.67512, -0.29071, -0.38441, -2.39085
7.610, -0.01151, 0.67512, -0.29071, -0.38441, -2.38381
7.620, -0.00851, 0.67512, -0.29071, -0.38441, -2.37677
7.630, -0.00551, 0.67512, -0.29071, -0.38441, -2.36973
7.640, -0.00251, 0.67512, -0.29071, -0.38441, -2.36269
7.650, 0.00049, 0.67512, -0.29071, -0.38441, -2.35565
7.660, 0.00349, 0.67512, -0.29071, -0.38441, -2.34861
7.670, 0.00649, 0.67512, -0.29071, -0.38441, -2.34157
7.680, 0.00949, 0.67512, -0.29071, -0.38441, -2.33453
7.690, 0.01249, 0.67512, -0.29071, -0.38441, -2.32749
7.700, 0.01549, 0.67512, -0.29071, -0.38441, -2.32045
7.710, 0.01849, 0.67512, -0.29071, -0.38441, -2.31341
7.720, 0.02149, 0.67512, -0.29071, -0.38441, -2.30637
7.730, 0.02449, 0.67512, -0.29071, -0.38441, -2.29933
7.740, 0.02749, 0.67512, -0.29071, -0.38441, -2.29229
7.750, 0.03049, 0.67512, -0.29071, -0.38441, -2.28525
7.760, 0.03349, 0.67512, -0.29071, -0.38441, -2.27821
7.770, 0.03649, 0.67512, -0.29071, -0.38441, -2.27117
7.780, 0.03949, 0.67512, -0.29071, -0.38441, -2.26413
7.790, 0.04249, 0.67512, -0.29071, -0.38441, -2.25709
7.800, 0.04549, 0.67512, -0.29071, -0.38441, -2.25005
7.810, 0.04849, 0.67512, -0.29071, -0.38441, -2.24301
7.820, 0.05149, 0.67512, -0.29071, -0.38441, -2.23597
7.830, 0.05449, 0.67512, -0.29071, -0.38441, -2.22893
7.840, 0.05749, 0.67512, -0.29071, -0.38441, -2.22189
7.850, 0.06049, 0.67512, -0.29071, -0.38441, -2.21485
7.860, 0.06349, 0.67512, -0.29071, -0.38441, -2.20781
7.870, 0.06649, 0.67512, -0.29071, -0.38441, -2.20077
7.880, 0.06949, 0.67512, -0.29071, -0.38441, -2.19373
7.890, 0.07249, 0.67512, -0.29071, -0.38441, -2.18669
7.900, 0.07549, 0.67512, -0.29071, -0.38441, -2.17965
7.910, 0.07849, 0.67512, -0.29071, -0.38441, -2.17261
7.920, 0.08149, 0.67512, -0.29071, -0.38441, -2.16557
7.930, 0.08449, 0.67512, -0.29071, -0.38441, -2.15853
7.940, 0.08749, 0.67512, -0.29071, -0.38441, -2.15149
7.950, 0.09049, 0.67512, -0.29071, -0.38441, -2.14445
7.960, 0.09349, 0.67512, -0.29071, -0.38441, -2.13741
7.970, 0.09649, 0.67512, -0.29071, -0.38441, -2.13037
7.980, 0.09949, 0.67512, -0.29071, -0.38441, -2.12332
7.990, 0.10249, 0.67512, -0.29071, -0.38441, -2.11628
8.000, 0.10549, 0.67512, -0.29071, -0.38441, -2.10924
8.010, 0.10849, 0.67512, -0.29071, -0.38441, -2.10220
8.020, 0.11149, 0.67512, -0.29071, -0.38441, -2.09516
8.030, 0.11449, 0.67512, -0.29071, -0.38441, -2.08812
8.040, 0.11749, 0.67512, -0.29071, -0.38441, -2.08108
8.050, 0.12049, 0.67512, -0.29071, -0.38441, -2.07404
8.060, 0.12349, 0.67512, -0.29071, -0.38441, -2.06700
8.070, 0.12649, 0.67512, -0.29071, -0.38441, -2.05996
8.080, 0.12949, 0.67512, -0.29071, -0.38441, -2.05292
8.090, 0.13249, 0.67512, -0.29071, -0.38441, -2.04588
8.100, 0.13549, 0.67512, -0.29071, -0.38441, -2.03884
8.110, 0.13849, 0.67512, -0.29071, -0.38441, -2.03180
8.120, 0.14149, 0.67512, -0.29071, -0.38441, -2.02476
8.130, 0.14449, 0.67512, -0.29071, -0.38441, -2.01772
8.140, 0.14749, 0.67512, -0.29071, -0.38441, -2.01068
8.150, 0.15049, 0.67512, -0.29071, -0.38441, -2.00364
8.160, 0.15349, 0.67512, -0.29071, -0.38441, -1.99661
8.170, 0.15649, 0.67512, -0.29071, -0.38441, -1.98958
8.180, 0.15949, 0.67512, -0.29071, -0.38441, -1.98255
8.190, 0.16249, 0.67512, -0.29071, -0.38441, -1.97554
8.200, 0.16549, 0.67512, -0.29071, -0.38441, -1.96853
8.210, 0.16849, 0.67512, -0.29071, -0.38441, -1.96154
8.220, 0.17149, 0.67512, -0.29071, -0.38441, -1.95456
8.230, 0.17449, 0.67512, -0.29071, -0.38441, -1.94759
8.240, 0.17749, 0.67512, -0.29071, -0.38441, -1.94065
8.250, 0.18049, 0.67512, -0.29071, -0.38441, -1.93372
8.260, 0.18349, 0.67512, -0.29071, -0.38441, -1.92682
8.270, 0.18649, 0.67512, -0.29071, -0.38441, -1.91993
8.280, 0.18949, 0.67512, -0.29071, -0.38441, -1.91307
8.290, 0.19249, 0.67512, -0.29071, -0.38441, -1.90624
8.300, 0.19549, 0.67512, -0.29071, -0.38441, -1.89944
8.310, 0.19849, 0.67512, -0.29071, -0.38441, -1.89266
8.320, 0.20149, 0.67512, -0.29071, -0.38441, -1.88592
8.330, 0.20449, 0.67512, -0.29071, -0.38441, -1.87921
8.340, 0.20749, 0.67512, -0.29071, -0.38441, -1.87254
8.350, 0.21049, 0.67512, -0.29071, -0.38441, -1.86590
8.360, 0.21349, 0.67512, -0.29071, -0.38441, -1.85931
8.370, 0.21649, 0.67512, -0.29071, -0.38441, -1.85275
8.380, 0.21949, 0.67512, -0.29071, -0.38441, -1.84624
8.390, 0.22249, 0.67512, -0.29071, -0.38441, -1.83977
8.400, 0.22549, 0.67512, -0.29071, -0.38441, -1.83334
8.410, 0.22849, 0.67512, -0.29071, -0.38441, -1.82697
8.420, 0.23149, 0.67512, -0.29071, -0.38441, -1.82064
8.430, 0.23449, 0.67512, -0.29071, -0.38441, -1.81436
8.440, 0.23749, 0.67512, -0.29071, -0.38441, -1.80814
8.450, 0.24049, 0.67512, -0.29071, -0.38441, -1.80198
8.460, 0.24349, 0.67512, -0.29071, -0.38441, -1.79587
8.470, 0.24648, 0.67512, -0.29071, -0.38441, -1.78981
8.480, 0.24947, 0.67512, -0.29071, -0.38441, -1.78382
8.490, 0.25245, 0.67512, -0.29071, -0.38441, -1.77789
8.500, 0.25542, 0.67512, -0.29071, -0.38441, -1.77203
8.510, 0.25838, 0.67512, -0.29071, -0.38441, -1.76623
8.520, 0.26133, 0.67512, -0.29071, -0.38441, -1.76050
8.530, 0.26426, 0.67512, -0.29071, -0.38441, -1.75484
8.540, 0.26717, 0.67512, -0.29071, -0.38441, -1.74924
8.550, 0.27007, 0.67512, -0.29071, -0.38441, -1.74372
8.560, 0.27294, 0.67512, -0.29071, -0.38441, -1.73828
8.570, 0.27579, 0.67512, -0.29071, -0.38441, -1.73291
8.580, 0.27861, 0.67512, -0.29071, -0.38441, -1.72762
8.590, 0.28140, 0.67512, -0.29071, -0.38441, -1.72241
8.600, 0.28417, 0.67512, -0.29071, -0.38441, -1.71729
8.610, 0.28690, 0.67512, -0.29071, -0.38441, -1.71224
8.620, 0.28960, 0.67512, -0.29071, -0.38441, -1.70728
8.630, 0.29227, 0.67512, -0.29071, -0.38441, -1.70241
8.640, 0.29489, 0.67512, -0.29071, -0.38441, -1.69763
8.650, 0.29748, 0.67512, -0.29071, -0.38441, -1.69294
8.660, 0.30003, 0.67512, -0.29071, -0.38441, -1.68834
8.670, 0.30253, 0.67512, -0.29071, -0.38441, -1.68383
8.680, 0.30500, 0.67512, -0.29071, -0.38441, -1.67942
8.690, 0.30743, 0.67512, -0.29071, -0.38441, -1.67511
8.700, 0.30982, 0.67512, -0.29071, -0.38441, -1.67090
8.710, 0.31216, 0.67512, -0.29071, -0.38441, -1.66679
8.720, 0.31447, 0.67512, -0.29071, -0.38441, -1.66277
8.730, 0.31674, 0.67512, -0.29071, -0.38441, -1.65886
8.740, 0.31896, 0.67512, -0.29071, -0.38441, -1.65504
8.750, 0.32115, 0.67512, -0.29071, -0.38441, -1.65132
8.760, 0.32330, 0.67512, -0.29071, -0.38441, -1.64771
8.770, 0.32540, 0.67512, -0.29071, -0.38441, -1.64419
8.780, 0.32747, 0.67512, -0.29071, -0.38441, -1.64077
8.790, 0.32950, 0.67512, -0.29071, -0.38441, -1.63745
8.800, 0.33148, 0.67512, -0.29071, -0.38441, -1.63423
8.810, 0.33343, 0.67512, -0.29071, -0.38441, -1.63111
8.820, 0.33534, 0.67512, -0.29071, -0.38441, -1.62809
8.830, 0.33721, 0.67512, -0.29071, -0.38441, -1.62516
8.840, 0.33903, 0.67512, -0.29071, -0.38441, -1.62234
8.850, 0.34082, 0.67512, -0.29071, -0.38441, -1.61961
8.860, 0.34257, 0.67512, -0.29071, -0.38441, -1.61698
8.870, 0.34427, 0.67512, -0.29071, -0.38441, -1.61445
8.880, 0.34594, 0.67512, -0.29071, -0.38441, -1.61202
8.890, 0.34757, 0.67512, -0.29071, -0.38441, -1.60967
8.900, 0.34915, 0.67512, -0.29071, -0.38441, -1.60742
8.910, 0.35070, 0.67512, -0.29071, -0.38441, -1.60525
8.920, 0.35221, 0.67512, -0.29071, -0.38441, -1.60317
8.930, 0.35367, 0.67512, -0.29071, -0.38441, -1.60118
8.940, 0.35510, 0.67512, -0.29071, -0.38441, -1.59927
8.950, 0.35649, 0.67512, -0.29071, -0.38441, -1.59744
8.960, 0.35784, 0.67512, -0.29071, -0.38441, -1.59570
8.970, 0.35914, 0.67512, -0.29071, -0.38441, -1.59403
8.980, 0.36041, 0.67512, -0.29071, -0.38441, -1.59243
8.990, 0.36164, 0.67512, -0.29071, -0.38441, -1.59092
9.000, 0.36282, 0.67512, -0.29071, -0.38441, -1.58947
9.010, 0.36397, 0.67512, -0.29071, -0.38441, -1.58809
9.020, 0.36508, 0.67512, -0.29071, -0.38441, -1.58679
9.030, 0.36614, 0.67512, -0.29071, -0.38441, -1.58555
9.040, 0.36717, 0.67512, -0.29071, -0.38441, -1.58438
9.050, 0.36816, 0.67512, -0.29071, -0.38441, -1.58327
9.060, 0.36910, 0.67512, -0.29071, -0.38441, -1.58222
9.070, 0.37001, 0.67512, -0.29071, -0.38441, -1.58124
9.080, 0.37088, 0.67512, -0.29071, -0.38441, -1.58031
9.090, 0.37171, 0.67512, -0.29071, -0.38441, -1.57944
9.100, 0.37249, 0.67512, -0.29071, -0.38441, -1.57862
9.110, 0.37324, 0.67512, -0.29071, -0.38441, -1.57786
9.120, 0.37395, 0.67512, -0.29071, -0.38441, -1.57715
9.130, 0.37461, 0.67512, -0.29071, -0.38441, -1.57648
9.140, 0.37524, 0.67512, -0.29071, -0.38441, -1.57587
9.150, 0.37583, 0.67512, -0.29071, -0.38441, -1.57530
9.160, 0.37637, 0.67512, -0.29071, -0.38441, -1.57478
9.170, 0.37688, 0.67512, -0.29071, -0.38441, -1.57429
9.180, 0.37735, 0.67512, -0.29071, -0.38441, -1.57385
9.190, 0.37777, 0.67512, -0.29071, -0.38441, -1.57345
9.200, 0.37816, 0.67512, -0.29071, -0.38441, -1.57308
9.210, 0.37851, 0.67512, -0.29071, -0.38441, -1.57275
9.220, 0.37882, 0.67512, -0.29071, -0.38441, -1.57246
9.230, 0.37910, 0.67512, -0.29071, -0.38441, -1.57219
9.240, 0.37935, 0.67512, -0.29071, -0.38441, -1.57196
9.250, 0.37956, 0.67512, -0.29071, -0.38441, -1.57175
9.260, 0.37975, 0.67512, -0.29071, -0.38441, -1.57157
9.270, 0.37991, 0.67512, -0.29071, -0.38441, -1.57141
9.280, 0.38005, 0.67512, -0.29071, -0.38441, -1.57128
9.290, 0.38016, 0.67512, -0.29071, -0.38441, -1.57117
9.300, 0.38025, 0.67512, -0.29071, -0.38441, -1.57107
9.310, 0.38033, 0.67512, -0.29071, -0.38441, -1.57100
9.320, 0.38039, 0.67512, -0.29071, -0.38441, -1.57094
9.330, 0.38043, 0.67512, -0.29071, -0.38441, -1.57089
9.340, 0.38046, 0.67512, -0.29071, -0.38441, -1.57085
9.350, 0.38049, 0.67512, -0.29071, -0.38441, -1.57083
9.360, 0.38050, 0.67512, -0.29071, -0.38441, -1.57081
9.370, 0.38051, 0.67512, -0.29071, -0.38441, -1.57081
9.380, 0.38051, 0.67512, -0.29071, -0.38441, -1.57080
9.390, 0.38051, 0.67512, -0.29071, -0.38441, -1.57080
9.400, 0.38051, 0.67512, -0.29071, -0.38441, -1.57080
9.410, 0.38051, 0.67512, -0.29071, -0.38441, -1.57080
9.420, 0.38051, 0.67512, -0.29071, -0.38441, -1.57080
9.430, 0.38051, 0.67512, -0.29071, -0.38441, -1.57080
9.440, 0.38051, 0.67512, -0.29071, -0.38441, -1.57080
9.450, 0.38051, 0.67512, -0.29071, -0.38441, -1.57080
9.460, 0.38051, 0.67512, -0.29071, -0.38441, -1.57080
9.470, 0.38051, 0.67512, -0.29071, -0.38441, -1.57080
9.480, 0.38051, 0.67512, -0.29071, -0.38441, -1.57080
9.490, 0.38051, 0.67512, -0.29071, -0.38441, -1.57080
9.500, 0.38051, 0.67512, -0.29071, -0.38441, -1.57080
9.510, 0.38051, 0.67512, -0.29071, -0.38441, -1.57080
9.520, 0.38051, 0.67512, -0.29071, -0.38441, -1.57080
9.530, 0.38051, 0.67512, -0.29071, -0.38441, -1.57080
9.540, 0.38051, 0.67512, -0.29071, -0.38441, -1.57080
9.550, 0.38051, 0.67512, -0.29071, -0.38441, -1.57080
9.560, 0.38051, 0.67512, -0.29071, -0.38441, -1.57080
9.570, 0.38051, 0.67512, -0.29071, -0.38441, -1.57080
9.580, 0.38051, 0.67512, -0.29071, -0.38441, -1.57080
9.590, 0.38051, 0.67512, -0.29071, -0.38441, -1.57080
9.600, 0.38051, 0.67512, -0.29071, -0.38441, -1.57080
9.610, 0.38051, 0.67512, -0.29071, -0.38441, -1.57080
9.620, 0.38051, 0.67512, -0.29071, -0.38441, -1.57080
9.630, 0.38051, 0.67512, -0.29071, -0.38441, -1.57080
9.640, 0.38051, 0.67512, -0.29071, -0.38441, -1.57080
9.650, 0.38051, 0.67512, -0.29071, -0.38441, -1.57080
9.660, 0.38051, 0.67512, -0.29071, -0.38441, -1.57080
9.670, 0.38051, 0.67512, -0.29071, -0.38441, -1.57080
9.680, 0.38051, 0.67512, -0.29071, -0.38441, -1.57080
9.690, 0.38051, 0.67512, -0.29071, -0.38441, -1.57080
9.700, 0.38051, 0.67512, -0.29071, -0.38441, -1.57080
9.710, 0.38051, 0.67512, -0.29071, -0.38441, -1.57080
9.720, 0.38051, 0.67512, -0.29071, -0.38441, -1.57080
9.730, 0.38051, 0.67512, -0.29071, -0.38441, -1.57080
9.740, 0.38051, 0.67512, -0.29071, -0.38441, -1.57080
9.750, 0.38051, 0.67512, -0.29071, -0.38441, -1.57080
9.760, 0.38051, 0.67512, -0.29071, -0.38441, -1.57080
9.770, 0.38051, 0.67512, -0.29071, -0.38441, -1.57080
9.780, 0.38051, 0.67512, -0.29071, -0.38441, -1.57080
9.790, 0.38051, 0.67512, -0.29071, -0.38441, -1.57080
9.800, 0.38051, 0.67512, -0.29071, -0.38441, -1.57080
9.810, 0.38051, 0.67512, -0.29071, -0.38441, -1.57080
9.820, 0.38051, 0.67512, -0.29071, -0.38441, -1.57080
9.830, 0.38051, 0.67512, -0.29071, -0.38441, -1.57080
9.840, 0.38051, 0.67512, -0.29071, -0.38442, -1.57080
9.850, 0.38051, 0.67512, -0.29071, -0.38442, -1.57080
9.860, 0.38051, 0.67512, -0.29071, -0.38442, -1.57080
9.870, 0.38051, 0.67512, -0.29071, -0.38442, -1.57080
9.880, 0.38051, 0.67512, -0.29071, -0.38442, -1.57080
9.890, 0.38051, 0.67512, -0.29071, -0.38442, -1.57080
9.900, 0.38051, 0.67512, -0.29071, -0.38442, -1.57080
9.910, 0.38051, 0.67512, -0.29071, -0.38442, -1.57080
9.920, 0.38051, 0.67512, -0.29071, -0.38442, -1.57080
9.930, 0.38051, 0.67512, -0.29071, -0.38442, -1.57080
9.940, 0.38051, 0.67512, -0.29071, -0.38442, -1.57080
9.950, 0.38051, 0.67512, -0.29071, -0.38442, -1.57081
9.960, 0.38051, 0.67512, -0.29071, -0.38442, -1.57081
9.970, 0.38051, 0.67512, -0.29071, -0.38442, -1.57081
9.980, 0.38051, 0.67512, -0.29071, -0.38442, -1.57081
9.990, 0.38051, 0.67512, -0.29071, -0.38442, -1.57081
10.000, 0.38051, 0.67512, -0.29071, -0.38442, -1.57081
10.010, 0.38051, 0.67512, -0.29071, -0.38442, -1.57081
10.020, 0.38051, 0.67512, -0.29071, -0.38442, -1.57081
10.030, 0.38051, 0.67512, -0.29071, -0.38442, -1.57081
10.040, 0.38051, 0.67512, -0.29071, -0.38442, -1.57081
10.050, 0.38051, 0.67512, -0.29071, -0.38442, -1.57081
10.060, 0.38051, 0.67512, -0.29071, -0.38442, -1.57081
10.070, 0.38051, 0.67512, -0.29071, -0.38442, -1.57081
10.080, 0.38051, 0.67512, -0.29071, -0.38442, -1.57081
10.090, 0.38051, 0.67512, -0.29071, -0.38442, -1.57081
10.100, 0.38051, 0.67512, -0.29071, -0.38442, -1.57081
10.110, 0.38051, 0.67512, -0.29071, -0.38442, -1.57081
10.120, 0.38051, 0.67512, -0.29071, -0.38442, -1.57081
10.130, 0.38051, 0.67512, -0.29071, -0.38442, -1.57081
10.140, 0.38051, 0.67512, -0.29071, -0.38442, -1.57081
10.150, 0.38051, 0.67512, -0.29071, -0.38442, -1.57081
10.160, 0.38051, 0.67512, -0.29071, -0.38442, -1.57081
10.170, 0.38051, 0.67512, -0.29071, -0.38442, -1.57081
10.180, 0.38051, 0.67512, -0.29071, -0.38442, -1.57081
10.190, 0.38051, 0.67512, -0.29071, -0.38442, -1.57081
10.200, 0.38051, 0.67512, -0.29071, -0.38442, -1.57081
10.210, 0.38051, 0.67512, -0.29071, -0.38442, -1.57081
10.220, 0.38051, 0.67512, -0.29071, -0.38442, -1.57081
10.230, 0.38051, 0.67512, -0.29071, -0.38442, -1.57081
10.240, 0.38051, 0.67512, -0.29071, -0.38441, -1.57081
10.250, 0.38051, 0.67512, -0.29071, -0.38441, -1.57081
10.260, 0.38051, 0.67512, -0.29071, -0.38441, -1.57081
10.270, 0.38051, 0.67512, -0.29071, -0.38441, -1.57080
10.280, 0.38051, 0.67512, -0.29071, -0.38441, -1.57080
10.290, 0.38051, 0.67512, -0.29071, -0.38441, -1.57080
10.300, 0.38051, 0.67512, -0.29071, -0.38441, -1.57080
10.310, 0.38051, 0.67512, -0.29071, -0.38441, -1.57080
10.320, 0.38051, 0.67512, -0.29071, -0.38441, -1.57080
10.330, 0.38051, 0.67512, -0.29071, -0.38441, -1.57080
10.340, 0.38051, 0.67512, -0.29071, -0.38441, -1.57080
10.350, 0.38051, 0.67512, -0.29071, -0.38441, -1.57080
10.360, 0.38051, 0.67512, -0.29071, -0.38441, -1.57080
10.370, 0.38051, 0.67512, -0.29071, -0.38441, -1.57080
10.380, 0.38051, 0.67512, -0.29071, -0.38441, -1.57080
10.390, 0.38051, 0.67512, -0.29071, -0.38441, -1.57080
10.400, 0.38051, 0.67512, -0.29071, -0.38441, -1.57080
10.410, 0.38051, 0.67512, -0.29072, -0.38440, -1.57079
10.420, 0.38051, 0.67512, -0.29072, -0.38439, -1.57077
10.430, 0.38051, 0.67511, -0.29074, -0.38438, -1.57075
10.440, 0.38051, 0.67510, -0.29077, -0.38436, -1.57071
10.450, 0.38051, 0.67509, -0.29080, -0.38432, -1.57065
10.460, 0.38051, 0.67508, -0.29085, -0.38428, -1.57057
10.470, 0.38051, 0.67506, -0.29091, -0.38422, -1.57047
10.480, 0.38051, 0.67504, -0.29100, -0.38415, -1.57034
10.490, 0.38051, 0.67501, -0.29109, -0.38407, -1.57018
10.500, 0.38051, 0.67497, -0.29122, -0.38396, -1.56999
10.510, 0.38051, 0.67493, -0.29136, -0.38384, -1.56977
10.520, 0.38051, 0.67488, -0.29153, -0.38369, -1.56951
10.530, 0.38051, 0.67483, -0.29173, -0.38353, -1.56920
10.540, 0.38051, 0.67476, -0.29195, -0.38334, -1.56886
10.550, 0.38051, 0.67469, -0.29221, -0.38312, -1.56846
10.560, 0.38051, 0.67461, -0.29250, -0.38288, -1.56802
10.570, 0.38051, 0.67452, -0.29282, -0.38261, -1.56752
10.580, 0.38051, 0.67442, -0.29318, -0.38231, -1.56696
10.590, 0.38051, 0.67431, -0.29358, -0.38198, -1.56635
10.600, 0.38051, 0.67418, -0.29402, -0.38161, -1.56567
10.610, 0.38051, 0.67405, -0.29450, -0.38121, -1.56493
10.620, 0.38051, 0.67390, -0.29503, -0.38077, -1.56413
10.630, 0.38051, 0.67374, -0.29561, -0.38029, -1.56325
10.640, 0.38051, 0.67357, -0.29623, -0.37978, -1.56229
10.650, 0.38051, 0.67338, -0.29691, -0.37922, -1.56126
10.660, 0.38051, 0.67317, -0.29764, -0.37862, -1.56015
10.670, 0.38051, 0.67296, -0.29842, -0.37797, -1.55896
10.680, 0.38051, 0.67272, -0.29927, -0.37728, -1.55768
10.690, 0.38051, 0.67247, -0.30016, -0.37654, -1.55631
10.700, 0.38051, 0.67221, -0.30113, -0.37575, -1.55484
10.710, 0.38051, 0.67192, -0.30215, -0.37491, -1.55329
10.720, 0.38051, 0.67162, -0.30324, -0.37402, -1.55163
10.730, 0.38051, 0.67130, -0.30440, -0.37308, -1.54988
10.740, 0.38051, 0.67096, -0.30562, -0.37207, -1.54802
10.750, 0.38051, 0.67060, -0.30691, -0.37101, -1.54605
10.760, 0.38051, 0.67022, -0.30828, -0.36989, -1.54398
10.770, 0.38051, 0.66982, -0.30972, -0.36872, -1.54179
10.780, 0.38051, 0.66940, -0.31122, -0.36747, -1.53948
10.790, 0.38051, 0.66896, -0.31279, -0.36617, -1.53706
10.800, 0.38051, 0.66850, -0.31444, -0.36480, -1.53451
10.810, 0.38051, 0.66801, -0.31615, -0.36336, -1.53184
10.820, 0.38051, 0.66750, -0.31794, -0.36185, -1.52904
10.830, 0.38051, 0.66697, -0.31980, -0.36028, -1.52611
10.840, 0.38051, 0.66641, -0.32172, -0.35863, -1.52305
10.850, 0.38051, 0.66582, -0.32371, -0.35691, -1.51985
10.860, 0.38051, 0.66521, -0.32578, -0.35511, -1.51651
10.870, 0.38051, 0.66458, -0.32791, -0.35324, -1.51303
10.880, 0.38051, 0.66392, -0.33012, -0.35129, -1.50940
10.890, 0.38051, 0.66323, -0.33240, -0.34925, -1.50564
10.900, 0.38051, 0.66251, -0.33474, -0.34714, -1.50174
10.910, 0.38051, 0.66177, -0.33715, -0.34495, -1.49770
10.920, 0.38051, 0.66099, -0.33963, -0.34267, -1.49352
10.930, 0.38051, 0.66019, -0.34216, -0.34030, -1.48921
10.940, 0.38051, 0.65936, -0.34476, -0.33785, -1.48475
10.950, 0.38051, 0.65849, -0.34742, -0.33530, -1.48015
10.960, 0.38051, 0.65760, -0.35014, -0.33267, -1.47541
10.970, 0.38051, 0.65668, -0.35291, -0.32994, -1.47053
10.980, 0.38051, 0.65573, -0.35574, -0.32712, -1.46551
10.990, 0.38051, 0.65475, -0.35861, -0.32421, -1.46035
11.000, 0.38051, 0.65374, -0.36153, -0.32121, -1.45506
11.010, 0.38051, 0.65270, -0.36451, -0.31811, -1.44963
11.020, 0.38051, 0.65164, -0.36752, -0.31493, -1.44407
11.030, 0.38051, 0.65054, -0.37058, -0.31165, -1.43838
11.040, 0.38051, 0.64941, -0.37368, -0.30828, -1.43256
11.050, 0.38051, 0.64826, -0.37682, -0.30482, -1.42663
11.060, 0.38051, 0.64707, -0.37999, -0.30126, -1.42057
11.070, 0.38051, 0.64585, -0.38321, -0.29761, -1.41440
11.080, 0.38051, 0.64461, -0.38645, -0.29388, -1.40812
11.090, 0.38051, 0.64334, -0.38972, -0.29004, -1.40173
11.100, 0.38051, 0.64203, -0.39303, -0.28612, -1.39523
11.110, 0.38051, 0.64070, -0.39636, -0.28211, -1.38862
11.120, 0.38051, 0.63934, -0.39972, -0.27800, -1.38192
11.130, 0.38051, 0.63794, -0.40310, -0.27380, -1.37511
11.140, 0.38051, 0.63652, -0.40649, -0.26951, -1.36821
11.150, 0.38051, 0.63507, -0.40991, -0.26514, -1.36122
11.160, 0.38051, 0.63359, -0.41335, -0.26067, -1.35414
11.170, 0.38051, 0.63208, -0.41680, -0.25612, -1.34697
11.180, 0.38051, 0.63055, -0.42026, -0.25149, -1.33973
11.190, 0.38051, 0.62898, -0.42374, -0.24677, -1.33240
11.200, 0.38051, 0.62739, -0.42722, -0.24198, -1.32499
11.210, 0.38051, 0.62577, -0.43071, -0.23710, -1.31751
11.220, 0.38051, 0.62412, -0.43421, -0.23215, -1.30996
11.230, 0.38051, 0.62245, -0.43771, -0.22712, -1.30234
11.240, 0.38051, 0.62075, -0.44121, -0.22202, -1.29465
11.250, 0.38051, 0.61903, -0.44471, -0.21685, -1.28690
11.260, 0.38051, 0.61728, -0.44821, -0.21160, -1.27910
11.270, 0.38051, 0.61551, -0.45171, -0.20629, -1.27123
11.280, 0.38051, 0.61372, -0.45521, -0.20090, -1.26332
11.290, 0.38051, 0.61190, -0.45871, -0.19546, -1.25535
11.300, 0.38051, 0.61007, -0.46221, -0.18994, -1.24734
11.310, 0.38051, 0.60821, -0.46571, -0.18437, -1.23928
11.320, 0.38051, 0.60633, -0.46921, -0.17873, -1.23118
11.330, 0.38051, 0.60443, -0.47271, -0.17303, -1.22305
11.340, 0.38051, 0.60251, -0.47621, -0.16728, -1.21487
11.350, 0.38051, 0.60057, -0.47971, -0.16147, -1.20667
11.360, 0.38051, 0.59861, -0.48321, -0.15560, -1.19844
11.370, 0.38051, 0.59663, -0.48671, -0.14968, -1.19018
11.380, 0.38051, 0.59464, -0.49021, -0.14371, -1.18189
11.390, 0.38051, 0.59263, -0.49371, -0.13769, -1.17359
11.400, 0.38051, 0.59060, -0.49721, -0.13162, -1.16527
11.410, 0.38051, 0.58856, -0.50071, -0.12550, -1.15694
11.420, 0.38051, 0.58650, -0.50421, -0.11934, -1.14859
11.430, 0.38051, 0.58443, -0.50771, -0.11313, -1.14024
11.440, 0.38051, 0.58234, -0.51121, -0.10688, -1.13188
11.450, 0.38051, 0.58024, -0.51471, -0.10059, -1.12351
11.460, 0.38051, 0.57812, -0.51821, -0.09427, -1.11515
11.470, 0.38051, 0.57599, -0.52171, -0.08790, -1.10679
11.480, 0.38051, 0.57385, -0.52521, -0.08150, -1.09843
11.490, 0.38051, 0.57170, -0.52871, -0.07506, -1.09007
11.500, 0.38051, 0.56954, -0.53221, -0.06860, -1.08171
11.510, 0.38051, 0.56737, -0.53571, -0.06210, -1.07334
11.520, 0.38051, 0.56518, -0.53921, -0.05557, -1.06498
11.530, 0.38051, 0.56299, -0.54271, -0.04901, -1.05662
11.540, 0.38051, 0.56079, -0.54621, -0.04243, -1.04826
11.550, 0.38051, 0.55858, -0.54971, -0.03582, -1.03990
11.560, 0.38051, 0.55636, -0.55321, -0.02919, -1.03153
11.570, 0.38051, 0.55414, -0.55671, -0.02254, -1.02317
11.580, 0.38051, 0.55190, -0.56021, -0.01587, -1.01481
11.590, 0.38051, 0.54967, -0.56371, -0.00918, -1.00645
11.600, 0.38051, 0.54742, -0.56721, -0.00248, -0.99809
11.610, 0.38051, 0.54517, -0.57071, 0.00424, -0.98973
11.620, 0.38051, 0.54292, -0.57421, 0.01098, -0.98136
11.630, 0.38051, 0.54066, -0.57771, 0.01772, -0.97300
11.640, 0.38051, 0.53840, -0.58121, 0.02448, -0.96464
11.650, 0.38051, 0.53614, -0.58471, 0.03124, -0.95628
11.660, 0.38051, 0.53387, -0.58821, 0.03801, -0.94792
11.670, 0.38051, 0.53161, -0.59171, 0.04479, -0.93956
11.680, 0.38051, 0.52934, -0.59521, 0.05157, -0.93119
11.690, 0.38051, 0.52707, -0.59871, 0.05835, -0.92283
11.700, 0.38051, 0.52480, -0.60221, 0.06514, -0.91447
11.710, 0.38051, 0.52253, -0.60571, 0.07192, -0.90611
11.720, 0.38051, 0.52026, -0.60921, 0.07870, -0.89775
11.730, 0.38051, 0.51799, -0.61271, 0.08549, -0.88938
11.740, 0.38051, 0.51572, -0.61621, 0.09227, -0.88102
11.750, 0.38051, 0.51345, -0.61971, 0.09905, -0.87266
11.760, 0.38051, 0.51118, -0.62321, 0.10584, -0.86430
11.770, 0.38051, 0.50891, -0.62671, 0.11262, -0.85594
11.780, 0.38051, 0.50664, -0.63021, 0.11940, -0.84758
11.790, 0.38051, 0.50437, -0.63371, 0.12619, -0.83921
11.800, 0.38051, 0.50210, -0.63721, 0.13297, -0.83085
11.810, 0.38051, 0.49983, -0.64071, 0.13975, -0.82249
11.820, 0.38051, 0.49756, -0.64421, 0.14654, -0.81413
11.830, 0.38051, 0.49529, -0.64771, 0.15332, -0.80577
11.840, 0.38051, 0.49302, -0.65121, 0.16010, -0.79741
11.850, 0.38051, 0.49075, -0.65471, 0.16689, -0.78904
11.860, 0.38051, 0.48849, -0.65821, 0.17367, -0.78068
11.870, 0.38051, 0.48622, -0.66171, 0.18045, -0.77232
11.880, 0.38051, 0.48395, -0.66521, 0.18724, -0.76396
11.890, 0.38051, 0.48168, -0.66871, 0.19402, -0.75560
11.900, 0.38051, 0.47941, -0.67221, 0.20080, -0.74723
11.910, 0.38051, 0.47714, -0.67571, 0.20759, -0.73887
11.920, 0.38051, 0.47487, -0.67921, 0.21437, -0.73051
11.930, 0.38051, 0.47260, -0.68271, 0.22115, -0.72215
11.940, 0.38051, 0.47033, -0.68621, 0.22794, -0.71379
11.950, 0.38051, 0.46806, -0.68971, 0.23472, -0.70543
11.960, 0.38051, 0.46579, -0.69321, 0.24150, -0.69706
11.970, 0.38051, 0.46352, -0.69671, 0.24829, -0.68870
11.980, 0.38051, 0.46125, -0.70021, 0.25507, -0.68034
11.990, 0.38051, 0.45898, -0.70371, 0.26185, -0.67198
12.000, 0.38051, 0.45671, -0.70721, 0.26864, -0.66362
12.010, 0.38051, 0.45444, -0.71071, 0.27542, -0.65525
12.020, 0.38051, 0.45217, -0.71421, 0.28220, -0.64689
12.030, 0.38051, 0.44990, -0.71771, 0.28898, -0.63853
12.040, 0.38051, 0.44763, -0.72121, 0.29576, -0.63017
12.050, 0.38051, 0.44537, -0.72471, 0.30253, -0.62181
12.060, 0.38051, 0.44310, -0.72821, 0.30929, -0.61345
12.070, 0.38051, 0.44084, -0.73171, 0.31605, -0.60508
12.080, 0.38051, 0.43858, -0.73521, 0.32279, -0.59672
12.090, 0.38051, 0.43632, -0.73871, 0.32952, -0.58836
12.100, 0.38051, 0.43407, -0.74221, 0.33624, -0.58000
12.110, 0.38051, 0.43182, -0.74571, 0.34294, -0.57164
12.120, 0.38051, 0.42958, -0.74921, 0.34963, -0.56328
12.130, 0.38051, 0.42734, -0.75271, 0.35630, -0.55491
12.140, 0.38051, 0.42511, -0.75621, 0.36295, -0.54655
12.150, 0.38051, 0.42289, -0.75971, 0.36957, -0.53819
12.160, 0.38051, 0.42067, -0.76321, 0.37617, -0.52983
12.170, 0.38051, 0.41846, -0.76671, 0.38275, -0.52147
12.180, 0.38051, 0.41626, -0.77021, 0.38931, -0.51310
12.190, 0.38051, 0.41407, -0.77371, 0.39583, -0.50474
12.200, 0.38051, 0.41189, -0.77721, 0.40232, -0.49638
12.210, 0.38051, 0.40972, -0.78071, 0.40879, -0.48802
12.220, 0.38051, 0.40756, -0.78421, 0.41522, -0.47966
12.230, 0.38051, 0.40541, -0.78771, 0.42161, -0.47130
12.240, 0.38051, 0.40327, -0.79121, 0.42797, -0.46293
12.250, 0.38051, 0.40114, -0.79471, 0.43430, -0.45457
12.260, 0.38051, 0.39903, -0.79821, 0.44058, -0.44621
12.270, 0.38051, 0.39693, -0.80171, 0.44682, -0.43785
12.280, 0.38051, 0.39485, -0.80521, 0.45302, -0.42949
12.290, 0.38051, 0.39277, -0.80871, 0.45918, -0.42114
12.300, 0.38051, 0.39072, -0.81221, 0.46529, -0.41279
12.310, 0.38051, 0.38868, -0.81571, 0.47135, -0.40446
12.320, 0.38051, 0.38665, -0.81921, 0.47736, -0.39614
12.330, 0.38051, 0.38464, -0.82271, 0.48333, -0.38784
12.340, 0.38051, 0.38265, -0.82621, 0.48924, -0.37956
12.350, 0.38051, 0.38068, -0.82971, 0.49510, -0.37130
12.360, 0.38051, 0.37873, -0.83321, 0.50090, -0.36307
12.370, 0.38051, 0.37679, -0.83671, 0.50665, -0.35487
12.380, 0.38051, 0.37487, -0.84021, 0.51234, -0.34671
12.390, 0.38051, 0.37298, -0.84371, 0.51797, -0.33857
12.400, 0.38051, 0.37110, -0.84721, 0.52353, -0.33048
12.410, 0.38051, 0.36924, -0.85071, 0.52904, -0.32243
12.420, 0.38051, 0.36741, -0.85421, 0.53448, -0.31442
12.430, 0.38051, 0.36560, -0.85771, 0.53985, -0.30646
12.440, 0.38051, 0.36381, -0.86121, 0.54515, -0.29855
12.450, 0.38051, 0.36204, -0.86471, 0.55039, -0.29070
12.460, 0.38051, 0.36030, -0.86821, 0.55555, -0.28290
12.470, 0.38051, 0.35858, -0.87171, 0.56064, -0.27516
12.480, 0.38051, 0.35689, -0.87521, 0.56566, -0.26748
12.490, 0.38051, 0.35522, -0.87871, 0.57060, -0.25987
12.500, 0.38051, 0.35358, -0.88220, 0.57546, -0.25233
12.510, 0.38051, 0.35196, -0.88569, 0.58025, -0.24485
12.520, 0.38051, 0.35037, -0.88918, 0.58495, -0.23746
12.530, 0.38051, 0.34881, -0.89265, 0.58957, -0.23014
12.540, 0.38051, 0.34728, -0.89611, 0.59411, -0.22290
12.550, 0.38051, 0.34577, -0.89956, 0.59856, -0.21574
12.560, 0.38051, 0.34430, -0.90299, 0.60292, -0.20868
12.570, 0.38051, 0.34285, -0.90641, 0.60720, -0.20170
12.580, 0.38051, 0.34144, -0.90981, 0.61139, -0.19481
12.590, 0.38051, 0.34005, -0.91318, 0.61548, -0.18802
12.600, 0.38051, 0.33869, -0.91654, 0.61948, -0.18132
12.610, 0.38051, 0.33736, -0.91986, 0.62339, -0.17473
12.620, 0.38051, 0.33606, -0.92316, 0.62721, -0.16825
12.630, 0.38051, 0.33480, -0.92643, 0.63093, -0.16187
12.640, 0.38051, 0.33356, -0.92967, 0.63457, -0.15560
12.650, 0.38051, 0.33235, -0.93288, 0.63811, -0.14944
12.660, 0.38051, 0.33116, -0.93605, 0.64156, -0.14340
12.670, 0.38051, 0.33001, -0.93918, 0.64491, -0.13748
12.680, 0.38051, 0.32889, -0.94228, 0.64818, -0.13168
12.690, 0.38051, 0.32780, -0.94533, 0.65135, -0.12601
12.700, 0.38051, 0.32673, -0.94834, 0.65443, -0.12047
12.710, 0.38051, 0.32570, -0.95130, 0.65742, -0.11506
12.720, 0.38051, 0.32470, -0.95422, 0.66032, -0.10978
12.730, 0.38051, 0.32372, -0.95709, 0.66313, -0.10464
12.740, 0.38051, 0.32278, -0.95990, 0.66584, -0.09964
12.750, 0.38051, 0.32186, -0.96266, 0.66846, -0.09478
12.760, 0.38051, 0.32097, -0.96537, 0.67099, -0.09005
12.770, 0.38051, 0.32012, -0.96802, 0.67343, -0.08547
12.780, 0.38051, 0.31929, -0.97061, 0.67578, -0.08103
12.790, 0.38051, 0.31849, -0.97314, 0.67805, -0.07673
12.800, 0.38051, 0.31772, -0.97561, 0.68024, -0.07257
12.810, 0.38051, 0.31698, -0.97801, 0.68234, -0.06855
12.820, 0.38051, 0.31627, -0.98034, 0.68436, -0.06466
12.830, 0.38051, 0.31558, -0.98261, 0.68630, -0.06092
12.840, 0.38051, 0.31493, -0.98480, 0.68816, -0.05732
12.850, 0.38051, 0.31430, -0.98693, 0.68994, -0.05386
12.860, 0.38051, 0.31369, -0.98898, 0.69165, -0.05053
12.870, 0.38051, 0.31311, -0.99097, 0.69329, -0.04735
12.880, 0.38051, 0.31256, -0.99288, 0.69486, -0.04430
12.890, 0.38051, 0.31203, -0.99472, 0.69635, -0.04139
12.900, 0.38051, 0.31152, -0.99650, 0.69778, -0.03861
12.910, 0.38051, 0.31104, -0.99820, 0.69914, -0.03595
12.920, 0.38051, 0.31057, -0.99984, 0.70044, -0.03342
12.930, 0.38051, 0.31014, -1.00140, 0.70167, -0.03101
12.940, 0.38051, 0.30972, -1.00290, 0.70284, -0.02872
12.950, 0.38051, 0.30932, -1.00432, 0.70395, -0.02655
12.960, 0.38051, 0.30895, -1.00568, 0.70500, -0.02449
12.970, 0.38051, 0.30859, -1.00696, 0.70600, -0.02254
12.980, 0.38051, 0.30826, -1.00817, 0.70694, -0.02069
12.990, 0.38051, 0.30794, -1.00932, 0.70782, -0.01895
13.000, 0.38051, 0.30764, -1.01040, 0.70865, -0.01731
13.010, 0.38051, 0.30736, -1.01141, 0.70943, -0.01576
13.020, 0.38051, 0.30709, -1.01237, 0.71017, -0.01431
13.030, 0.38051, 0.30685, -1.01326, 0.71085, -0.01296
13.040, 0.38051, 0.30662, -1.01409, 0.71149, -0.01169
13.050, 0.38051, 0.30640, -1.01486, 0.71208, -0.01050
13.060, 0.38051, 0.30620, -1.01558, 0.71264, -0.00940
13.070, 0.38051, 0.30602, -1.01625, 0.71315, -0.00838
13.080, 0.38051, 0.30584, -1.01687, 0.71362, -0.00744
13.090, 0.38051, 0.30568, -1.01744, 0.71405, -0.00657
13.100, 0.38051, 0.30554, -1.01796, 0.71445, -0.00577
13.110, 0.38051, 0.30541, -1.01844, 0.71481, -0.00503
13.120, 0.38051, 0.30528, -1.01887, 0.71513, -0.00437
13.130, 0.38051, 0.30517, -1.01927, 0.71543, -0.00376
13.140, 0.38051, 0.30507, -1.01962, 0.71570, -0.00322
13.150, 0.38051, 0.30499, -1.01994, 0.71594, -0.00272
13.160, 0.38051, 0.30491, -1.02022, 0.71615, -0.00229
13.170, 0.38051, 0.30483, -1.02048, 0.71633, -0.00190
13.180, 0.38051, 0.30477, -1.02070, 0.71650, -0.00155
13.190, 0.38051, 0.30472, -1.02089, 0.71664, -0.00126
13.200, 0.38051, 0.30467, -1.02105, 0.71676, -0.00100
13.210, 0.38051, 0.30463, -1.02119, 0.71686, -0.00078
13.220, 0.38051, 0.30460, -1.02131, 0.71694, -0.00059
13.230, 0.38051, 0.30457, -1.02141, 0.71701, -0.00044
13.240, 0.38051, 0.30455, -1.02149, 0.71707, -0.00032
13.250, 0.38051, 0.30453, -1.02155, 0.71711, -0.00022
13.260, 0.38051, 0.30452, -1.02160, 0.71714, -0.00014
13.270, 0.38051, 0.30451, -1.02163, 0.71716, -0.00009
13.280, 0.38051, 0.30450, -1.02165, 0.71718, -0.00005
13.290, 0.38051, 0.30449, -1.02167, 0.71718, -0.00002
13.300, 0.38051, 0.30449, -1.02168, 0.71719, -0.00001
13.310, 0.38051, 0.30449, -1.02168, 0.71719, -0.00000
13.320, 0.38051, 0.30449, -1.02168, 0.71719, 0.00000
13.330, 0.38051, 0.30449, -1.02168, 0.71719, 0.00000
13.340, 0.38051, 0.30449, -1.02168, 0.71719, 0.00000
13.350, 0.38051, 0.30449, -1.02168, 0.71719, 0.00000
13.360, 0.38051, 0.30449, -1.02168, 0.71719, 0.00000
13.370, 0.38051, 0.30449, -1.02168, 0.71719, 0.00000
13.380, 0.38051, 0.30449, -1.02168, 0.71719, 0.00000
13.390, 0.38051, 0.30449, -1.02168, 0.71719, 0.00000
13.400, 0.38051, 0.30449, -1.02168, 0.71719, 0.00000
13.410, 0.38051, 0.30449, -1.02168, 0.71719, 0.00000
13.420, 0.38051, 0.30449, -1.02168, 0.71719, 0.00000
13.430, 0.38051, 0.30449, -1.02168, 0.71719, 0.00000
13.440, 0.38051, 0.30449, -1.02168, 0.71719, 0.00000
13.450, 0.38051, 0.30449, -1.02168, 0.71719, 0.00000
13.460, 0.38051, 0.30449, -1.02168, 0.71719, 0.00000
13.470, 0.38051, 0.30449, -1.02168, 0.71719, 0.00000
13.480, 0.38051, 0.30449, -1.02168, 0.71719, 0.00000
13.490, 0.38051, 0.30449, -1.02168, 0.71719, 0.00000
13.500, 0.38051, 0.30449, -1.02168, 0.71719, 0.00000
13.510, 0.38051, 0.30449, -1.02168, 0.71719, 0.00000
13.520, 0.38051, 0.30449, -1.02168, 0.71719, 0.00000
13.530, 0.38051, 0.30449, -1.02168, 0.71719, 0.00000
13.540, 0.38051, 0.30449, -1.02168, 0.71719, 0.00000
13.550, 0.38051, 0.30449, -1.02168, 0.71719, 0.00000
13.560, 0.38051, 0.30449, -1.02168, 0.71719, 0.00000
13.570, 0.38051, 0.30449, -1.02168, 0.71719, 0.00000
13.580, 0.38051, 0.30449, -1.02168, 0.71719, 0.00000
13.590, 0.38051, 0.30449, -1.02168, 0.71719, 0.00000
13.600, 0.38051, 0.30449, -1.02168, 0.71719, 0.00000
13.610, 0.38051, 0.30449, -1.02168, 0.71719, 0.00000
13.620, 0.38051, 0.30449, -1.02168, 0.71719, 0.00000
13.630, 0.38051, 0.30449, -1.02168, 0.71719, 0.00000
13.640, 0.38051, 0.30449, -1.02168, 0.71719, 0.00000
13.650, 0.38051, 0.30449, -1.02168, 0.71719, 0.00000
13.660, 0.38051, 0.30449, -1.02168, 0.71719, 0.00000
13.670, 0.38051, 0.30449, -1.02168, 0.71719, 0.00000
13.680, 0.38051, 0.30449, -1.02168, 0.71719, 0.00000
13.690, 0.38051, 0.30449, -1.02168, 0.71719, 0.00000
13.700, 0.38051, 0.30449, -1.02168, 0.71719, 0.00000
13.710, 0.38051, 0.30449, -1.02168, 0.71719, -0.00000
13.720, 0.38051, 0.30449, -1.02168, 0.71719, -0.00000
13.730, 0.38051, 0.30449, -1.02168, 0.71719, -0.00000
13.740, 0.38051, 0.30449, -1.02168, 0.71719, -0.00000
13.750, 0.38051, 0.30449, -1.02168, 0.71719, -0.00000
13.760, 0.38051, 0.30449, -1.02168, 0.71719, -0.00000
13.770, 0.38051, 0.30449, -1.02168, 0.71719, -0.00000
13.780, 0.38051, 0.30449, -1.02168, 0.71719, -0.00000
13.790, 0.38051, 0.30449, -1.02168, 0.71719, -0.00000
13.800, 0.38051, 0.30449, -1.02168, 0.71719, -0.00000
13.810, 0.38051, 0.30449, -1.02168, 0.71719, -0.00000
13.820, 0.38051, 0.30449, -1.02168, 0.71719, -0.00000
13.830, 0.38051, 0.30449, -1.02168, 0.71719, -0.00000
13.840, 0.38051, 0.30449, -1.02168, 0.71719, -0.00000
13.850, 0.38051, 0.30449, -1.02168, 0.71719, -0.00000
13.860, 0.38051, 0.30449, -1.02168, 0.71719, -0.00000
13.870, 0.38051, 0.30449, -1.02168, 0.71719, -0.00000
13.880, 0.38051, 0.30449, -1.02168, 0.71719, -0.00000
13.890, 0.38051, 0.30449, -1.02168, 0.71719, -0.00000
13.900, 0.38051, 0.30449, -1.02168, 0.71719, -0.00000
13.910, 0.38051, 0.30449, -1.02168, 0.71719, -0.00000
13.920, 0.38051, 0.30449, -1.02168, 0.71719, -0.00000
13.930, 0.38051, 0.30449, -1.02168, 0.71719, -0.00000
13.940, 0.38051, 0.30449, -1.02168, 0.71719, -0.00000
13.950, 0.38051, 0.30449, -1.02168, 0.71719, -0.00000
13.960, 0.38051, 0.30449, -1.02168, 0.71719, -0.00000
13.970, 0.38051, 0.30449, -1.02168, 0.71719, -0.00000
13.980, 0.38051, 0.30449, -1.02168, 0.71719, -0.00000
13.990, 0.38051, 0.30449, -1.02168, 0.71719, -0.00000
14.000, 0.38051, 0.30449, -1.02168, 0.71719, -0.00000
14.010, 0.38051, 0.30449, -1.02168, 0.71719, -0.00000
14.020, 0.38051, 0.30449, -1.02168, 0.71719, -0.00001
14.030, 0.38051, 0.30449, -1.02168, 0.71719, -0.00001
14.040, 0.38051, 0.30449, -1.02168, 0.71719, -0.00001
14.050, 0.38051, 0.30449, -1.02168, 0.71719, -0.00001
14.060, 0.38051, 0.30449, -1.02168, 0.71719, -0.00001
14.070, 0.38051, 0.30449, -1.02168, 0.71719, -0.00001
14.080, 0.38051, 0.30449, -1.02168, 0.71719, -0.00001
14.090, 0.38051, 0.30449, -1.02168, 0.71719, -0.00001
14.100, 0.38051, 0.30449, -1.02168, 0.71719, -0.00001
14.110, 0.38051, 0.30449, -1.02168, 0.71719, -0.00001
14.120, 0.38051, 0.30449, -1.02168, 0.71719, -0.00001
14.130, 0.38051, 0.30449, -1.02168, 0.71719, -0.00000
14.140, 0.38051, 0.30449, -1.02168, 0.71719, -0.00000
14.150, 0.38051, 0.30449, -1.02168, 0.71719, -0.00000
14.160, 0.38051, 0.30449, -1.02168, 0.71719, -0.00000
14.170, 0.38051, 0.30449, -1.02168, 0.71719, -0.00000
14.180, 0.38051, 0.30449, -1.02168, 0.71719, -0.00000
14.190, 0.38051, 0.30449, -1.02168, 0.71719, -0.00000
14.200, 0.38051, 0.30449, -1.02168, 0.71719, -0.00000
14.210, 0.38051, 0.30449, -1.02168, 0.71719, -0.00000
14.220, 0.38051, 0.30449, -1.02168, 0.71719, -0.00000
14.230, 0.38051, 0.30449, -1.02168, 0.71719, -0.00000
14.240, 0.38051, 0.30449, -1.02168, 0.71719, -0.00000
14.250, 0.38051, 0.30449, -1.02168, 0.71719, -0.00000
14.260, 0.38051, 0.30449, -1.02168, 0.71719, -0.00000
14.270, 0.38051, 0.30449, -1.02168, 0.71719, -0.00000
14.280, 0.38051, 0.30449, -1.02168, 0.71719, -0.00000
14.290, 0.38051, 0.30449, -1.02168, 0.71719, -0.00000
14.300, 0.38051, 0.30449, -1.02168, 0.71719, -0.00000
14.310, 0.38051, 0.30449, -1.02168, 0.71719, -0.00000
14.320, 0.38051, 0.30449, -1.02168, 0.71719, 0.00000
14.330, 0.38051, 0.30449, -1.02168, 0.71719, 0.00000
14.340, 0.38051, 0.30449, -1.02168, 0.71719, 0.00001
14.350, 0.38050, 0.30449, -1.02168, 0.71719, 0.00002
14.360, 0.38048, 0.30449, -1.02168, 0.71719, 0.00003
14.370, 0.38045, 0.30449, -1.02168, 0.71719, 0.00006
14.380, 0.38042, 0.30449, -1.02168, 0.71719, 0.00010
14.390, 0.38037, 0.30449, -1.02168, 0.71719, 0.00014
14.400, 0.38031, 0.30449, -1.02168, 0.71719, 0.00021
14.410, 0.38023, 0.30449, -1.02168, 0.71719, 0.00029
14.420, 0.38013, 0.30449, -1.02168, 0.71719, 0.00038
14.430, 0.38000, 0.30449, -1.02168, 0.71719, 0.00050
14.440, 0.37986, 0.30449, -1.02168, 0.71719, 0.00063
14.450, 0.37969, 0.30449, -1.02168, 0.71719, 0.00079
14.460, 0.37950, 0.30449, -1.02168, 0.71719, 0.00098
14.470, 0.37927, 0.30449, -1.02168, 0.71719, 0.00119
14.480, 0.37901, 0.30449, -1.02168, 0.71719, 0.00143
14.490, 0.37873, 0.30449, -1.02168, 0.71719, 0.00170
14.500, 0.37840, 0.30449, -1.02168, 0.71719, 0.00200
14.510, 0.37804, 0.30449, -1.02168, 0.71719, 0.00234
14.520, 0.37764, 0.30449, -1.02168, 0.71719, 0.00271
14.530, 0.37720, 0.30449, -1.02168, 0.71719, 0.00312
14.540, 0.37672, 0.30449, -1.02168, 0.71719, 0.00356
14.550, 0.37620, 0.30449, -1.02168, 0.71719, 0.00405
14.560, 0.37564, 0.30449, -1.02168, 0.71719, 0.00458
14.570, 0.37504, 0.30449, -1.02168, 0.71719, 0.00516
14.580, 0.37440, 0.30449, -1.02168, 0.71719, 0.00578
14.590, 0.37372, 0.30449, -1.02168, 0.71719, 0.00645
14.600, 0.37300, 0.30449, -1.02168, 0.71719, 0.00717
14.610, 0.37224, 0.30449, -1.02168, 0.71719, 0.00794
14.620, 0.37144, 0.30449, -1.02168, 0.71719, 0.00877
14.630, 0.37060, 0.30449, -1.02168, 0.71719, 0.00965
14.640, 0.36972, 0.30449, -1.02168, 0.71719, 0.01058
14.650, 0.36880, 0.30449, -1.02168, 0.71719, 0.01158
14.660, 0.36784, 0.30449, -1.02168, 0.71719, 0.01264
14.670, 0.36684, 0.30449, -1.02168, 0.71719, 0.01375
14.680, 0.36580, 0.30449, -1.02168, 0.71719, 0.01494
14.690, 0.36472, 0.30449, -1.02168, 0.71719, 0.01619
14.700, 0.36360, 0.30449, -1.02168, 0.71719, 0.01750
14.710, 0.36244, 0.30449, -1.02168, 0.71719, 0.01889
14.720, 0.36124, 0.30449, -1.02168, 0.71719, 0.02034
14.730, 0.36000, 0.30449, -1.02168, 0.71719, 0.02187
14.740, 0.35872, 0.30449, -1.02168, 0.71719, 0.02348
14.750, 0.35740, 0.30449, -1.02168, 0.71719, 0.02516
14.760, 0.35604, 0.30449, -1.02168, 0.71719, 0.02692
14.770, 0.35464, 0.30449, -1.02168, 0.71719, 0.02876
14.780, 0.35320, 0.30449, -1.02168, 0.71719, 0.03068
14.790, 0.35172, 0.30449, -1.02168, 0.71719, 0.03269
14.800, 0.35020, 0.30449, -1.02168, 0.71719, 0.03478
14.810, 0.34864, 0.30449, -1.02168, 0.71719, 0.03696
14.820, 0.34704, 0.30449, -1.02168, 0.71719, 0.03923
14.830, 0.34540, 0.30449, -1.02168, 0.71719, 0.04159
14.840, 0.34372, 0.30449, -1.02168, 0.71719, 0.04404
14.850, 0.34200, 0.30449, -1.02168, 0.71719, 0.04658
14.860, 0.34024, 0.30449, -1.02168, 0.71719, 0.04923
14.870, 0.33844, 0.30449, -1.02168, 0.71719, 0.05197
14.880, 0.33660, 0.30449, -1.02168, 0.71719, 0.05481
14.890, 0.33472, 0.30449, -1.02168, 0.71719, 0.05774
14.900, 0.33280, 0.30449, -1.02168, 0.71719, 0.06078
14.910, 0.33084, 0.30449, -1.02168, 0.71719, 0.06392
14.920, 0.32884, 0.30449, -1.02168, 0.71719, 0.06716
14.930, 0.32680, 0.30449, -1.02168, 0.71719, 0.07049
14.940, 0.32472, 0.30449, -1.02168, 0.71719, 0.07393
14.950, 0.32260, 0.30449, -1.02168, 0.71719, 0.07746
14.960, 0.32044, 0.30449, -1.02168, 0.71719, 0.08109
14.970, 0.31824, 0.30449, -1.02168, 0.71719, 0.08482
14.980, 0.31600, 0.30449, -1.02168, 0.71719, 0.08865
14.990, 0.31372, 0.30449, -1.02168, 0.71719, 0.09258
15.000, 0.31140, 0.30449, -1.02168, 0.71719, 0.09661
15.010, 0.30904, 0.30449, -1.02168, 0.71719, 0.10074
15.020, 0.30664, 0.30449, -1.02168, 0.71719, 0.10497
15.030, 0.30420, 0.30449, -1.02168, 0.71719, 0.10930
15.040, 0.30172, 0.30449, -1.02168, 0.71719, 0.11372
15.050, 0.29920, 0.30449, -1.02168, 0.71719, 0.11824
15.060, 0.29664, 0.30449, -1.02168, 0.71719, 0.12285
15.070, 0.29404, 0.30449, -1.02168, 0.71719, 0.12756
15.080, 0.29140, 0.30449, -1.02168, 0.71719, 0.13236
15.090, 0.28872, 0.30449, -1.02168, 0.71719, 0.13724
15.100, 0.28601, 0.30449, -1.02168, 0.71719, 0.14221
15.110, 0.28327, 0.30449, -1.02168, 0.71719, 0.14727
15.120, 0.28049, 0.30449, -1.02168, 0.71719, 0.15241
15.130, 0.27769, 0.30449, -1.02168, 0.71719, 0.15763
15.140, 0.27486, 0.30449, -1.02168, 0.71719, 0.16294
15.150, 0.27200, 0.30449, -1.02168, 0.71719, 0.16831
15.160, 0.26913, 0.30449, -1.02168, 0.71719, 0.17377
15.170, 0.26623, 0.30449, -1.02168, 0.71719, 0.17930
15.180, 0.26331, 0.30449, -1.02168, 0.71719, 0.18490
15.190, 0.26037, 0.30449, -1.02168, 0.71719, 0.19058
15.200, 0.25742, 0.30449, -1.02168, 0.71719, 0.19632
15.210, 0.25445, 0.30449, -1.02168, 0.71719, 0.20213
15.220, 0.25148, 0.30449, -1.02168, 0.71719, 0.20800
15.230, 0.24850, 0.30449, -1.02168, 0.71719, 0.21394
15.240, 0.24551, 0.30449, -1.02168, 0.71719, 0.21994
15.250, 0.24251, 0.30449, -1.02168, 0.71719, 0.22600
15.260, 0.23951, 0.30449, -1.02168, 0.71719, 0.23212
15.270, 0.23651, 0.30449, -1.02168, 0.71719, 0.23830
15.280, 0.23351, 0.30449, -1.02168, 0.71719, 0.24453
15.290, 0.23051, 0.30449, -1.02168, 0.71719, 0.25081
15.300, 0.22751, 0.30449, -1.02168, 0.71719, 0.25715
15.310, 0.22451, 0.30449, -1.02168, 0.71719, 0.26353
15.320, 0.22151, 0.30449, -1.02168, 0.71719, 0.26996
15.330, 0.21851, 0.30449, -1.02168, 0.71719, 0.27644
15.340, 0.21551, 0.30449, -1.02168, 0.71719, 0.28296
15.350, 0.21251, 0.30449, -1.02168, 0.71719, 0.28952
15.360, 0.20951, 0.30449, -1.02168, 0.71719, 0.29612
15.370, 0.20651, 0.30449, -1.02168, 0.71719, 0.30277
15.380, 0.20351, 0.30449, -1.02168, 0.71719, 0.30945
15.390, 0.20051, 0.30449, -1.02168, 0.71719, 0.31616
15.400, 0.19751, 0.30449, -1.02168, 0.71719, 0.32291
15.410, 0.19451, 0.30449, -1.02168, 0.71719, 0.32968
15.420, 0.19151, 0.30449, -1.02168, 0.71719, 0.33649
15.430, 0.18851, 0.30449, -1.02168, 0.71719, 0.34333
15.440, 0.18551, 0.30449, -1.02168, 0.71719, 0.35019
15.450, 0.18251, 0.30449, -1.02168, 0.71719, 0.35708
15.460, 0.17951, 0.30449, -1.02168, 0.71719, 0.36399
15.470, 0.17651, 0.30449, -1.02168, 0.71719, 0.37092
15.480, 0.17351, 0.30449, -1.02168, 0.71719, 0.37787
15.490, 0.17051, 0.30449, -1.02168, 0.71719, 0.38483
15.500, 0.16751, 0.30449, -1.02168, 0.71719, 0.39181
15.510, 0.16451, 0.30449, -1.02168, 0.71719, 0.39881
15.520, 0.16151, 0.30449, -1.02168, 0.71719, 0.40582
15.530, 0.15851, 0.30449, -1.02168, 0.71719, 0.41283
15.540, 0.15551, 0.30449, -1.02168, 0.71719, 0.41986
15.550, 0.15251, 0.30449, -1.02168, 0.71719, 0.42689
15.560, 0.14951, 0.30449, -1.02168, 0.71719, 0.43393
15.570, 0.14651, 0.30449, -1.02168, 0.71719, 0.44097
15.580, 0.14351, 0.30449, -1.02168, 0.71719, 0.44801
15.590, 0.14051, 0.30449, -1.02168, 0.71719, 0.45505
15.600, 0.13751, 0.30449, -1.02168, 0.71719, 0.46209
15.610, 0.13451, 0.30449, -1.02168, 0.71719, 0.46913
15.620, 0.13151, 0.30449, -1.02168, 0.71719, 0.47617
15.630, 0.12851, 0.30449, -1.02168, 0.71719, 0.48321
15.640, 0.12551, 0.30449, -1.02168, 0.71719, 0.49025
15.650, 0.12251, 0.30449, -1.02168, 0.71719, 0.49729
15.660, 0.11951, 0.30449, -1.02168, 0.71719, 0.50433
15.670, 0.11651, 0.30449, -1.02168, 0.71719, 0.51137
15.680, 0.11351, 0.30449, -1.02168, 0.71719, 0.51841
15.690, 0.11051, 0.30449, -1.02168, 0.71719, 0.52545
15.700, 0.10751, 0.30449, -1.02168, 0.71719, 0.53249
15.710, 0.10451, 0.30449, -1.02168, 0.71719, 0.53953
15.720, 0.10151, 0.30449, -1.02168, 0.71719, 0.54657
15.730, 0.09851, 0.30449, -1.02168, 0.71719, 0.55361
15.740, 0.09551, 0.30449, -1.02168, 0.71719, 0.56065
15.750, 0.09251, 0.30449, -1.02168, 0.71719, 0.56769
15.760, 0.08951, 0.30449, -1.02168, 0.71719, 0.57473
15.770, 0.08651, 0.30449, -1.02168, 0.71719, 0.58177
15.780, 0.08351, 0.30449, -1.02168, 0.71719, 0.58881
15.790, 0.08051, 0.30449, -1.02168, 0.71719, 0.59585
15.800, 0.07751, 0.30449, -1.02168, 0.71719, 0.60289
15.810, 0.07451, 0.30449, -1.02168, 0.71719, 0.60993
15.820, 0.07151, 0.30449, -1.02168, 0.71719, 0.61697
15.830, 0.06851, 0.30449, -1.02168, 0.71719, 0.62401
15.840, 0.06551, 0.30449, -1.02168, 0.71719, 0.63105
15.850, 0.06251, 0.30449, -1.02168, 0.71719, 0.63809
15.860, 0.05951, 0.30449, -1.02168, 0.71719, 0.64513
15.870, 0.05651, 0.30449, -1.02168, 0.71719, 0.65217
15.880, 0.05351, 0.30449, -1.02168, 0.71719, 0.65921
15.890, 0.05051, 0.30449, -1.02168, 0.71719, 0.66625
15.900, 0.04751, 0.30449, -1.02168, 0.71719, 0.67329
15.910, 0.04451, 0.30449, -1.02168, 0.71719, 0.68033
15.920, 0.04151, 0.30449, -1.02168, 0.71719, 0.68737
15.930, 0.03851, 0.30449, -1.02168, 0.71719, 0.69441
15.940, 0.03551, 0.30449, -1.02168, 0.71719, 0.70145
15.950, 0.03251, 0.30449, -1.02168, 0.71719, 0.70849
15.960, 0.02951, 0.30449, -1.02168, 0.71719, 0.71554
15.970, 0.02651, 0.30449, -1.02168, 0.71719, 0.72258
15.980, 0.02351, 0.30449, -1.02168, 0.71719, 0.72962
15.990, 0.02051, 0.30449, -1.02168, 0.71719, 0.73666
16.000, 0.01751, 0.30449, -1.02168, 0.71719, 0.74370
16.010, 0.01451, 0.30449, -1.02168, 0.71719, 0.75074
16.020, 0.01151, 0.30449, -1.02168, 0.71719, 0.75778
16.030, 0.00851, 0.30449, -1.02168, 0.71719, 0.76482
16.040, 0.00551, 0.30449, -1.02168, 0.71719, 0.77186
16.050, 0.00251, 0.30449, -1.02168, 0.71719, 0.77890
16.060, -0.00049, 0.30449, -1.02168, 0.71719, 0.78594
16.070, -0.00349, 0.30449, -1.02168, 0.71719, 0.79298
16.080, -0.00649, 0.30449, -1.02168, 0.71719, 0.80002
16.090, -0.00949, 0.30449, -1.02168, 0.71719, 0.80706
16.100, -0.01249, 0.30449, -1.02168, 0.71719, 0.81410
16.110, -0.01549, 0.30449, -1.02168, 0.71719, 0.82114
16.120, -0.01849, 0.30449, -1.02168, 0.71719, 0.82818
16.130, -0.02149, 0.30449, -1.02168, 0.71719, 0.83522
16.140, -0.02449, 0.30449, -1.02168, 0.71719, 0.84226
16.150, -0.02749, 0.30449, -1.02168, 0.71719, 0.84930
16.160, -0.03049, 0.30449, -1.02168, 0.71719, 0.85634
16.170, -0.03349, 0.30449, -1.02168, 0.71719, 0.86338
16.180, -0.03649, 0.30449, -1.02168, 0.71719, 0.87042
16.190, -0.03949, 0.30449, -1.02168, 0.71719, 0.87746
16.200, -0.04249, 0.30449, -1.02168, 0.71719, 0.88450
16.210, -0.04549, 0.30449, -1.02168, 0.71719, 0.89154
16.220, -0.04849, 0.30449, -1.02168, 0.71719, 0.89858
16.230, -0.05149, 0.30449, -1.02168, 0.71719, 0.90562
16.240, -0.05449, 0.30449, -1.02168, 0.71719, 0.91266
16.250, -0.05749, 0.30449, -1.02168, 0.71719, 0.91970
16.260, -0.06049, 0.30449, -1.02168, 0.71719, 0.92674
16.270, -0.06349, 0.30449, -1.02168, 0.71719, 0.93378
16.280, -0.06649, 0.30449, -1.02168, 0.71719, 0.94082
16.290, -0.06949, 0.30449, -1.02168, 0.71719, 0.94786
16.300, -0.07249, 0.30449, -1.02168, 0.71719, 0.95490
16.310, -0.07549, 0.30449, -1.02168, 0.71719, 0.96194
16.320, -0.07849, 0.30449, -1.02168, 0.71719, 0.96898
16.330, -0.08149, 0.30449, -1.02168, 0.71719, 0.97602
16.340, -0.08449, 0.30449, -1.02168, 0.71719, 0.98306
16.350, -0.08749, 0.30449, -1.02168, 0.71719, 0.99010
16.360, -0.09049, 0.30449, -1.02168, 0.71719, 0.99714
16.370, -0.09349, 0.30449, -1.02168, 0.71719, 1.00418
16.380, -0.09649, 0.30449, -1.02168, 0.71719, 1.01122
16.390, -0.09949, 0.30449, -1.02168, 0.71719, 1.01827
16.400, -0.10249, 0.30449, -1.02168, 0.71719, 1.02531
16.410, -0.10549, 0.30449, -1.02168, 0.71719, 1.03235
16.420, -0.10849, 0.30449, -1.02168, 0.71719, 1.03939
16.430, -0.11149, 0.30449, -1.02168, 0.71719, 1.04643
16.440, -0.11449, 0.30449, -1.02168, 0.71719, 1.05347
16.450, -0.11749, 0.30449, -1.02168, 0.71719, 1.06051
16.460, -0.12049, 0.30449, -1.02168, 0.71719, 1.06755
16.470, -0.12349, 0.30449, -1.02168, 0.71719, 1.07459
16.480, -0.12649, 0.30449, -1.02168, 0.71719, 1.08163
16.490, -0.12949, 0.30449, -1.02168, 0.71719, 1.08867
16.500, -0.13249, 0.30449, -1.02168, 0.71719, 1.09571
16.510, -0.13549, 0.30449, -1.02168, 0.71719, 1.10275
16.520, -0.13849, 0.30449, -1.02168, 0.71719, 1.10979
16.530, -0.14149, 0.30449, -1.02168, 0.71719, 1.11683
16.540, -0.14449, 0.30449, -1.02168, 0.71719, 1.12387
16.550, -0.14749, 0.30449, -1.02168, 0.71719, 1.13091
16.560, -0.15049, 0.30449, -1.02168, 0.71719, 1.13795
16.570, -0.15349, 0.30449, -1.02168, 0.71719, 1.14498
16.580, -0.15649, 0.30449, -1.02168, 0.71719, 1.15201
16.590, -0.15949, 0.30449, -1.02168, 0.71719, 1.15904
16.600, -0.16249, 0.30449, -1.02168, 0.71719, 1.16605
16.610, -0.16549, 0.30449, -1.02168, 0.71719, 1.17306
16.620, -0.16849, 0.30449, -1.02168, 0.71719, 1.18005
16.630, -0.17149, 0.30449, -1.02168, 0.71719, 1.18703
16.640, -0.17449, 0.30449, -1.02168, 0.71719, 1.19400
16.650, -0.17749, 0.30449, -1.02168, 0.71719, 1.20094
16.660, -0.18049, 0.30449, -1.02168, 0.71719, 1.20787
16.670, -0.18349, 0.30449, -1.02168, 0.71719, 1.21477
16.680, -0.18649, 0.30449, -1.02168, 0.71719, 1.22166
16.690, -0.18949, 0.30449, -1.02168, 0.71719, 1.22852
16.700, -0.19249, 0.30449, -1.02168, 0.71719, 1.23535
16.710, -0.19549, 0.30449, -1.02168, 0.71719, 1.24215
16.720, -0.19849, 0.30449, -1.02168, 0.71719, 1.24893
16.730, -0.20149, 0.30449, -1.02168, 0.71719, 1.25567
16.740, -0.20449, 0.30449, -1.02168, 0.71719, 1.26238
16.750, -0.20749, 0.30449, -1.02168, 0.71719, 1.26905
16.760, -0.21049, 0.30449, -1.02168, 0.71719, 1.27569
16.770, -0.21349, 0.30449, -1.02168, 0.71719, 1.28228
16.780, -0.21649, 0.30449, -1.02168, 0.71719, 1.28884
16.790, -0.21949, 0.30449, -1.02168, 0.71719, 1.29535
16.800, -0.22249, 0.30449, -1.02168, 0.71719, 1.30182
16.810, -0.22549, 0.30449, -1.02168, 0.71719, 1.30825
16.820, -0.22849, 0.30449, -1.02168, 0.71719, 1.31462
16.830, -0.23149, 0.30449, -1.02168, 0.71719, 1.32095
16.840, -0.23449, 0.30449, -1.02168, 0.71719, 1.32723
16.850, -0.23749, 0.30449, -1.02168, 0.71719, 1.33345
16.860, -0.24049, 0.30449, -1.02168, 0.71719, 1.33961
16.870, -0.24349, 0.30449, -1.02168, 0.71719, 1.34573
16.880, -0.24648, 0.30449, -1.02168, 0.71719, 1.35178
16.890, -0.24947, 0.30449, -1.02168, 0.71719, 1.35777
16.900, -0.25245, 0.30449, -1.02168, 0.71719, 1.36370
16.910, -0.25542, 0.30449, -1.02168, 0.71719, 1.36956
16.920, -0.25838, 0.30449, -1.02168, 0.71719, 1.37536
16.930, -0.26133, 0.30449, -1.02168, 0.71719, 1.38109
16.940, -0.26426, 0.30449, -1.02168, 0.71719, 1.38676
16.950, -0.26717, 0.30449, -1.02168, 0.71719, 1.39235
16.960, -0.27007, 0.30449, -1.02168, 0.71719, 1.39787
16.970, -0.27294, 0.30449, -1.02168, 0.71719, 1.40331
16.980, -0.27579, 0.30449, -1.02168, 0.71719, 1.40868
16.990, -0.27861, 0.30449, -1.02168, 0.71719, 1.41397
17.000, -0.28140, 0.30449, -1.02168, 0.71719, 1.41918
17.010, -0.28417, 0.30449, -1.02168, 0.71719, 1.42431
17.020, -0.28690, 0.30449, -1.02168, 0.71719, 1.42935
17.030, -0.28960, 0.30449, -1.02168, 0.71719, 1.43431
17.040, -0.29227, 0.30449, -1.02168, 0.71719, 1.43918
17.050, -0.29489, 0.30449, -1.02168, 0.71719, 1.44396
17.060, -0.29748, 0.30449, -1.02168, 0.71719, 1.44866
17.070, -0.30003, 0.30449, -1.02168, 0.71719, 1.45326
17.080, -0.30253, 0.30449, -1.02168, 0.71719, 1.45776
17.090, -0.30500, 0.30449, -1.02168, 0.71719, 1.46217
17.100, -0.30743, 0.30449, -1.02168, 0.71719, 1.46648
17.110, -0.30982, 0.30449, -1.02168, 0.71719, 1.47070
17.120, -0.31216, 0.30449, -1.02168, 0.71719, 1.47481
17.130, -0.31447, 0.30449, -1.02168, 0.71719, 1.47882
17.140, -0.31674, 0.30449, -1.02168, 0.71719, 1.48274
17.150, -0.31896, 0.30449, -1.02168, 0.71719, 1.48655
17.160, -0.32115, 0.30449, -1.02168, 0.71719, 1.49027
17.170, -0.32330, 0.30449, -1.02168, 0.71719, 1.49389
17.180, -0.32540, 0.30449, -1.02168, 0.71719, 1.49741
17.190, -0.32747, 0.30449, -1.02168, 0.71719, 1.50082
17.200, -0.32950, 0.30449, -1.02168, 0.71719, 1.50415
17.210, -0.33148, 0.30449, -1.02168, 0.71719, 1.50737
17.220, -0.33343, 0.30449, -1.02168, 0.71719, 1.51049
17.230, -0.33534, 0.30449, -1.02168, 0.71719, 1.51351
17.240, -0.33721, 0.30449, -1.02168, 0.71719, 1.51643
17.250, -0.33903, 0.30449, -1.02168, 0.71719, 1.51926
17.260, -0.34082, 0.30449, -1.02168, 0.71719, 1.52198
17.270, -0.34257, 0.30449, -1.02168, 0.71719, 1.52461
17.280, -0.34427, 0.30449, -1.02168, 0.71719, 1.52714
17.290, -0.34594, 0.30449, -1.02168, 0.71719, 1.52958
17.300, -0.34757, 0.30449, -1.02168, 0.71719, 1.53192
17.310, -0.34915, 0.30449, -1.02168, 0.71719, 1.53418
17.320, -0.35070, 0.30449, -1.02168, 0.71719, 1.53634
17.330, -0.35221, 0.30449, -1.02168, 0.71719, 1.53842
17.340, -0.35367, 0.30449, -1.02168, 0.71719, 1.54042
17.350, -0.35510, 0.30449, -1.02168, 0.71719, 1.54232
17.360, -0.35649, 0.30449, -1.02168, 0.71719, 1.54415
17.370, -0.35784, 0.30449, -1.02168, 0.71719, 1.54590
17.380, -0.35914, 0.30449, -1.02168, 0.71719, 1.54757
17.390, -0.36041, 0.30449, -1.02168, 0.71719, 1.54916
17.400, -0.36164, 0.30449, -1.02168, 0.71719, 1.55068
17.410, -0.36282, 0.30449, -1.02168, 0.71719, 1.55213
17.420, -0.36397, 0.30449, -1.02168, 0.71719, 1.55350
17.430, -0.36508, 0.30449, -1.02168, 0.71719, 1.55481
17.440, -0.36614, 0.30449, -1.02168, 0.71719, 1.55605
17.450, -0.36717, 0.30449, -1.02168, 0.71719, 1.55722
17.460, -0.36816, 0.30449, -1.02168, 0.71719, 1.55833
17.470, -0.36910, 0.30449, -1.02168, 0.71719, 1.55938
17.480, -0.37001, 0.30449, -1.02168, 0.71719, 1.56036
17.490, -0.37088, 0.30449, -1.02168, 0.71719, 1.56129
17.500, -0.37171, 0.30449, -1.02168, 0.71719, 1.56216
17.510, -0.37249, 0.30449, -1.02168, 0.71719, 1.56298
17.520, -0.37324, 0.30449, -1.02168, 0.71719, 1.56374
17.530, -0.37395, 0.30449, -1.02168, 0.71719, 1.56445
17.540, -0.37461, 0.30449, -1.02168, 0.71719, 1.56512
17.550, -0.37524, 0.30449, -1.02168, 0.71719, 1.56573
17.560, -0.37583, 0.30449, -1.02168, 0.71719, 1.56630
17.570, -0.37637, 0.30449, -1.02168, 0.71719, 1.56682
17.580, -0.37688, 0.30449, -1.02168, 0.71719, 1.56731
17.590, -0.37735, 0.30449, -1.02168, 0.71719, 1.56775
17.600, -0.37777, 0.30449, -1.02168, 0.71719, 1.56815
17.610, -0.37816, 0.30449, -1.02168, 0.71719, 1.56852
17.620, -0.37851, 0.30449, -1.02168, 0.71719, 1.56885
17.630, -0.37882, 0.30449, -1.02168, 0.71719, 1.56914
17.640, -0.37910, 0.30449, -1.02168, 0.71719, 1.56941
17.650, -0.37935, 0.30449, -1.02168, 0.71719, 1.56964
17.660, -0.37956, 0.30449, -1.02168, 0.71719, 1.56985
17.670, -0.37975, 0.30449, -1.02168, 0.71719, 1.57003
17.680, -0.37991, 0.30449, -1.02168, 0.71719, 1.57019
17.690, -0.38005, 0.30449, -1.02168, 0.71719, 1.57032
17.700, -0.38016, 0.30449, -1.02168, 0.71719, 1.57043
17.710, -0.38025, 0.30449, -1.02168, 0.71719, 1.57053
17.720, -0.38033, 0.30449, -1.02168, 0.71719, 1.57060
17.730, -0.38039, 0.30449, -1.02168, 0.71719, 1.57066
17.740, -0.38043, 0.30449, -1.02168, 0.71719, 1.57071
17.750, -0.38046, 0.30449, -1.02168, 0.71719, 1.57075
17.760, -0.38049, 0.30449, -1.02168, 0.71719, 1.57077
17.770, -0.38050, 0.30449, -1.02168, 0.71719, 1.57079
17.780, -0.38051, 0.30449, -1.02168, 0.71719, 1.57079
17.790, -0.38051, 0.30449, -1.02168, 0.71719, 1.57080
17.800, -0.38051, 0.30449, -1.02168, 0.71719, 1.57080
17.810, -0.38051, 0.30449, -1.02168, 0.71719, 1.57080
17.820, -0.38051, 0.30449, -1.02168, 0.71719, 1.57080
17.830, -0.38051, 0.30449, -1.02168, 0.71719, 1.57080
17.840, -0.38051, 0.30449, -1.02168, 0.71719, 1.57080
17.850, -0.38051, 0.30449, -1.02168, 0.71719, 1.57080
17.860, -0.38051, 0.30449, -1.02168, 0.71719, 1.57080
17.870, -0.38051, 0.30449, -1.02168, 0.71719, 1.57080
17.880, -0.38051, 0.30449, -1.02168, 0.71719, 1.57080
17.890, -0.38051, 0.30449, -1.02168, 0.71719, 1.57080
17.900, -0.38051, 0.30449, -1.02168, 0.71719, 1.57080
17.910, -0.38051, 0.30449, -1.02168, 0.71719, 1.57080
17.920, -0.38051, 0.30449, -1.02168, 0.71719, 1.57080
17.930, -0.38051, 0.30449, -1.02168, 0.71719, 1.57080
17.940, -0.38051, 0.30449, -1.02168, 0.71719, 1.57080
17.950, -0.38051, 0.30449, -1.02168, 0.71719, 1.57080
17.960, -0.38051, 0.30449, -1.02168, 0.71719, 1.57080
17.970, -0.38051, 0.30449, -1.02168, 0.71719, 1.57080
17.980, -0.38051, 0.30449, -1.02168, 0.71719, 1.57080
17.990, -0.38051, 0.30449, -1.02168, 0.71719, 1.57080
18.000, -0.38051, 0.30449, -1.02168, 0.71719, 1.57080
18.010, -0.38051, 0.30449, -1.02168, 0.71719, 1.57080
18.020, -0.38051, 0.30449, -1.02168, 0.71719, 1.57080
18.030, -0.38051, 0.30449, -1.02168, 0.71719, 1.57080
18.040, -0.38051, 0.30449, -1.02168, 0.71719, 1.57080
18.050, -0.38051, 0.30449, -1.02168, 0.71719, 1.57080
18.060, -0.38051, 0.30449, -1.02168, 0.71719, 1.57080
18.070, -0.38051, 0.30449, -1.02168, 0.71719, 1.57080
18.080, -0.38051, 0.30449, -1.02168, 0.71719, 1.57080
18.090, -0.38051, 0.30449, -1.02168, 0.71719, 1.57080
18.100, -0.38051, 0.30449, -1.02168, 0.71719, 1.57080
18.110, -0.38051, 0.30449, -1.02168, 0.71719, 1.57080
18.120, -0.38051, 0.30449, -1.02168, 0.71719, 1.57080
18.130, -0.38051, 0.30449, -1.02168, 0.71719, 1.57080
18.140, -0.38051, 0.30449, -1.02168, 0.71719, 1.57080
18.150, -0.38051, 0.30449, -1.02168, 0.71719, 1.57080
18.160, -0.38051, 0.30449, -1.02168, 0.71719, 1.57080
18.170, -0.38051, 0.30449, -1.02168, 0.71719, 1.57080
18.180, -0.38051, 0.30449, -1.02168, 0.71719, 1.57080
18.190, -0.38051, 0.30449, -1.02168, 0.71719, 1.57080
18.200, -0.38051, 0.30449, -1.02168, 0.71719, 1.57080
18.210, -0.38051, 0.30449, -1.02168, 0.71719, 1.57080
18.220, -0.38051, 0.30449, -1.02168, 0.71719, 1.57080
18.230, -0.38051, 0.30449, -1.02168, 0.71719, 1.57080
18.240, -0.38051, 0.30449, -1.02168, 0.71719, 1.57080
18.250, -0.38051, 0.30449, -1.02168, 0.71720, 1.57080
18.260, -0.38051, 0.30449, -1.02168, 0.71720, 1.57080
18.270, -0.38051, 0.30449, -1.02168, 0.71720, 1.57080
18.280, -0.38051, 0.30449, -1.02168, 0.71720, 1.57080
18.290, -0.38051, 0.30449, -1.02168, 0.71720, 1.57080
18.300, -0.38051, 0.30449, -1.02168, 0.71720, 1.57080
18.310, -0.38051, 0.30449, -1.02168, 0.71720, 1.57080
18.320, -0.38051, 0.30449, -1.02168, 0.71720, 1.57080
18.330, -0.38051, 0.30449, -1.02168, 0.71720, 1.57080
18.340, -0.38051, 0.30449, -1.02168, 0.71720, 1.57080
