kutzer/Scor6AxisToolbox/Scor6AxisToolbox Test Functions/ScorBotBoxData_sCurve/BSEPR_Velocity_30Hz.csv
Time_(s), Base_Joint_Velocity_(rad/s), Shoulder_Joint_Velocity_(rad/s), Elbow_Joint_Velocity_(rad/s), Wrist_Pitch_Joint_Velocity_(rad/s), Wrist_Roll_Joint_Velocity_(rad/s)
0.000, -0.00001, -0.00002, 0.00002, 0.00003, -0.00005
0.033, -0.00018, -0.00146, 0.00133, 0.00042, -0.00234
0.067, -0.00055, -0.00513, 0.00466, 0.00123, -0.00776
0.100, -0.00112, -0.01102, 0.01001, 0.00245, -0.01631
0.133, -0.00190, -0.01913, 0.01736, 0.00408, -0.02799
0.167, -0.00288, -0.02946, 0.02673, 0.00613, -0.04281
0.200, -0.00406, -0.04202, 0.03810, 0.00860, -0.06077
0.233, -0.00544, -0.05679, 0.05149, 0.01147, -0.08185
0.267, -0.00703, -0.07379, 0.06690, 0.01476, -0.10607
0.300, -0.00882, -0.09302, 0.08431, 0.01847, -0.13343
0.333, -0.01081, -0.11447, 0.10373, 0.02259, -0.16392
0.367, -0.01301, -0.13767, 0.12508, 0.02712, -0.19754
0.400, -0.01541, -0.16100, 0.14693, 0.03207, -0.23429
0.433, -0.01801, -0.18433, 0.16876, 0.03743, -0.27419
0.467, -0.02071, -0.20767, 0.19060, 0.04321, -0.31721
0.500, -0.02341, -0.23097, 0.21244, 0.04940, -0.36203
0.533, -0.02612, -0.25287, 0.23386, 0.05600, -0.40683
0.567, -0.02882, -0.27254, 0.25338, 0.06302, -0.45163
0.600, -0.03152, -0.28998, 0.27090, 0.07045, -0.49645
0.633, -0.03422, -0.30521, 0.28640, 0.07830, -0.53990
0.667, -0.03692, -0.31821, 0.29988, 0.08656, -0.58022
0.700, -0.03962, -0.32898, 0.31136, 0.09523, -0.61740
0.733, -0.04232, -0.33754, 0.32082, 0.10432, -0.65145
0.767, -0.04502, -0.34387, 0.32828, 0.11382, -0.68236
0.800, -0.04773, -0.34798, 0.33372, 0.12373, -0.71014
0.833, -0.05043, -0.34987, 0.33714, 0.13406, -0.73479
0.867, -0.05313, -0.35000, 0.33856, 0.14481, -0.75630
0.900, -0.05583, -0.35000, 0.33859, 0.15597, -0.77468
0.933, -0.05853, -0.35000, 0.33859, 0.16752, -0.78993
0.967, -0.06123, -0.35000, 0.33859, 0.17914, -0.80204
1.000, -0.06393, -0.35000, 0.33859, 0.19077, -0.81102
1.033, -0.06663, -0.35000, 0.33859, 0.20239, -0.81686
1.067, -0.06934, -0.35000, 0.33859, 0.21401, -0.81957
1.100, -0.07204, -0.35000, 0.33859, 0.22563, -0.81975
1.133, -0.07474, -0.35000, 0.33859, 0.23725, -0.81976
1.167, -0.07744, -0.35000, 0.33859, 0.24888, -0.81976
1.200, -0.08014, -0.35000, 0.33859, 0.26044, -0.81976
1.233, -0.08284, -0.35000, 0.33859, 0.27165, -0.81976
1.267, -0.08554, -0.35000, 0.33859, 0.28243, -0.81976
1.300, -0.08824, -0.35000, 0.33859, 0.29280, -0.81976
1.333, -0.09095, -0.35000, 0.33859, 0.30276, -0.81976
1.367, -0.09365, -0.35000, 0.33859, 0.31230, -0.81976
1.400, -0.09635, -0.35000, 0.33859, 0.32143, -0.81976
1.433, -0.09905, -0.35000, 0.33859, 0.33014, -0.81976
1.467, -0.10175, -0.35000, 0.33859, 0.33844, -0.81976
1.500, -0.10445, -0.35000, 0.33859, 0.34633, -0.81976
1.533, -0.10715, -0.35000, 0.33859, 0.35380, -0.81976
1.567, -0.10985, -0.35000, 0.33859, 0.36086, -0.81976
1.600, -0.11256, -0.35000, 0.33859, 0.36750, -0.81976
1.633, -0.11526, -0.35000, 0.33859, 0.37373, -0.81976
1.667, -0.11795, -0.35000, 0.33859, 0.37954, -0.81976
1.700, -0.12048, -0.35000, 0.33859, 0.38495, -0.81976
1.733, -0.12281, -0.35000, 0.33859, 0.38993, -0.81976
1.767, -0.12493, -0.35000, 0.33859, 0.39451, -0.81976
1.800, -0.12685, -0.35000, 0.33859, 0.39867, -0.81976
1.833, -0.12857, -0.35000, 0.33859, 0.40241, -0.81976
1.867, -0.13009, -0.35000, 0.33859, 0.40574, -0.81976
1.900, -0.13140, -0.35000, 0.33859, 0.40866, -0.81976
1.933, -0.13252, -0.35000, 0.33859, 0.41116, -0.81976
1.967, -0.13342, -0.35000, 0.33859, 0.41325, -0.81976
2.000, -0.13413, -0.35000, 0.33859, 0.41493, -0.81976
2.033, -0.13463, -0.35000, 0.33859, 0.41619, -0.81976
2.067, -0.13494, -0.35000, 0.33859, 0.41704, -0.81976
2.100, -0.13503, -0.35000, 0.33859, 0.41746, -0.81976
2.133, -0.13503, -0.35000, 0.33859, 0.41752, -0.81976
2.167, -0.13503, -0.35000, 0.33859, 0.41752, -0.81976
2.200, -0.13503, -0.35000, 0.33859, 0.41752, -0.81976
2.233, -0.13503, -0.35000, 0.33859, 0.41752, -0.81976
2.267, -0.13503, -0.35000, 0.33859, 0.41752, -0.81976
2.300, -0.13503, -0.35000, 0.33859, 0.41752, -0.81976
2.333, -0.13503, -0.35000, 0.33859, 0.41752, -0.81976
2.367, -0.13503, -0.35000, 0.33859, 0.41752, -0.81976
2.400, -0.13503, -0.35000, 0.33859, 0.41752, -0.81976
2.433, -0.13503, -0.35000, 0.33859, 0.41752, -0.81976
2.467, -0.13503, -0.35000, 0.33859, 0.41752, -0.81976
2.500, -0.13503, -0.35000, 0.33859, 0.41752, -0.81976
2.533, -0.13503, -0.35000, 0.33859, 0.41752, -0.81976
2.567, -0.13503, -0.35000, 0.33859, 0.41752, -0.81976
2.600, -0.13503, -0.35000, 0.33859, 0.41752, -0.81976
2.633, -0.13503, -0.35000, 0.33859, 0.41752, -0.81976
2.667, -0.13503, -0.35000, 0.33859, 0.41752, -0.81976
2.700, -0.13503, -0.35000, 0.33859, 0.41752, -0.81976
2.733, -0.13503, -0.35000, 0.33859, 0.41751, -0.81976
2.767, -0.13503, -0.35000, 0.33859, 0.41752, -0.81976
2.800, -0.13503, -0.35000, 0.33859, 0.41743, -0.81976
2.833, -0.13497, -0.35000, 0.33859, 0.41693, -0.81976
2.867, -0.13471, -0.35000, 0.33859, 0.41602, -0.81976
2.900, -0.13424, -0.35000, 0.33859, 0.41469, -0.81976
2.933, -0.13358, -0.35000, 0.33859, 0.41295, -0.81976
2.967, -0.13271, -0.35000, 0.33859, 0.41080, -0.81976
3.000, -0.13163, -0.35000, 0.33859, 0.40823, -0.81976
3.033, -0.13036, -0.35000, 0.33859, 0.40525, -0.81976
3.067, -0.12888, -0.35000, 0.33859, 0.40185, -0.81976
3.100, -0.12720, -0.35000, 0.33859, 0.39804, -0.81976
3.133, -0.12531, -0.35000, 0.33859, 0.39382, -0.81976
3.167, -0.12323, -0.35000, 0.33859, 0.38918, -0.81976
3.200, -0.12094, -0.35000, 0.33859, 0.38413, -0.81976
3.233, -0.11845, -0.35000, 0.33859, 0.37866, -0.81976
3.267, -0.11577, -0.35000, 0.33859, 0.37278, -0.81976
3.300, -0.11307, -0.35000, 0.33859, 0.36649, -0.81976
3.333, -0.11037, -0.35000, 0.33859, 0.35978, -0.81976
3.367, -0.10767, -0.35000, 0.33859, 0.35266, -0.81976
3.400, -0.10497, -0.35000, 0.33859, 0.34512, -0.81976
3.433, -0.10227, -0.35000, 0.33859, 0.33717, -0.81976
3.467, -0.09956, -0.35000, 0.33859, 0.32881, -0.81976
3.500, -0.09686, -0.35000, 0.33859, 0.32003, -0.81976
3.533, -0.09416, -0.35000, 0.33859, 0.31084, -0.81976
3.567, -0.09146, -0.35000, 0.33859, 0.30123, -0.81976
3.600, -0.08876, -0.35000, 0.33859, 0.29121, -0.81976
3.633, -0.08606, -0.35000, 0.33859, 0.28078, -0.81976
3.667, -0.08336, -0.35000, 0.33859, 0.26993, -0.81976
3.700, -0.08066, -0.35000, 0.33859, 0.25867, -0.81976
3.733, -0.07796, -0.35000, 0.33859, 0.24706, -0.81976
3.767, -0.07525, -0.35000, 0.33859, 0.23544, -0.81976
3.800, -0.07255, -0.35000, 0.33859, 0.22382, -0.81975
3.833, -0.06985, -0.35000, 0.33859, 0.21220, -0.81968
3.867, -0.06715, -0.35000, 0.33859, 0.20057, -0.81730
3.900, -0.06445, -0.35000, 0.33859, 0.18895, -0.81179
3.933, -0.06175, -0.35000, 0.33859, 0.17733, -0.80315
3.967, -0.05905, -0.35000, 0.33859, 0.16571, -0.79137
4.000, -0.05635, -0.35000, 0.33860, 0.15420, -0.77646
4.033, -0.05364, -0.35000, 0.33860, 0.14311, -0.75841
4.067, -0.05094, -0.34999, 0.33765, 0.13243, -0.73723
4.100, -0.04824, -0.34871, 0.33469, 0.12216, -0.71292
4.133, -0.04554, -0.34519, 0.32971, 0.11231, -0.68547
4.167, -0.04284, -0.33946, 0.32272, 0.10287, -0.65489
4.200, -0.04014, -0.33150, 0.31372, 0.09385, -0.62118
4.233, -0.03744, -0.32132, 0.30271, 0.08524, -0.58433
4.267, -0.03474, -0.30891, 0.28969, 0.07704, -0.54435
4.300, -0.03203, -0.29429, 0.27465, 0.06926, -0.50121
4.333, -0.02933, -0.27744, 0.25761, 0.06190, -0.45640
4.367, -0.02663, -0.25837, 0.23854, 0.05494, -0.41160
4.400, -0.02393, -0.23708, 0.21749, 0.04840, -0.36680
4.433, -0.02123, -0.21392, 0.19564, 0.04228, -0.32201
4.467, -0.01852, -0.19059, 0.17381, 0.03657, -0.27862
4.500, -0.01589, -0.16726, 0.15197, 0.03127, -0.23840
4.533, -0.01345, -0.14393, 0.13014, 0.02639, -0.20131
4.567, -0.01122, -0.12060, 0.10850, 0.02192, -0.16735
4.600, -0.00919, -0.09855, 0.08862, 0.01787, -0.13653
4.633, -0.00736, -0.07873, 0.07074, 0.01422, -0.10884
4.667, -0.00573, -0.06114, 0.05487, 0.01100, -0.08428
4.700, -0.00431, -0.04576, 0.04102, 0.00818, -0.06286
4.733, -0.00309, -0.03261, 0.02917, 0.00579, -0.04458
4.767, -0.00207, -0.02168, 0.01934, 0.00380, -0.02942
4.800, -0.00125, -0.01297, 0.01153, 0.00223, -0.01740
4.833, -0.00064, -0.00649, 0.00572, 0.00107, -0.00852
4.867, -0.00023, -0.00223, 0.00192, 0.00033, -0.00277
4.900, -0.00002, -0.00019, 0.00014, 0.00000, -0.00015
4.933, -0.00000, -0.00001, -0.00000, -0.00001, 0.00002
4.967, -0.00000, -0.00001, -0.00000, -0.00001, 0.00001
5.000, -0.00000, -0.00000, -0.00000, -0.00001, 0.00001
5.033, -0.00000, -0.00000, -0.00000, -0.00001, 0.00000
5.067, -0.00000, -0.00000, -0.00000, -0.00001, 0.00000
5.100, -0.00000, -0.00000, -0.00000, -0.00000, -0.00000
5.133, -0.00001, -0.00000, -0.00000, -0.00000, -0.00001
5.167, -0.00001, -0.00000, -0.00000, -0.00000, -0.00001
5.200, -0.00001, -0.00000, -0.00000, -0.00000, -0.00001
5.233, -0.00001, -0.00000, -0.00000, -0.00000, -0.00002
5.267, -0.00001, 0.00000, 0.00000, 0.00000, -0.00002
5.300, -0.00001, 0.00000, 0.00000, 0.00000, -0.00002
5.333, -0.00000, 0.00000, 0.00000, 0.00000, -0.00002
5.367, -0.00000, 0.00000, 0.00000, 0.00000, -0.00002
5.400, -0.00000, 0.00000, 0.00000, 0.00000, -0.00002
5.433, -0.00000, 0.00000, 0.00000, 0.00000, -0.00002
5.467, -0.00000, 0.00000, 0.00000, 0.00000, -0.00002
5.500, -0.00000, 0.00000, 0.00000, 0.00000, -0.00001
5.533, -0.00000, 0.00000, 0.00000, 0.00000, -0.00001
5.567, 0.00000, 0.00000, 0.00000, 0.00000, -0.00001
5.600, 0.00000, 0.00000, 0.00000, 0.00000, -0.00001
5.633, 0.00000, 0.00000, 0.00000, 0.00000, -0.00000
5.667, 0.00000, 0.00000, 0.00000, 0.00000, 0.00000
5.700, 0.00001, 0.00000, 0.00000, 0.00000, 0.00001
5.733, 0.00001, 0.00000, 0.00000, 0.00000, 0.00001
5.767, 0.00001, 0.00000, 0.00000, 0.00000, 0.00002
5.800, 0.00001, 0.00000, 0.00000, 0.00000, 0.00002
5.833, 0.00001, 0.00000, 0.00000, 0.00000, 0.00003
5.867, 0.00001, 0.00000, 0.00000, 0.00000, 0.00004
5.900, 0.00002, 0.00000, 0.00000, 0.00000, 0.00004
5.933, 0.00079, 0.00000, 0.00000, 0.00000, 0.00090
5.967, 0.00379, 0.00000, 0.00000, 0.00000, 0.00381
6.000, 0.00902, 0.00000, 0.00000, 0.00000, 0.00871
6.033, 0.01646, 0.00000, 0.00000, 0.00000, 0.01559
6.067, 0.02613, 0.00000, 0.00000, 0.00000, 0.02446
6.100, 0.03802, 0.00000, 0.00000, 0.00000, 0.03531
6.133, 0.05133, 0.00000, 0.00000, 0.00000, 0.04815
6.167, 0.06467, 0.00000, 0.00000, 0.00000, 0.06297
6.200, 0.07800, 0.00000, 0.00000, 0.00000, 0.07977
6.233, 0.09133, 0.00000, 0.00000, 0.00000, 0.09857
6.267, 0.10467, 0.00000, 0.00000, 0.00000, 0.11934
6.300, 0.11800, 0.00000, 0.00000, 0.00000, 0.14210
6.333, 0.13133, 0.00000, 0.00000, 0.00000, 0.16685
6.367, 0.14467, 0.00000, 0.00000, 0.00000, 0.19358
6.400, 0.15800, 0.00000, 0.00000, 0.00000, 0.22230
6.433, 0.17133, 0.00000, 0.00000, 0.00000, 0.25300
6.467, 0.18467, 0.00000, 0.00000, 0.00000, 0.28561
6.500, 0.19800, 0.00000, 0.00000, 0.00000, 0.31866
6.533, 0.21133, 0.00000, 0.00000, 0.00000, 0.35170
6.567, 0.22467, 0.00000, 0.00000, 0.00000, 0.38474
6.600, 0.23800, 0.00000, 0.00000, 0.00000, 0.41780
6.633, 0.25133, 0.00000, 0.00000, 0.00000, 0.45043
6.667, 0.26454, 0.00000, 0.00000, 0.00000, 0.48116
6.700, 0.27598, 0.00000, 0.00000, 0.00000, 0.50992
6.733, 0.28521, 0.00000, 0.00000, 0.00000, 0.53668
6.767, 0.29221, 0.00000, 0.00000, 0.00000, 0.56147
6.800, 0.29698, 0.00000, 0.00000, 0.00000, 0.58427
6.833, 0.29954, 0.00000, 0.00000, 0.00000, 0.60508
6.867, 0.30001, 0.00000, 0.00000, 0.00000, 0.62391
6.900, 0.30000, 0.00000, 0.00000, 0.00000, 0.64076
6.933, 0.30000, 0.00000, 0.00000, 0.00000, 0.65562
6.967, 0.30000, 0.00000, 0.00000, 0.00000, 0.66849
7.000, 0.30000, 0.00000, 0.00000, 0.00000, 0.67938
7.033, 0.30000, 0.00000, 0.00000, 0.00000, 0.68828
7.067, 0.30000, 0.00000, 0.00000, 0.00000, 0.69520
7.100, 0.30000, 0.00000, 0.00000, 0.00000, 0.70013
7.133, 0.30000, 0.00000, 0.00000, 0.00000, 0.70308
7.167, 0.30000, 0.00000, 0.00000, 0.00000, 0.70405
7.200, 0.30000, 0.00000, 0.00000, 0.00000, 0.70403
7.233, 0.30000, 0.00000, 0.00000, 0.00000, 0.70402
7.267, 0.30000, 0.00000, 0.00000, 0.00000, 0.70402
7.300, 0.30000, 0.00000, 0.00000, 0.00000, 0.70402
7.333, 0.30000, 0.00000, 0.00000, 0.00000, 0.70402
7.367, 0.30000, 0.00000, 0.00000, 0.00000, 0.70402
7.400, 0.30000, 0.00000, 0.00000, 0.00000, 0.70402
7.433, 0.30000, 0.00000, 0.00000, 0.00000, 0.70402
7.467, 0.30000, 0.00000, 0.00000, 0.00000, 0.70402
7.500, 0.30000, 0.00000, 0.00000, 0.00000, 0.70402
7.533, 0.30000, 0.00000, 0.00000, 0.00000, 0.70402
7.567, 0.30000, 0.00000, 0.00000, 0.00000, 0.70402
7.600, 0.30000, 0.00000, 0.00000, 0.00000, 0.70402
7.633, 0.30000, 0.00000, 0.00000, 0.00000, 0.70402
7.667, 0.30000, 0.00000, 0.00000, 0.00000, 0.70402
7.700, 0.30000, 0.00000, 0.00000, 0.00000, 0.70402
7.733, 0.30000, 0.00000, 0.00000, 0.00000, 0.70402
7.767, 0.30000, 0.00000, 0.00000, 0.00000, 0.70402
7.800, 0.30000, 0.00000, 0.00000, 0.00000, 0.70402
7.833, 0.30000, 0.00000, 0.00000, 0.00000, 0.70402
7.867, 0.30000, 0.00000, 0.00000, 0.00000, 0.70402
7.900, 0.30000, 0.00000, 0.00000, 0.00000, 0.70402
7.933, 0.30000, 0.00000, 0.00000, 0.00000, 0.70402
7.967, 0.30000, 0.00000, 0.00000, 0.00000, 0.70402
8.000, 0.30000, 0.00000, 0.00000, 0.00000, 0.70402
8.033, 0.30000, 0.00000, 0.00000, 0.00000, 0.70402
8.067, 0.30000, 0.00000, 0.00000, 0.00000, 0.70402
8.100, 0.30000, 0.00000, 0.00000, 0.00000, 0.70402
8.133, 0.30000, 0.00000, 0.00000, 0.00000, 0.70405
8.167, 0.30000, 0.00000, 0.00000, 0.00000, 0.70299
8.200, 0.30000, 0.00000, 0.00000, 0.00000, 0.69995
8.233, 0.30000, 0.00000, 0.00000, 0.00000, 0.69493
8.267, 0.30000, 0.00000, 0.00000, 0.00000, 0.68791
8.300, 0.30000, 0.00000, 0.00000, 0.00000, 0.67892
8.333, 0.30000, 0.00000, 0.00000, 0.00000, 0.66794
8.367, 0.30000, 0.00000, 0.00000, 0.00000, 0.65497
8.400, 0.30000, 0.00000, 0.00000, 0.00000, 0.64002
8.433, 0.30002, 0.00000, 0.00000, 0.00000, 0.62309
8.467, 0.29939, 0.00000, 0.00000, 0.00000, 0.60417
8.500, 0.29661, 0.00000, 0.00000, 0.00000, 0.58326
8.533, 0.29162, 0.00000, 0.00000, 0.00000, 0.56037
8.567, 0.28440, 0.00000, 0.00000, 0.00000, 0.53549
8.600, 0.27496, 0.00000, 0.00000, 0.00000, 0.50863
8.633, 0.26329, 0.00000, 0.00000, 0.00000, 0.47978
8.667, 0.25003, 0.00000, 0.00000, 0.00000, 0.44896
8.700, 0.23669, 0.00000, 0.00000, 0.00000, 0.41627
8.733, 0.22336, 0.00000, 0.00000, 0.00000, 0.38322
8.767, 0.21003, 0.00000, 0.00000, 0.00000, 0.35017
8.800, 0.19669, 0.00000, 0.00000, 0.00000, 0.31713
8.833, 0.18336, 0.00000, 0.00000, 0.00000, 0.28408
8.867, 0.17003, 0.00000, 0.00000, 0.00000, 0.25154
8.900, 0.15669, 0.00000, 0.00000, 0.00000, 0.22093
8.933, 0.14336, 0.00000, 0.00000, 0.00000, 0.19230
8.967, 0.13003, 0.00000, 0.00000, 0.00000, 0.16566
9.000, 0.11669, 0.00000, 0.00000, 0.00000, 0.14101
9.033, 0.10336, 0.00000, 0.00000, 0.00000, 0.11834
9.067, 0.09003, 0.00000, 0.00000, 0.00000, 0.09765
9.100, 0.07669, 0.00000, 0.00000, 0.00000, 0.07895
9.133, 0.06336, 0.00000, 0.00000, 0.00000, 0.06224
9.167, 0.05003, 0.00000, 0.00000, 0.00000, 0.04751
9.200, 0.03676, 0.00000, 0.00000, 0.00000, 0.03476
9.233, 0.02508, 0.00000, 0.00000, 0.00000, 0.02400
9.267, 0.01563, 0.00000, 0.00000, 0.00000, 0.01523
9.300, 0.00841, 0.00000, 0.00000, 0.00000, 0.00844
9.333, 0.00340, 0.00000, 0.00000, 0.00000, 0.00364
9.367, 0.00062, 0.00000, 0.00000, 0.00000, 0.00082
9.400, -0.00001, 0.00000, 0.00000, -0.00000, 0.00002
9.433, -0.00000, 0.00000, 0.00000, -0.00000, 0.00002
9.467, -0.00000, 0.00000, 0.00000, -0.00001, 0.00001
9.500, -0.00000, 0.00000, 0.00000, -0.00001, 0.00000
9.533, -0.00000, 0.00000, 0.00000, -0.00001, -0.00000
9.567, -0.00000, 0.00000, 0.00000, -0.00001, -0.00000
9.600, -0.00000, 0.00000, 0.00000, -0.00001, -0.00001
9.633, -0.00000, 0.00000, 0.00001, -0.00001, -0.00001
9.667, -0.00000, 0.00000, 0.00001, -0.00001, -0.00002
9.700, -0.00000, 0.00000, 0.00001, -0.00002, -0.00002
9.733, 0.00000, 0.00000, 0.00001, -0.00002, -0.00002
9.767, 0.00000, 0.00000, 0.00001, -0.00001, -0.00002
9.800, 0.00000, 0.00000, 0.00001, -0.00001, -0.00002
9.833, 0.00000, 0.00000, 0.00000, -0.00001, -0.00002
9.867, 0.00000, 0.00000, 0.00000, -0.00001, -0.00002
9.900, 0.00000, 0.00000, 0.00000, -0.00001, -0.00002
9.933, 0.00000, 0.00000, 0.00000, -0.00001, -0.00002
9.967, 0.00000, 0.00000, 0.00000, -0.00001, -0.00002
10.000, 0.00000, 0.00000, 0.00000, -0.00000, -0.00001
10.033, 0.00000, 0.00000, 0.00000, -0.00000, -0.00001
10.067, 0.00000, -0.00000, -0.00000, 0.00000, -0.00001
10.100, 0.00000, -0.00000, -0.00000, 0.00000, -0.00000
10.133, 0.00000, -0.00000, -0.00000, 0.00001, 0.00000
10.167, 0.00000, -0.00000, -0.00000, 0.00001, 0.00001
10.200, 0.00000, -0.00000, -0.00001, 0.00002, 0.00001
10.233, 0.00000, -0.00000, -0.00001, 0.00002, 0.00002
10.267, 0.00000, -0.00001, -0.00001, 0.00002, 0.00003
10.300, 0.00000, -0.00001, -0.00001, 0.00003, 0.00003
10.333, 0.00000, -0.00001, -0.00001, 0.00004, 0.00004
10.367, 0.00000, -0.00001, -0.00002, 0.00004, 0.00005
10.400, 0.00000, -0.00008, -0.00022, 0.00027, 0.00043
10.433, 0.00000, -0.00071, -0.00233, 0.00218, 0.00384
10.467, 0.00000, -0.00194, -0.00666, 0.00587, 0.01057
10.500, 0.00000, -0.00377, -0.01322, 0.01133, 0.02063
10.533, 0.00000, -0.00622, -0.02199, 0.01857, 0.03401
10.567, 0.00000, -0.00926, -0.03299, 0.02758, 0.05072
10.600, 0.00000, -0.01292, -0.04622, 0.03837, 0.07076
10.633, 0.00000, -0.01718, -0.06166, 0.05094, 0.09412
10.667, 0.00000, -0.02205, -0.07933, 0.06528, 0.12081
10.700, 0.00000, -0.02752, -0.09922, 0.08140, 0.15082
10.733, 0.00000, -0.03360, -0.12134, 0.09929, 0.18417
10.767, 0.00000, -0.04028, -0.14467, 0.11895, 0.22083
10.800, 0.00000, -0.04757, -0.16800, 0.14040, 0.26082
10.833, 0.00000, -0.05547, -0.19133, 0.16362, 0.30414
10.867, 0.00000, -0.06397, -0.21467, 0.18861, 0.35039
10.900, 0.00000, -0.07308, -0.23778, 0.21538, 0.39700
10.933, 0.00000, -0.08276, -0.25901, 0.24393, 0.44361
10.967, 0.00000, -0.09258, -0.27801, 0.27418, 0.49022
11.000, 0.00000, -0.10239, -0.29478, 0.30486, 0.53630
11.033, 0.00000, -0.11220, -0.30934, 0.33554, 0.57930
11.067, 0.00000, -0.12201, -0.32167, 0.36622, 0.61897
11.100, 0.00000, -0.13182, -0.33178, 0.39689, 0.65532
11.133, 0.00000, -0.14164, -0.33967, 0.42739, 0.68835
11.167, 0.00000, -0.15140, -0.34534, 0.45636, 0.71805
11.200, 0.00000, -0.16067, -0.34878, 0.48355, 0.74442
11.233, 0.00000, -0.16933, -0.35000, 0.50897, 0.76747
11.267, 0.00000, -0.17739, -0.35000, 0.53260, 0.78719
11.300, 0.00000, -0.18484, -0.35000, 0.55447, 0.80358
11.333, 0.00000, -0.19168, -0.35000, 0.57455, 0.81665
11.367, 0.00000, -0.19791, -0.35000, 0.59286, 0.82639
11.400, 0.00000, -0.20355, -0.35000, 0.60940, 0.83281
11.433, 0.00000, -0.20857, -0.35000, 0.62416, 0.83590
11.467, 0.00000, -0.21299, -0.35000, 0.63714, 0.83617
11.500, 0.00000, -0.21680, -0.35000, 0.64835, 0.83618
11.533, 0.00000, -0.22001, -0.35000, 0.65779, 0.83618
11.567, 0.00000, -0.22261, -0.35000, 0.66544, 0.83618
11.600, 0.00000, -0.22461, -0.35000, 0.67133, 0.83618
11.633, 0.00000, -0.22599, -0.35000, 0.67543, 0.83618
11.667, 0.00000, -0.22678, -0.35000, 0.67777, 0.83618
11.700, 0.00000, -0.22697, -0.35000, 0.67835, 0.83618
11.733, 0.00000, -0.22696, -0.35000, 0.67833, 0.83618
11.767, 0.00000, -0.22696, -0.35000, 0.67833, 0.83618
11.800, 0.00000, -0.22696, -0.35000, 0.67833, 0.83618
11.833, 0.00000, -0.22696, -0.35000, 0.67833, 0.83618
11.867, 0.00000, -0.22696, -0.35000, 0.67833, 0.83618
11.900, 0.00000, -0.22696, -0.35000, 0.67833, 0.83618
11.933, 0.00000, -0.22696, -0.35000, 0.67833, 0.83618
11.967, 0.00000, -0.22696, -0.35000, 0.67833, 0.83618
12.000, 0.00000, -0.22696, -0.35000, 0.67834, 0.83618
12.033, 0.00000, -0.22688, -0.35000, 0.67771, 0.83618
12.067, 0.00000, -0.22625, -0.35000, 0.67529, 0.83618
12.100, 0.00000, -0.22501, -0.35000, 0.67111, 0.83618
12.133, 0.00000, -0.22317, -0.35000, 0.66515, 0.83618
12.167, 0.00000, -0.22072, -0.35000, 0.65741, 0.83618
12.200, 0.00000, -0.21766, -0.35000, 0.64790, 0.83618
12.233, 0.00000, -0.21400, -0.35000, 0.63661, 0.83618
12.267, 0.00000, -0.20974, -0.35000, 0.62355, 0.83616
12.300, 0.00000, -0.20486, -0.35000, 0.60871, 0.83394
12.333, 0.00000, -0.19939, -0.35000, 0.59210, 0.82839
12.367, 0.00000, -0.19330, -0.35000, 0.57371, 0.81952
12.400, 0.00000, -0.18661, -0.35000, 0.55354, 0.80732
12.433, 0.00000, -0.17931, -0.35000, 0.53160, 0.79179
12.467, 0.00000, -0.17141, -0.35001, 0.50789, 0.77294
12.500, 0.00000, -0.16290, -0.34931, 0.48240, 0.75077
12.533, 0.00000, -0.15379, -0.34643, 0.45513, 0.72526
12.567, 0.00000, -0.14410, -0.34133, 0.42609, 0.69643
12.600, 0.00000, -0.13429, -0.33400, 0.39553, 0.66428
12.633, 0.00000, -0.12448, -0.32446, 0.36487, 0.62880
12.667, 0.00000, -0.11466, -0.31269, 0.33419, 0.58999
12.700, 0.00000, -0.10485, -0.29870, 0.30352, 0.54786
12.733, 0.00000, -0.09504, -0.28249, 0.27283, 0.50243
12.767, 0.00000, -0.08523, -0.26405, 0.24263, 0.45580
12.800, 0.00000, -0.07546, -0.24340, 0.21417, 0.40918
12.833, 0.00000, -0.06620, -0.22061, 0.18748, 0.36257
12.867, 0.00000, -0.05755, -0.19727, 0.16256, 0.31602
12.900, 0.00000, -0.04950, -0.17394, 0.13942, 0.27183
12.933, 0.00000, -0.04206, -0.15061, 0.11805, 0.23097
12.967, 0.00000, -0.03522, -0.12727, 0.09847, 0.19343
13.000, 0.00000, -0.02899, -0.10464, 0.08065, 0.15922
13.033, 0.00000, -0.02336, -0.08418, 0.06461, 0.12834
13.067, 0.00000, -0.01834, -0.06595, 0.05035, 0.10078
13.100, 0.00000, -0.01393, -0.04994, 0.03786, 0.07655
13.133, 0.00000, -0.01013, -0.03615, 0.02715, 0.05564
13.167, 0.00000, -0.00692, -0.02458, 0.01822, 0.03806
13.200, 0.00000, -0.00433, -0.01524, 0.01106, 0.02381
13.233, 0.00000, -0.00234, -0.00812, 0.00567, 0.01288
13.267, 0.00000, -0.00096, -0.00322, 0.00206, 0.00527
13.300, 0.00000, -0.00018, -0.00054, 0.00023, 0.00100
13.333, 0.00000, -0.00000, -0.00000, -0.00002, 0.00003
13.367, 0.00000, -0.00000, -0.00000, -0.00002, 0.00002
13.400, 0.00000, -0.00000, -0.00000, -0.00001, 0.00001
13.433, 0.00000, -0.00000, -0.00000, -0.00001, 0.00001
13.467, 0.00000, -0.00000, -0.00000, -0.00001, 0.00000
13.500, 0.00000, -0.00000, -0.00000, -0.00001, -0.00000
13.533, 0.00000, -0.00000, -0.00000, -0.00001, -0.00001
13.567, 0.00001, -0.00000, -0.00000, -0.00000, -0.00001
13.600, 0.00001, -0.00000, -0.00000, -0.00000, -0.00001
13.633, 0.00001, -0.00000, -0.00000, -0.00000, -0.00001
13.667, 0.00001, 0.00000, 0.00000, 0.00000, -0.00002
13.700, 0.00001, 0.00000, 0.00000, 0.00000, -0.00002
13.733, 0.00001, 0.00000, 0.00000, 0.00000, -0.00002
13.767, 0.00000, 0.00000, 0.00000, 0.00000, -0.00002
13.800, 0.00000, 0.00000, 0.00000, 0.00000, -0.00002
13.833, 0.00000, 0.00000, 0.00000, 0.00000, -0.00002
13.867, 0.00000, 0.00000, 0.00000, 0.00001, -0.00002
13.900, 0.00000, 0.00000, 0.00000, 0.00001, -0.00002
13.933, 0.00000, 0.00000, 0.00000, 0.00001, -0.00001
13.967, 0.00000, 0.00000, 0.00000, 0.00001, -0.00001
14.000, -0.00000, 0.00000, 0.00000, 0.00001, -0.00001
14.033, -0.00000, 0.00000, 0.00000, 0.00001, -0.00000
14.067, -0.00000, 0.00000, 0.00000, 0.00001, -0.00000
14.100, -0.00000, 0.00000, 0.00000, 0.00001, 0.00000
14.133, -0.00001, 0.00000, 0.00000, 0.00000, 0.00001
14.167, -0.00001, 0.00000, 0.00000, 0.00000, 0.00001
14.200, -0.00001, 0.00000, 0.00000, 0.00000, 0.00002
14.233, -0.00001, 0.00000, 0.00000, 0.00000, 0.00003
14.267, -0.00001, 0.00000, 0.00000, 0.00000, 0.00003
14.300, -0.00002, 0.00000, 0.00000, 0.00000, 0.00004
14.333, -0.00033, 0.00000, 0.00000, 0.00000, 0.00042
14.367, -0.00266, 0.00000, 0.00000, 0.00000, 0.00273
14.400, -0.00722, 0.00000, 0.00000, 0.00000, 0.00703
14.433, -0.01399, 0.00000, 0.00000, 0.00000, 0.01332
14.467, -0.02299, 0.00000, 0.00000, 0.00000, 0.02159
14.500, -0.03422, 0.00000, 0.00000, 0.00000, 0.03184
14.533, -0.04733, 0.00000, 0.00000, 0.00000, 0.04409
14.567, -0.06067, 0.00000, 0.00000, 0.00000, 0.05831
14.600, -0.07400, 0.00000, 0.00000, 0.00000, 0.07452
14.633, -0.08733, 0.00000, 0.00000, 0.00000, 0.09272
14.667, -0.10067, 0.00000, 0.00000, 0.00000, 0.11290
14.700, -0.11400, 0.00000, 0.00000, 0.00000, 0.13507
14.733, -0.12733, 0.00000, 0.00000, 0.00000, 0.15922
14.767, -0.14067, 0.00000, 0.00000, 0.00000, 0.18536
14.800, -0.15400, 0.00000, 0.00000, 0.00000, 0.21348
14.833, -0.16733, 0.00000, 0.00000, 0.00000, 0.24358
14.867, -0.18067, 0.00000, 0.00000, 0.00000, 0.27567
14.900, -0.19400, 0.00000, 0.00000, 0.00000, 0.30874
14.933, -0.20733, 0.00000, 0.00000, 0.00000, 0.34179
14.967, -0.22067, 0.00000, 0.00000, 0.00000, 0.37483
15.000, -0.23400, 0.00000, 0.00000, 0.00000, 0.40787
15.033, -0.24733, 0.00000, 0.00000, 0.00000, 0.44080
15.067, -0.26067, 0.00000, 0.00000, 0.00000, 0.47215
15.100, -0.27278, 0.00000, 0.00000, 0.00000, 0.50150
15.133, -0.28267, 0.00000, 0.00000, 0.00000, 0.52886
15.167, -0.29034, 0.00000, 0.00000, 0.00000, 0.55424
15.200, -0.29578, 0.00000, 0.00000, 0.00000, 0.57764
15.233, -0.29900, 0.00000, 0.00000, 0.00000, 0.59905
15.267, -0.30000, 0.00000, 0.00000, 0.00000, 0.61847
15.300, -0.30000, 0.00000, 0.00000, 0.00000, 0.63591
15.333, -0.30000, 0.00000, 0.00000, 0.00000, 0.65137
15.367, -0.30000, 0.00000, 0.00000, 0.00000, 0.66484
15.400, -0.30000, 0.00000, 0.00000, 0.00000, 0.67632
15.433, -0.30000, 0.00000, 0.00000, 0.00000, 0.68582
15.467, -0.30000, 0.00000, 0.00000, 0.00000, 0.69333
15.500, -0.30000, 0.00000, 0.00000, 0.00000, 0.69886
15.533, -0.30000, 0.00000, 0.00000, 0.00000, 0.70241
15.567, -0.30000, 0.00000, 0.00000, 0.00000, 0.70396
15.600, -0.30000, 0.00000, 0.00000, 0.00000, 0.70402
15.633, -0.30000, 0.00000, 0.00000, 0.00000, 0.70402
15.667, -0.30000, 0.00000, 0.00000, 0.00000, 0.70402
15.700, -0.30000, 0.00000, 0.00000, 0.00000, 0.70402
15.733, -0.30000, 0.00000, 0.00000, 0.00000, 0.70402
15.767, -0.30000, 0.00000, 0.00000, 0.00000, 0.70402
15.800, -0.30000, 0.00000, 0.00000, 0.00000, 0.70402
15.833, -0.30000, 0.00000, 0.00000, 0.00000, 0.70402
15.867, -0.30000, 0.00000, 0.00000, 0.00000, 0.70402
15.900, -0.30000, 0.00000, 0.00000, 0.00000, 0.70402
15.933, -0.30000, 0.00000, 0.00000, 0.00000, 0.70402
15.967, -0.30000, 0.00000, 0.00000, 0.00000, 0.70402
16.000, -0.30000, 0.00000, 0.00000, 0.00000, 0.70402
16.033, -0.30000, 0.00000, 0.00000, 0.00000, 0.70402
16.067, -0.30000, 0.00000, 0.00000, 0.00000, 0.70402
16.100, -0.30000, 0.00000, 0.00000, 0.00000, 0.70402
16.133, -0.30000, 0.00000, 0.00000, 0.00000, 0.70402
16.167, -0.30000, 0.00000, 0.00000, 0.00000, 0.70402
16.200, -0.30000, 0.00000, 0.00000, 0.00000, 0.70402
16.233, -0.30000, 0.00000, 0.00000, 0.00000, 0.70402
16.267, -0.30000, 0.00000, 0.00000, 0.00000, 0.70402
16.300, -0.30000, 0.00000, 0.00000, 0.00000, 0.70402
16.333, -0.30000, 0.00000, 0.00000, 0.00000, 0.70402
16.367, -0.30000, 0.00000, 0.00000, 0.00000, 0.70402
16.400, -0.30000, 0.00000, 0.00000, 0.00000, 0.70402
16.433, -0.30000, 0.00000, 0.00000, 0.00000, 0.70402
16.467, -0.30000, 0.00000, 0.00000, 0.00000, 0.70402
16.500, -0.30000, 0.00000, 0.00000, 0.00000, 0.70402
16.533, -0.30000, 0.00000, 0.00000, 0.00000, 0.70402
16.567, -0.30000, 0.00000, 0.00000, 0.00000, 0.70352
16.600, -0.30000, 0.00000, 0.00000, 0.00000, 0.70107
16.633, -0.30000, 0.00000, 0.00000, 0.00000, 0.69664
16.667, -0.30000, 0.00000, 0.00000, 0.00000, 0.69023
16.700, -0.30000, 0.00000, 0.00000, 0.00000, 0.68183
16.733, -0.30000, 0.00000, 0.00000, 0.00000, 0.67145
16.767, -0.30000, 0.00000, 0.00000, 0.00000, 0.65908
16.800, -0.30000, 0.00000, 0.00000, 0.00000, 0.64472
16.833, -0.30000, 0.00000, 0.00000, 0.00000, 0.62838
16.867, -0.29979, 0.00000, 0.00000, 0.00000, 0.61006
16.900, -0.29768, 0.00000, 0.00000, 0.00000, 0.58975
16.933, -0.29335, 0.00000, 0.00000, 0.00000, 0.56745
16.967, -0.28680, 0.00000, 0.00000, 0.00000, 0.54317
17.000, -0.27803, 0.00000, 0.00000, 0.00000, 0.51691
17.033, -0.26703, 0.00000, 0.00000, 0.00000, 0.48866
17.067, -0.25402, 0.00000, 0.00000, 0.00000, 0.45842
17.100, -0.24069, 0.00000, 0.00000, 0.00000, 0.42620
17.133, -0.22736, 0.00000, 0.00000, 0.00000, 0.39314
17.167, -0.21403, 0.00000, 0.00000, 0.00000, 0.36010
17.200, -0.20069, 0.00000, 0.00000, 0.00000, 0.32706
17.233, -0.18736, 0.00000, 0.00000, 0.00000, 0.29402
17.267, -0.17403, 0.00000, 0.00000, 0.00000, 0.26113
17.300, -0.16069, 0.00000, 0.00000, 0.00000, 0.22992
17.333, -0.14736, 0.00000, 0.00000, 0.00000, 0.20070
17.367, -0.13403, 0.00000, 0.00000, 0.00000, 0.17346
17.400, -0.12069, 0.00000, 0.00000, 0.00000, 0.14821
17.433, -0.10736, 0.00000, 0.00000, 0.00000, 0.12494
17.467, -0.09403, 0.00000, 0.00000, 0.00000, 0.10366
17.500, -0.08069, 0.00000, 0.00000, 0.00000, 0.08436
17.533, -0.06736, 0.00000, 0.00000, 0.00000, 0.06705
17.567, -0.05403, 0.00000, 0.00000, 0.00000, 0.05172
17.600, -0.04070, 0.00000, 0.00000, 0.00000, 0.03838
17.633, -0.02835, 0.00000, 0.00000, 0.00000, 0.02703
17.667, -0.01823, 0.00000, 0.00000, 0.00000, 0.01766
17.700, -0.01034, 0.00000, 0.00000, 0.00000, 0.01027
17.733, -0.00467, 0.00000, 0.00000, 0.00000, 0.00487
17.767, -0.00122, 0.00000, 0.00000, 0.00000, 0.00146
17.800, 0.00001, 0.00000, 0.00000, 0.00000, 0.00002
17.833, 0.00000, -0.00000, -0.00000, 0.00000, 0.00002
17.867, 0.00000, -0.00000, -0.00000, 0.00001, 0.00001
17.900, 0.00000, -0.00000, -0.00000, 0.00001, 0.00001
17.933, 0.00000, -0.00000, -0.00000, 0.00001, 0.00000
17.967, 0.00000, -0.00000, -0.00000, 0.00001, -0.00000
18.000, 0.00000, -0.00000, -0.00000, 0.00001, -0.00001
18.033, 0.00000, -0.00000, -0.00001, 0.00001, -0.00001
18.067, 0.00000, -0.00000, -0.00001, 0.00001, -0.00001
18.100, 0.00000, -0.00000, -0.00001, 0.00001, -0.00002
18.133, -0.00000, -0.00000, -0.00001, 0.00002, -0.00002
18.167, -0.00000, -0.00000, -0.00001, 0.00001, -0.00002
18.200, -0.00000, -0.00000, -0.00001, 0.00001, -0.00002
18.233, -0.00000, -0.00000, -0.00001, 0.00001, -0.00002
18.267, -0.00000, -0.00000, -0.00000, 0.00001, -0.00002
18.300, -0.00000, -0.00000, -0.00000, 0.00001, -0.00002
18.333, -0.00000, -0.00000, -0.00000, 0.00001, -0.00002
18.367, -0.00000, -0.00000, -0.00000, 0.00001, -0.00002
18.400, -0.00000, -0.00000, -0.00000, 0.00001, -0.00001
18.433, -0.00000, -0.00000, -0.00000, 0.00000, -0.00001
18.467, -0.00000, 0.00000, 0.00000, -0.00000, -0.00001
18.500, -0.00000, 0.00000, 0.00000, -0.00000, -0.00000
18.533, -0.00000, 0.00000, 0.00000, -0.00001, 0.00000
18.567, -0.00000, 0.00000, 0.00000, -0.00001, 0.00001
18.600, -0.00000, 0.00000, 0.00001, -0.00001, 0.00001
18.633, -0.00000, 0.00000, 0.00001, -0.00002, 0.00002
18.667, -0.00000, 0.00001, 0.00001, -0.00002, 0.00002
18.700, -0.00000, 0.00001, 0.00001, -0.00003, 0.00003
18.733, -0.00000, 0.00001, 0.00001, -0.00003, 0.00004
18.767, -0.00000, 0.00001, 0.00001, -0.00004, 0.00005
18.800, -0.00000, 0.00001, 0.00002, -0.00005, 0.00006
18.833, 0.00000, 0.00045, 0.00146, -0.00142, 0.00246
18.867, 0.00000, 0.00150, 0.00513, -0.00458, 0.00820
18.900, 0.00000, 0.00316, 0.01102, -0.00951, 0.01726
18.933, 0.00000, 0.00542, 0.01913, -0.01621, 0.02965
18.967, 0.00000, 0.00829, 0.02946, -0.02469, 0.04536
19.000, 0.00000, 0.01176, 0.04202, -0.03495, 0.06440
19.033, 0.00000, 0.01584, 0.05679, -0.04698, 0.08676
19.067, 0.00000, 0.02052, 0.07379, -0.06079, 0.11245
19.100, 0.00000, 0.02581, 0.09302, -0.07637, 0.14147
19.133, 0.00000, 0.03171, 0.11446, -0.09373, 0.17381
19.167, 0.00000, 0.03821, 0.13767, -0.11287, 0.20948
19.200, 0.00000, 0.04532, 0.16100, -0.13378, 0.24848
19.233, 0.00000, 0.05304, 0.18433, -0.15646, 0.29080
19.267, 0.00000, 0.06136, 0.20767, -0.18093, 0.33639
19.300, 0.00000, 0.07028, 0.23098, -0.20716, 0.38301
19.333, 0.00000, 0.07982, 0.25287, -0.23517, 0.42963
19.367, 0.00000, 0.08963, 0.27254, -0.26496, 0.47624
19.400, 0.00000, 0.09945, 0.28998, -0.29566, 0.52273
19.433, 0.00000, 0.10926, 0.30521, -0.32634, 0.56674
19.467, 0.00000, 0.11907, 0.31821, -0.35701, 0.60742
19.500, 0.00000, 0.12888, 0.32898, -0.38768, 0.64477
19.533, 0.00000, 0.13869, 0.33754, -0.41834, 0.67879
19.567, 0.00000, 0.14850, 0.34387, -0.44786, 0.70949
19.600, 0.00000, 0.15795, 0.34798, -0.47558, 0.73686
19.633, 0.00000, 0.16680, 0.34987, -0.50153, 0.76090
19.667, 0.00000, 0.17503, 0.35000, -0.52570, 0.78162
19.700, 0.00000, 0.18266, 0.35000, -0.54809, 0.79901
19.733, 0.00000, 0.18969, 0.35000, -0.56871, 0.81308
19.767, 0.00000, 0.19611, 0.35000, -0.58756, 0.82382
19.800, 0.00000, 0.20192, 0.35000, -0.60463, 0.83123
19.833, 0.00000, 0.20713, 0.35000, -0.61992, 0.83532
19.867, 0.00000, 0.21173, 0.35000, -0.63344, 0.83618
19.900, 0.00000, 0.21572, 0.35000, -0.64518, 0.83618
19.933, 0.00000, 0.21911, 0.35000, -0.65514, 0.83618
19.967, 0.00000, 0.22189, 0.35000, -0.66333, 0.83618
20.000, 0.00000, 0.22407, 0.35000, -0.66975, 0.83618
20.033, 0.00000, 0.22564, 0.35000, -0.67439, 0.83618
20.067, 0.00000, 0.22661, 0.35000, -0.67725, 0.83618
20.100, 0.00000, 0.22696, 0.35000, -0.67833, 0.83618
20.133, 0.00000, 0.22696, 0.35000, -0.67833, 0.83618
20.167, 0.00000, 0.22696, 0.35000, -0.67833, 0.83618
20.200, 0.00000, 0.22696, 0.35000, -0.67833, 0.83618
20.233, 0.00000, 0.22696, 0.35000, -0.67833, 0.83618
20.267, 0.00000, 0.22696, 0.35000, -0.67833, 0.83618
20.300, 0.00000, 0.22696, 0.35000, -0.67833, 0.83618
20.333, 0.00000, 0.22696, 0.35000, -0.67833, 0.83618
20.367, 0.00000, 0.22696, 0.35000, -0.67833, 0.83618
20.400, 0.00000, 0.22696, 0.35000, -0.67833, 0.83618
20.433, 0.00000, 0.22695, 0.35000, -0.67808, 0.83618
20.467, 0.00000, 0.22650, 0.35000, -0.67620, 0.83618
20.500, 0.00000, 0.22545, 0.35000, -0.67255, 0.83618
20.533, 0.00000, 0.22378, 0.35000, -0.66712, 0.83618
20.567, 0.00000, 0.22152, 0.35000, -0.65992, 0.83618
20.600, 0.00000, 0.21864, 0.35000, -0.65094, 0.83618
20.633, 0.00000, 0.21517, 0.35000, -0.64018, 0.83618
20.667, 0.00000, 0.21108, 0.35000, -0.62765, 0.83619
20.700, 0.00000, 0.20639, 0.35000, -0.61335, 0.83495
20.733, 0.00000, 0.20109, 0.35000, -0.59727, 0.83040
20.767, 0.00000, 0.19519, 0.35000, -0.57941, 0.82253
20.800, 0.00000, 0.18868, 0.35000, -0.55978, 0.81132
20.833, 0.00000, 0.18157, 0.35000, -0.53837, 0.79679
20.867, 0.00000, 0.17385, 0.34999, -0.51519, 0.77894
20.900, 0.00000, 0.16552, 0.34974, -0.49023, 0.75776
20.933, 0.00000, 0.15659, 0.34752, -0.46350, 0.73325
20.967, 0.00000, 0.14705, 0.34309, -0.43499, 0.70542
21.000, 0.00000, 0.13723, 0.33643, -0.40475, 0.67426
21.033, 0.00000, 0.12742, 0.32755, -0.37407, 0.63978
21.067, 0.00000, 0.11761, 0.31645, -0.34340, 0.60197
21.100, 0.00000, 0.10780, 0.30313, -0.31272, 0.56083
21.133, 0.00000, 0.09798, 0.28758, -0.28204, 0.51634
21.167, 0.00000, 0.08817, 0.26982, -0.25152, 0.46976
21.200, 0.00000, 0.07836, 0.24983, -0.22252, 0.42315
21.233, 0.00000, 0.06892, 0.22762, -0.19530, 0.37654
21.267, 0.00000, 0.06008, 0.20427, -0.16985, 0.32990
21.300, 0.00000, 0.05185, 0.18094, -0.14618, 0.28472
21.333, 0.00000, 0.04423, 0.15761, -0.12428, 0.24286
21.367, 0.00000, 0.03721, 0.13427, -0.10416, 0.20433
21.400, 0.00000, 0.03079, 0.11120, -0.08581, 0.16912
21.433, 0.00000, 0.02499, 0.09008, -0.06924, 0.13724
21.467, 0.00000, 0.01979, 0.07118, -0.05444, 0.10869
21.500, 0.00000, 0.01519, 0.05451, -0.04142, 0.08346
21.533, 0.00000, 0.01120, 0.04005, -0.03018, 0.06155
21.567, 0.00000, 0.00782, 0.02782, -0.02071, 0.04298
21.600, 0.00000, 0.00504, 0.01781, -0.01302, 0.02773
21.633, 0.00000, 0.00287, 0.01002, -0.00710, 0.01580
21.667, 0.00000, 0.00131, 0.00446, -0.00296, 0.00720
21.700, 0.00000, 0.00035, 0.00111, -0.00059, 0.00193
21.733, -0.00000, 0.00000, 0.00000, 0.00002, 0.00003
21.767, -0.00000, 0.00000, 0.00000, 0.00002, 0.00003
21.800, -0.00000, 0.00000, 0.00000, 0.00002, 0.00003
21.833, -0.00000, -0.00000, 0.00001, 0.00002, 0.00003
21.867, -0.00000, -0.00000, 0.00001, 0.00002, 0.00003
21.900, -0.00000, -0.00000, 0.00001, 0.00001, 0.00003
21.933, -0.00000, -0.00000, 0.00001, 0.00001, 0.00002
21.967, -0.00000, -0.00000, 0.00001, 0.00001, 0.00002
22.000, -0.00000, -0.00000, 0.00001, 0.00001, 0.00002
22.033, -0.00000, -0.00001, 0.00001, 0.00001, 0.00002
22.067, -0.00000, -0.00001, 0.00001, 0.00001, 0.00002
22.100, -0.00000, -0.00001, 0.00001, 0.00001, 0.00002
22.133, -0.00000, -0.00001, 0.00000, 0.00001, 0.00001
22.167, -0.00000, -0.00001, 0.00000, 0.00001, 0.00001
22.200, -0.00000, -0.00001, 0.00000, 0.00000, 0.00001
22.233, -0.00000, -0.00001, 0.00000, 0.00000, 0.00001
22.267, -0.00000, -0.00000, 0.00000, 0.00000, 0.00000
22.300, -0.00000, -0.00000, 0.00000, -0.00000, 0.00000
22.333, -0.00000, -0.00000, 0.00000, -0.00000, -0.00000
22.367, -0.00000, -0.00000, -0.00000, -0.00000, -0.00001
22.400, 0.00000, -0.00000, -0.00000, -0.00001, -0.00001
22.433, 0.00000, -0.00000, -0.00000, -0.00001, -0.00001
22.467, 0.00000, 0.00000, -0.00000, -0.00001, -0.00002
22.500, 0.00000, 0.00000, -0.00000, -0.00001, -0.00002
22.533, 0.00000, 0.00000, -0.00001, -0.00001, -0.00003
22.567, 0.00000, 0.00001, -0.00001, -0.00002, -0.00003
22.600, 0.00000, 0.00001, -0.00001, -0.00002, -0.00004
22.633, 0.00000, 0.00001, -0.00001, -0.00002, -0.00004
22.667, 0.00001, 0.00001, -0.00001, -0.00002, -0.00004
22.700, 0.00001, 0.00001, -0.00001, -0.00003, -0.00005
22.733, 0.00002, 0.00006, -0.00006, -0.00005, -0.00014
22.767, 0.00020, 0.00173, -0.00158, -0.00048, -0.00274
22.800, 0.00060, 0.00562, -0.00511, -0.00133, -0.00847
22.833, 0.00119, 0.01173, -0.01065, -0.00259, -0.01733
22.867, 0.00199, 0.02006, -0.01821, -0.00427, -0.02933
22.900, 0.00299, 0.03062, -0.02777, -0.00636, -0.04447
22.933, 0.00419, 0.04339, -0.03935, -0.00887, -0.06273
22.967, 0.00559, 0.05839, -0.05294, -0.01178, -0.08413
23.000, 0.00720, 0.07562, -0.06855, -0.01512, -0.10867
23.033, 0.00901, 0.09506, -0.08616, -0.01886, -0.13634
23.067, 0.01103, 0.11674, -0.10578, -0.02302, -0.16714
23.100, 0.01324, 0.14000, -0.12727, -0.02760, -0.20107
23.133, 0.01566, 0.16333, -0.14911, -0.03259, -0.23814
23.167, 0.01828, 0.18667, -0.17095, -0.03799, -0.27835
23.200, 0.02098, 0.21000, -0.19279, -0.04381, -0.32167
23.233, 0.02368, 0.23326, -0.21463, -0.05004, -0.36651
23.267, 0.02639, 0.25494, -0.23590, -0.05668, -0.41131
23.300, 0.02909, 0.27438, -0.25523, -0.06374, -0.45611
23.333, 0.03179, 0.29161, -0.27254, -0.07122, -0.50092
23.367, 0.03449, 0.30661, -0.28784, -0.07910, -0.54407
23.400, 0.03719, 0.31938, -0.30112, -0.08740, -0.58408
23.433, 0.03989, 0.32994, -0.31240, -0.09612, -0.62094
23.467, 0.04259, 0.33827, -0.32166, -0.10525, -0.65468
23.500, 0.04529, 0.34438, -0.32891, -0.11479, -0.68528
23.533, 0.04800, 0.34827, -0.33415, -0.12475, -0.71275
23.567, 0.05070, 0.34993, -0.33738, -0.13512, -0.73708
23.600, 0.05340, 0.35000, -0.33858, -0.14590, -0.75828
23.633, 0.05610, 0.35000, -0.33859, -0.15711, -0.77635
23.667, 0.05880, 0.35000, -0.33859, -0.16868, -0.79128
23.700, 0.06150, 0.35000, -0.33859, -0.18031, -0.80308
23.733, 0.06420, 0.35000, -0.33859, -0.19193, -0.81175
23.767, 0.06690, 0.35000, -0.33859, -0.20355, -0.81728
23.800, 0.06961, 0.35000, -0.33859, -0.21517, -0.81967
23.833, 0.07231, 0.35000, -0.33859, -0.22679, -0.81976
23.867, 0.07501, 0.35000, -0.33859, -0.23841, -0.81976
23.900, 0.07771, 0.35000, -0.33859, -0.25004, -0.81976
23.933, 0.08041, 0.35000, -0.33859, -0.26158, -0.81976
23.967, 0.08311, 0.35000, -0.33859, -0.27275, -0.81976
24.000, 0.08581, 0.35000, -0.33859, -0.28349, -0.81976
24.033, 0.08851, 0.35000, -0.33859, -0.29382, -0.81976
24.067, 0.09122, 0.35000, -0.33859, -0.30373, -0.81976
24.100, 0.09392, 0.35000, -0.33859, -0.31323, -0.81976
24.133, 0.09662, 0.35000, -0.33859, -0.32232, -0.81976
24.167, 0.09932, 0.35000, -0.33859, -0.33099, -0.81976
24.200, 0.10202, 0.35000, -0.33859, -0.33925, -0.81976
24.233, 0.10472, 0.35000, -0.33859, -0.34709, -0.81976
24.267, 0.10742, 0.35000, -0.33859, -0.35452, -0.81976
24.300, 0.11012, 0.35000, -0.33859, -0.36154, -0.81976
24.333, 0.11283, 0.35000, -0.33859, -0.36814, -0.81976
24.367, 0.11553, 0.35000, -0.33859, -0.37433, -0.81976
24.400, 0.11821, 0.35000, -0.33859, -0.38010, -0.81976
24.433, 0.12072, 0.35000, -0.33859, -0.38546, -0.81976
24.467, 0.12303, 0.35000, -0.33859, -0.39041, -0.81976
24.500, 0.12513, 0.35000, -0.33859, -0.39494, -0.81976
24.533, 0.12703, 0.35000, -0.33859, -0.39906, -0.81976
24.567, 0.12873, 0.35000, -0.33859, -0.40276, -0.81976
24.600, 0.13023, 0.35000, -0.33859, -0.40605, -0.81976
24.633, 0.13152, 0.35000, -0.33859, -0.40893, -0.81976
24.667, 0.13262, 0.35000, -0.33859, -0.41139, -0.81976
24.700, 0.13350, 0.35000, -0.33859, -0.41344, -0.81976
24.733, 0.13419, 0.35000, -0.33859, -0.41507, -0.81976
24.767, 0.13467, 0.35000, -0.33859, -0.41629, -0.81976
24.800, 0.13496, 0.35000, -0.33859, -0.41710, -0.81976
24.833, 0.13503, 0.35000, -0.33859, -0.41749, -0.81976
24.867, 0.13503, 0.35000, -0.33859, -0.41752, -0.81976
24.900, 0.13503, 0.35000, -0.33859, -0.41752, -0.81976
24.933, 0.13503, 0.35000, -0.33859, -0.41751, -0.81976
24.967, 0.13503, 0.35000, -0.33859, -0.41752, -0.81976
25.000, 0.13503, 0.35000, -0.33859, -0.41752, -0.81976
25.033, 0.13503, 0.35000, -0.33859, -0.41752, -0.81976
25.067, 0.13503, 0.35000, -0.33859, -0.41752, -0.81976
25.100, 0.13503, 0.35000, -0.33859, -0.41752, -0.81976
25.133, 0.13503, 0.35000, -0.33859, -0.41752, -0.81976
25.167, 0.13503, 0.35000, -0.33859, -0.41752, -0.81976
25.200, 0.13503, 0.35000, -0.33859, -0.41752, -0.81976
25.233, 0.13503, 0.35000, -0.33859, -0.41752, -0.81976
25.267, 0.13503, 0.35000, -0.33859, -0.41752, -0.81976
25.300, 0.13503, 0.35000, -0.33859, -0.41752, -0.81976
25.333, 0.13503, 0.35000, -0.33859, -0.41752, -0.81976
25.367, 0.13503, 0.35000, -0.33859, -0.41752, -0.81976
25.400, 0.13503, 0.35000, -0.33859, -0.41752, -0.81976
25.433, 0.13503, 0.35000, -0.33859, -0.41752, -0.81976
25.467, 0.13503, 0.35000, -0.33859, -0.41751, -0.81976
25.500, 0.13503, 0.35000, -0.33859, -0.41752, -0.81976
25.533, 0.13503, 0.35000, -0.33859, -0.41740, -0.81976
25.567, 0.13495, 0.35000, -0.33859, -0.41686, -0.81976
25.600, 0.13467, 0.35000, -0.33859, -0.41590, -0.81976
25.633, 0.13419, 0.35000, -0.33859, -0.41454, -0.81976
25.667, 0.13350, 0.35000, -0.33859, -0.41276, -0.81976
25.700, 0.13261, 0.35000, -0.33859, -0.41056, -0.81976
25.733, 0.13151, 0.35000, -0.33859, -0.40795, -0.81976
25.767, 0.13022, 0.35000, -0.33859, -0.40493, -0.81976
25.800, 0.12872, 0.35000, -0.33859, -0.40149, -0.81976
25.833, 0.12702, 0.35000, -0.33859, -0.39764, -0.81976
25.867, 0.12511, 0.35000, -0.33859, -0.39338, -0.81976
25.900, 0.12301, 0.35000, -0.33859, -0.38870, -0.81976
25.933, 0.12070, 0.35000, -0.33859, -0.38360, -0.81976
25.967, 0.11819, 0.35000, -0.33859, -0.37810, -0.81976
26.000, 0.11550, 0.35000, -0.33859, -0.37217, -0.81976
26.033, 0.11280, 0.35000, -0.33859, -0.36584, -0.81976
26.067, 0.11010, 0.35000, -0.33859, -0.35909, -0.81976
26.100, 0.10740, 0.35000, -0.33859, -0.35193, -0.81976
26.133, 0.10470, 0.35000, -0.33859, -0.34435, -0.81976
26.167, 0.10200, 0.35000, -0.33859, -0.33636, -0.81976
26.200, 0.09929, 0.35000, -0.33859, -0.32795, -0.81976
26.233, 0.09659, 0.35000, -0.33859, -0.31913, -0.81976
26.267, 0.09389, 0.35000, -0.33859, -0.30990, -0.81976
26.300, 0.09119, 0.35000, -0.33859, -0.30025, -0.81976
26.333, 0.08849, 0.35000, -0.33859, -0.29019, -0.81976
26.367, 0.08579, 0.35000, -0.33859, -0.27971, -0.81976
26.400, 0.08309, 0.35000, -0.33859, -0.26882, -0.81976
26.433, 0.08039, 0.35000, -0.33859, -0.25752, -0.81976
26.467, 0.07769, 0.35000, -0.33859, -0.24589, -0.81976
26.500, 0.07498, 0.35000, -0.33859, -0.23428, -0.81976
26.533, 0.07228, 0.35000, -0.33859, -0.22265, -0.81976
26.567, 0.06958, 0.35000, -0.33859, -0.21103, -0.81959
26.600, 0.06688, 0.35000, -0.33859, -0.19941, -0.81689
26.633, 0.06418, 0.35000, -0.33859, -0.18779, -0.81107
26.667, 0.06148, 0.35000, -0.33859, -0.17617, -0.80211
26.700, 0.05878, 0.35000, -0.33859, -0.16455, -0.79002
26.733, 0.05608, 0.35000, -0.33860, -0.15307, -0.77480
26.767, 0.05337, 0.35000, -0.33859, -0.14202, -0.75644
26.800, 0.05067, 0.34996, -0.33744, -0.13138, -0.73494
26.833, 0.04797, 0.34846, -0.33428, -0.12116, -0.71032
26.867, 0.04527, 0.34472, -0.32910, -0.11135, -0.68256
26.900, 0.04257, 0.33876, -0.32191, -0.10195, -0.65166
26.933, 0.03987, 0.33058, -0.31271, -0.09297, -0.61763
26.967, 0.03717, 0.32017, -0.30150, -0.08440, -0.58047
27.000, 0.03447, 0.30755, -0.28828, -0.07625, -0.54017
27.033, 0.03176, 0.29270, -0.27304, -0.06851, -0.49673
27.067, 0.02906, 0.27563, -0.25579, -0.06118, -0.45192
27.100, 0.02636, 0.25634, -0.23653, -0.05427, -0.40712
27.133, 0.02366, 0.23482, -0.21530, -0.04777, -0.36232
27.167, 0.02096, 0.21159, -0.19346, -0.04169, -0.31753
27.200, 0.01825, 0.18826, -0.17162, -0.03602, -0.27446
27.233, 0.01564, 0.16493, -0.14979, -0.03076, -0.23455
27.267, 0.01322, 0.14159, -0.12795, -0.02592, -0.19777
27.300, 0.01101, 0.11830, -0.10642, -0.02150, -0.16413
27.333, 0.00900, 0.09647, -0.08674, -0.01748, -0.13362
27.367, 0.00719, 0.07687, -0.06906, -0.01388, -0.10624
27.400, 0.00558, 0.05950, -0.05339, -0.01070, -0.08200
27.433, 0.00418, 0.04435, -0.03974, -0.00793, -0.06089
27.467, 0.00298, 0.03142, -0.02810, -0.00557, -0.04292
27.500, 0.00198, 0.02071, -0.01847, -0.00363, -0.02808
27.533, 0.00118, 0.01223, -0.01085, -0.00210, -0.01637
27.567, 0.00059, 0.00596, -0.00525, -0.00098, -0.00780
27.600, 0.00020, 0.00192, -0.00166, -0.00028, -0.00236
27.633, 0.00001, 0.00010, -0.00007, 0.00001, -0.00006
